/* XPM */
static char *_1198_2848a18a62efd27be7b9866f034bde21d6ce8f1f17e7194ac31de981ccafbea6[] = {
/* columns rows colors chars-per-pixel */
"373 351 216 2 ",
"   c #010001",
".  c #070807",
"X  c #0A0906",
"o  c #070108",
"O  c #0B020C",
"+  c #070808",
"@  c #0B0C0B",
"#  c #090705",
"$  c #110E0B",
"%  c #110E07",
"&  c #0E100F",
"*  c #14120D",
"=  c #1C170D",
"-  c #0F0210",
";  c #0F0D10",
":  c #130314",
">  c #140915",
",  c #170318",
"<  c #1A031C",
"1  c #1B0A1C",
"2  c #170918",
"3  c #0F1110",
"4  c #131413",
"5  c #151817",
"6  c #1D1A14",
"7  c #161918",
"8  c #1A1B1B",
"9  c #191513",
"0  c #221E16",
"q  c #261A1A",
"w  c #331A1A",
"e  c #3A1E1E",
"r  c #1C201F",
"t  c #25221A",
"y  c #2A261D",
"u  c #2D281C",
"i  c #362E1A",
"p  c #1E0421",
"a  c #1E0B20",
"s  c #1E1D21",
"d  c #220425",
"f  c #220C24",
"g  c #260529",
"h  c #2A052D",
"j  c #260C29",
"k  c #2A0D2D",
"l  c #2A112D",
"z  c #261128",
"x  c #2E0531",
"c  c #2E0B31",
"v  c #320636",
"b  c #310934",
"n  c #350939",
"m  c #390D3D",
"M  c #340738",
"N  c #2E1231",
"B  c #321435",
"V  c #361539",
"C  c #3A153D",
"Z  c #3B183E",
"A  c #37183A",
"S  c #1E2221",
"D  c #222524",
"F  c #242827",
"G  c #262B29",
"H  c #2A2D2C",
"J  c #2A2728",
"K  c #322D22",
"L  c #3C2121",
"P  c #2B312E",
"I  c #393426",
"U  c #393428",
"Y  c #2E3432",
"T  c #313635",
"R  c #323936",
"E  c #353C3A",
"W  c #3A3D3C",
"Q  c #343538",
"!  c #2E2E32",
"~  c #432222",
"^  c #4C2828",
"/  c #522A2A",
"(  c #423C2D",
")  c #5A3535",
"_  c #4B3636",
"`  c #613D3D",
"'  c #44381D",
"]  c #39413E",
"[  c #37403C",
"{  c #4C4534",
"}  c #534B38",
"|  c #5B533E",
" . c #554727",
".. c #6A5A35",
"X. c #776334",
"o. c #3C0F40",
"O. c #3E1242",
"+. c #3E1941",
"@. c #3C3D42",
"#. c #411545",
"$. c #421A46",
"%. c #441748",
"&. c #461A4A",
"*. c #4A1D4E",
"=. c #4C1F50",
"-. c #4D2051",
";. c #512256",
":. c #56255B",
">. c #59275E",
",. c #4E3152",
"<. c #3D4542",
"1. c #3F4844",
"2. c #434444",
"3. c #414A46",
"4. c #444D4A",
"5. c #4B4B4B",
"6. c #464747",
"7. c #47514D",
"8. c #48524E",
"9. c #4C5551",
"0. c #4F5854",
"q. c #535353",
"w. c #505A56",
"e. c #555F5B",
"r. c #5C5C5C",
"t. c #59525A",
"y. c #5A4F47",
"u. c #674646",
"i. c #665D46",
"p. c #755555",
"a. c #704F4F",
"s. c #6D624A",
"d. c #73684D",
"f. c #776B50",
"g. c #7A6E53",
"h. c #7D7255",
"j. c #6D6758",
"k. c #646464",
"l. c #6C6C6C",
"z. c #686767",
"x. c #747474",
"c. c #7C7C7C",
"v. c #776C67",
"b. c #887039",
"n. c #86795B",
"m. c #8E7845",
"M. c #937979",
"N. c #886D6D",
"B. c #B2944E",
"V. c #8E8162",
"C. c #938563",
"Z. c #9B8C69",
"A. c #A1926D",
"S. c #AC9C75",
"D. c #A69671",
"F. c #B19E71",
"G. c #B4A37A",
"H. c #BAA97E",
"J. c #B8A67C",
"K. c #AE914F",
"L. c #CAA757",
"P. c #D2B163",
"I. c #E3BB5F",
"U. c #FFD26B",
"Y. c #FED473",
"T. c #F2C96A",
"R. c #848484",
"E. c #8B8B8B",
"W. c #8E8986",
"Q. c #949494",
"!. c #9B9B9B",
"~. c #9A8787",
"^. c #A69494",
"/. c #BEAC81",
"(. c #A9A395",
"). c #A4A4A4",
"_. c #ACACAC",
"`. c #B7A7A7",
"'. c #B3B3B3",
"]. c #BBBBBB",
"[. c #BBB6B8",
"{. c #BDB8AD",
"}. c #C1AE83",
"|. c #CAB789",
" X c #D1BE8E",
".X c #C6BABA",
"XX c #D6C291",
"oX c #DBC795",
"OX c #D4C08F",
"+X c #E2CD99",
"@X c #E9D49E",
"#X c #E7D19C",
"$X c #FDDC8E",
"%X c #EDD7A1",
"&X c #F4DDA5",
"*X c #FFE7AD",
"=X c #FDE4A8",
"-X c #FFEBBA",
";X c #E1D1A9",
":X c #C4C4C4",
">X c #CCCCCC",
",X c #CCC5C3",
"<X c #D3C9C8",
"1X c #D3D3D3",
"2X c #DCDCDC",
"3X c #DCD3D3",
"4X c #E3DCDC",
"5X c #FCF0D5",
"6X c #E6E6E6",
"7X c #EBEBEB",
"8X c #EBE6E6",
"9X c #F4F3F3",
"0X c #FEFEFE",
"qX c #F8F6F6",
"wX c #F6F1EA",
"eX c None",
/* pixels */
"eXeXeXeXeXeXeXeXeXeXeXeXeXeXeXeXeXeXeXeXeXeXeXeXeXeXeXeXeXeXeXeXeXeXeXeXeXeXeXeXeXeXeXeXeXeXeXeXeXeXeXeXeXeXeXeXeXeXeXeXeXeXeXeXeXeXeXeXeXeXeXeXeXeXeXeXeXeXeXeXeXeXeXeXeXeXeXeXeXeXeXeXeXeXeXeXeXeXeXeXeXeXeXeXeXeXeXeXeXeXeXeXeXeXeXeXeXeXeXeXeXeXeXeXeXeXeXeXeXeXeXeXeXeXeXeXeXeXeXeXeXeXeXeXeXeXeXeXeXeXeXeXeXeXeXeXeXeXeXeXeXeXeXeXeXeXeXeXeXeXeXeXeXeXeXeXeXeXeXeXeXeXeXeXeXeXeXeXeXeXeXeXeXeXeXeXeXeXeXeXeXeXeXeXeXeXeXeXeXeXeXeXeXeXeXeXeXeXeXeXeXeXeXeXeXeXeXeXeXeXeXeXeXeXeXeXeXeXeXeXeXeXeXeXeXeXeXeXeXeXeXeXeXeXeXeXeXeXeXeXeXeXeXeXeXeXeXeXeXeXeXeXeXeXeXeXeXeXeXeXeXeXeXeXeXeXeXeXeXeXeXeXeXeXeXeXeXeXeXeXeXeXeXeXeXeXeXeXeXeXeXeXeXeXeXeXeXeXeXeXeXeXeXeXeXeXeXeXeXeXeXeXeXeXeXeXeXeXeXeXeXeXeXeXeXeXeXeXeXeXeXeXeXeXeXeXeXeXeXeXeXeXeXeXeXeXeXeXeXeXeXeXeX",
"eXeXeXeXeXeXeXeXeXeXeXeXeXeXeXeXeXeXeXeXeXeXeXeXeXeXeXeXeXeXeXeXeXeXeXeXeXeXeXeXeXeXeXeXeXeXeXeXeXeXeXeXeXeXeXeXeXeXeXeXeXeXeXeXeXeXeXeXeXeXeXeXeXeXeXeXeXeXeXeXeXeXeXeXeXeXeXeXeXeXeXeXeXeXeXeXeXeXeXeXeXeXeXeXeXeXeXeXeXeXeXeXeXeXeXeXeXeXeXeXeXeXeXeXeXeXeXeXeXeXeXeXeXeXeXeXeXeXeXeXeXeXeXeXeXeXeXeXeXeXeXeXeXeXeXeXeXeXeXeXeXeXeXeXeXeXeXeXeXeXeXeXeXeXeXeXeXeXeXeXeXeXeXeXeXeXeXeXeXeXeXeXeXeXeXeXeXeXeXeXeXeXeXeXeXeXeXeXeXeXeXeXeXeXeXeXeXeXeXeXeXeXeXeXeXeXeXeXeXeXeXeXeXeXeXeXeXeXeXeXeXeXeXeXeXeXeXeXeXeXeXeXeXeXeXeXeXeXeXeXeXeXeXeXeXeXeXeXeXeXeXeXeXeXeXeXeXeXeXeXeXeXeXeXeXeXeXeXeXeXeXeXeXeXeXeXeXeXeXeXeXeXeXeXeXeXeXeXeXeXeXeXeXeXeXeXeXeXeXeXeXeXeXeXeXeXeXeXeXeXeXeXeXeXeXeXeXeXeXeXeXeXeXeXeXeXeXeXeXeXeXeXeXeXeXeXeXeXeXeXeXeXeXeXeXeXeXeXeXeXeXeXeX",
"eXeXeXeXeXeXeXeXeXeXeXeXeXeXeXeXeXeXeXeXeXeXeXeXeXeXeXeXeXeXeXeXeXeXeXeXeXeXeXeXeXeXeXeXeXeXeXeXeXeXeXeXeXeXeXeXeXeXeXeXeXeXeXeXeXeXeXeXeXeXeXeXeXeXeXeXeXeXeXeXeXeXeXeXeXeXeXeXeXeXeXeXeXeXeXeXeXeXeXeXeXeXeXeXeXeXeXeXeXeXeXeXeXeXeXeXeXeXeXeXeXeXeXeXeXeXeXeXeXeXeXeXeXeXeXeXeXeXeXeXeXeXeXeXeXeXeXeXeXeXeXeXeXeXeXeXeXeXeXeXeXeXeXeXeXeXeXeXeXeXeXeXeXeXeXeXeXeXeXeXeXeXeXeXeXeXeXeXeXeXeXeXeXeXeXeXeXeXeXeXeXeXeXeXeXeXeXeXeXeXeXeXeXeXeXeXeXeXeXeXeXeXeXeXeXeXeXeXeXeXeXeXeXeXeXeXeXeXeXeXeXeXeXeXeXeXeXeXeXeXeXeXeXeXeXeXeXeXeXeXeXeXeXeXeXeXeXeXeXeXeXeXeXeXeXeXeXeXeXeXeXeXeXeXeXeXeXeXeXeXeXeXeXeXeXeXeXeXeXeXeXeXeXeXeXeXeXeXeXeXeXeXeXeXeXeXeXeXeXeXeXeXeXeXeXeXeXeXeXeXeXeXeXeXeXeXeXeXeXeXeXeXeXeXeXeXeXeXeXeXeXeXeXeXeXeXeXeXeXeXeXeXeXeXeXeXeXeXeXeXeXeXeX",
"eXeXeXeXeXeXeXeXeXeXeXeXeXeXeXeXeXeXeXeXeXeXeXeXeXeXeXeXeXeXeXeXeXeXeXeXeXeXeXeXeXeXeXeXeXeXeXeXeXeXeXeXeXeXeXeXeXeXeXeXeXeXeXeXeXeXeXeXeXeXeXeXeXeXeXeXeXeXeXeXeXeXeXeXeXeXeXeXeXeXeXeXeXeXeXeXeXeXeXeXeXeXeXeXeXeXeXeXeXeXeXeXeXeXeXeXeXeXeXeXeXeXeX                                                                                eXeXeXeXeXeXeXeXeXeXeXeXeXeXeXeXeXeXeXeXeXeXeXeXeXeXeXeXeXeXeXeXeXeXeXeXeXeXeXeXeXeXeXeXeXeXeXeXeXeXeXeXeXeXeXeXeXeXeXeXeXeXeXeXeXeXeXeXeXeXeXeXeXeXeXeXeXeXeXeXeXeXeXeXeXeXeXeXeXeXeXeXeXeXeXeXeXeXeXeXeXeXeXeXeXeXeXeXeXeXeXeXeXeXeXeXeXeXeXeXeXeXeXeXeXeXeXeXeXeXeXeXeXeXeXeXeXeXeXeXeXeXeXeXeXeXeXeXeXeXeXeXeXeXeXeXeXeXeXeXeXeXeXeXeXeXeXeXeXeXeXeXeXeXeXeXeXeXeXeXeXeXeXeXeXeXeXeXeXeXeXeXeXeXeXeXeXeXeXeXeXeXeXeXeXeXeXeXeXeX",
"eXeXeXeXeXeXeXeXeXeXeXeXeXeXeXeXeXeXeXeXeXeXeXeXeXeXeXeXeXeXeXeXeXeXeXeXeXeXeXeXeXeXeXeXeXeXeXeXeXeXeXeXeXeXeXeXeXeXeXeXeXeXeXeXeXeXeXeXeXeXeXeXeXeXeXeXeXeXeXeXeXeXeXeXeXeXeXeXeXeXeXeXeXeXeXeXeXeXeXeXeXeXeXeXeXeXeXeXeX                                                                                                                                eXeXeXeXeXeXeXeXeXeXeXeXeXeXeXeXeXeXeXeXeXeXeXeXeXeXeXeXeXeXeXeXeXeXeXeXeXeXeXeXeXeXeXeXeXeXeXeXeXeXeXeXeXeXeXeXeXeXeXeXeXeXeXeXeXeXeXeXeXeXeXeXeXeXeXeXeXeXeXeXeXeXeXeXeXeXeXeXeXeXeXeXeXeXeXeXeXeXeXeXeXeXeXeXeXeXeXeXeXeXeXeXeXeXeXeXeXeXeXeXeXeXeXeXeXeXeXeXeXeXeXeXeXeXeXeXeXeXeXeXeXeXeXeXeXeXeXeXeXeXeXeXeXeXeXeXeXeXeXeXeXeXeXeXeXeXeXeXeXeXeXeXeXeXeXeXeXeXeXeXeXeXeXeXeXeXeXeXeXeXeXeXeXeXeXeXeXeXeXeX",
"eXeXeXeXeXeXeXeXeXeXeXeXeXeXeXeXeXeXeXeXeXeXeXeXeXeXeXeXeXeXeXeXeXeXeXeXeXeXeXeXeXeXeXeXeXeXeXeXeXeXeXeXeXeXeXeXeXeXeXeXeXeXeXeXeXeXeXeXeXeXeXeXeXeXeXeXeXeXeXeXeXeXeXeXeXeXeXeXeXeXeXeXeXeXeXeXeXeXeX                                                                                                                                                              eXeXeXeXeXeXeXeXeXeXeXeXeXeXeXeXeXeXeXeXeXeXeXeXeXeXeXeXeXeXeXeXeXeXeXeXeXeXeXeXeXeXeXeXeXeXeXeXeXeXeXeXeXeXeXeXeXeXeXeXeXeXeXeXeXeXeXeXeXeXeXeXeXeXeXeXeXeXeXeXeXeXeXeXeXeXeXeXeXeXeXeXeXeXeXeXeXeXeXeXeXeXeXeXeXeXeXeXeXeXeXeXeXeXeXeXeXeXeXeXeXeXeXeXeXeXeXeXeXeXeXeXeXeXeXeXeXeXeXeXeXeXeXeXeXeXeXeXeXeXeXeXeXeXeXeXeXeXeXeXeXeXeXeXeXeXeXeXeXeXeXeXeXeXeXeXeXeXeXeXeXeXeXeXeXeXeXeXeXeXeXeXeXeXeX",
"eXeXeXeXeXeXeXeXeXeXeXeXeXeXeXeXeXeXeXeXeXeXeXeXeXeXeXeXeXeXeXeXeXeXeXeXeXeXeXeXeXeXeXeXeXeXeXeXeXeXeXeXeXeXeXeXeXeXeXeXeXeXeXeXeXeXeXeXeXeXeXeXeXeXeXeXeXeXeXeXeXeXeXeXeXeXeXeXeXeXeX                                                                                            o o o # O @ O O - > ; > : > > > > > 2 , > : > - O O                                         eXeXeXeXeXeXeXeXeXeXeXeXeXeXeXeXeXeXeXeXeXeXeXeXeXeXeXeXeXeXeXeXeXeXeXeXeXeXeXeXeXeXeXeXeXeXeXeXeXeXeXeXeXeXeXeXeXeXeXeXeXeXeXeXeXeXeXeXeXeXeXeXeXeXeXeXeXeXeXeXeXeXeXeXeXeXeXeXeXeXeXeXeXeXeXeXeXeXeXeXeXeXeXeXeXeXeXeXeXeXeXeXeXeXeXeXeXeXeXeXeXeXeXeXeXeXeXeXeXeXeXeXeXeXeXeXeXeXeXeXeXeXeXeXeXeXeXeXeXeXeXeXeXeXeXeXeXeXeXeXeXeXeXeXeXeXeXeXeXeXeXeXeXeXeXeXeXeXeXeXeXeXeXeXeXeXeXeXeXeX",
"eXeXeXeXeXeXeXeXeXeXeXeXeXeXeXeXeXeXeXeXeXeXeXeXeXeXeXeXeXeXeXeXeXeXeXeXeXeXeXeXeXeXeXeXeXeXeXeXeXeXeXeXeXeXeXeXeXeXeXeXeXeXeXeXeXeXeXeXeXeXeXeXeXeXeXeXeXeXeXeXeXeXeXeX                                                            + O O , 1 a f j j N N B V C Z O.#.$.&.*.*.*.*.*.*.=.=.=.=.-.-.-.=.=.*.*.*.*.&.*.$.$.#.#.Z C B B l z j f a a 2 > O                                 eXeXeXeXeXeXeXeXeXeXeXeXeXeXeXeXeXeXeXeXeXeXeXeXeXeXeXeXeXeXeXeXeXeXeXeXeXeXeXeXeXeXeXeXeXeXeXeXeXeXeXeXeXeXeXeXeXeXeXeXeXeXeXeXeXeXeXeXeXeXeXeXeXeXeXeXeXeXeXeXeXeXeXeXeXeXeXeXeXeXeXeXeXeXeXeXeXeXeXeXeXeXeXeXeXeXeXeXeXeXeXeXeXeXeXeXeXeXeXeXeXeXeXeXeXeXeXeXeXeXeXeXeXeXeXeXeXeXeXeXeXeXeXeXeXeXeXeXeXeXeXeXeXeXeXeXeXeXeXeXeXeXeXeXeXeXeXeXeXeXeXeXeXeXeXeXeXeXeXeXeXeXeXeXeXeX",
"eXeXeXeXeXeXeXeXeXeXeXeXeXeXeXeXeXeXeXeXeXeXeXeXeXeXeXeXeXeXeXeXeXeXeXeXeXeXeXeXeXeXeXeXeXeXeXeXeXeXeXeXeXeXeXeXeXeXeXeXeXeXeXeXeXeXeXeXeXeXeXeXeXeXeXeXeXeX                                              o O - - > > 1 2 1 1 1 a f f z l N B V A +.$.&.=.=.=.*.-.=.-.-.-.-.-.=.-.=.=.-.-.-.-.-.-.-.=.=.-.-.-.=.-.-.-.-.-.-.-.-.-.-.-.-.=.=.&.&.+.C B N l j a : o                           eXeXeXeXeXeXeXeXeXeXeXeXeXeXeXeXeXeXeXeXeXeXeXeXeXeXeXeXeXeXeXeXeXeXeXeXeXeXeXeXeXeXeXeXeXeXeXeXeXeXeXeXeXeXeXeXeXeXeXeXeXeXeXeXeXeXeXeXeXeXeXeXeXeXeXeXeXeXeXeXeXeXeXeXeXeXeXeXeXeXeXeXeXeXeXeXeXeXeXeXeXeXeXeXeXeXeXeXeXeXeXeXeXeXeXeXeXeXeXeXeXeXeXeXeXeXeXeXeXeXeXeXeXeXeXeXeXeXeXeXeXeXeXeXeXeXeXeXeXeXeXeXeXeXeXeXeXeXeXeXeXeXeXeXeXeXeXeXeXeXeXeXeXeXeXeXeXeXeXeXeXeXeX",
"eXeXeXeXeXeXeXeXeXeXeXeXeXeXeXeXeXeXeXeXeXeXeXeXeXeXeXeXeXeXeXeXeXeXeXeXeXeXeXeXeXeXeXeXeXeXeXeXeXeXeXeXeXeXeXeXeXeXeXeXeXeXeXeXeXeXeXeXeXeXeXeX                                          o   o         o o O # O O O O O O O @ O O @ O @ O O # O O O # # O > 1 a z l B +.&.=.=.=.=.=.-.-.-.-.-.-.-.=.=.-.-.-.=.-.-.-.=.-.-.-.-.-.-.-.-.=.=.-.-.-.-.-.-.*.&.$.+.B B k 1 O                         eXeXeXeXeXeXeXeXeXeXeXeXeXeXeXeXeXeXeXeXeXeXeXeXeXeXeXeXeXeXeXeXeXeXeXeXeXeXeXeXeXeXeXeXeXeXeXeXeXeXeXeXeXeXeXeXeXeXeXeXeXeXeXeXeXeXeXeXeXeXeXeXeXeXeXeXeXeXeXeXeXeXeXeXeXeXeXeXeXeXeXeXeXeXeXeXeXeXeXeXeXeXeXeXeXeXeXeXeXeXeXeXeXeXeXeXeXeXeXeXeXeXeXeXeXeXeXeXeXeXeXeXeXeXeXeXeXeXeXeXeXeXeXeXeXeXeXeXeXeXeXeXeXeXeXeXeXeXeXeXeXeXeXeXeXeXeXeXeXeXeXeXeXeXeXeXeXeXeXeX",
"eXeXeXeXeXeXeXeXeXeXeXeXeXeXeXeXeXeXeXeXeXeXeXeXeXeXeXeXeXeXeXeXeXeXeXeXeXeXeXeXeXeXeXeXeXeXeXeXeXeXeXeXeXeXeXeXeXeXeXeXeXeXeXeXeXeXeX                                              o o o o o o                                                                             o O 1 z N A &.&.&.&.*.=.*.=.=.=.=.=.-.=.-.=.=.=.-.-.-.-.-.=.-.-.-.-.-.-.-.-.-.-.-.-.-.=.*.%.+.C l f #                     eXeXeXeXeXeXeXeXeXeXeXeXeXeXeXeXeXeXeXeXeXeXeXeXeXeXeXeXeXeXeXeXeXeXeXeXeXeXeXeXeXeXeXeXeXeXeXeXeXeXeXeXeXeXeXeXeXeXeXeXeXeXeXeXeXeXeXeXeXeXeXeXeXeXeXeXeXeXeXeXeXeXeXeXeXeXeXeXeXeXeXeXeXeXeXeXeXeXeXeXeXeXeXeXeXeXeXeXeXeXeXeXeXeXeXeXeXeXeXeXeXeXeXeXeXeXeXeXeXeXeXeXeXeXeXeXeXeXeXeXeXeXeXeXeXeXeXeXeXeXeXeXeXeXeXeXeXeXeXeXeXeXeXeXeXeXeXeXeXeXeXeXeXeXeXeXeXeX",
"eXeXeXeXeXeXeXeXeXeXeXeXeXeXeXeXeXeXeXeXeXeXeXeXeXeXeXeXeXeXeXeXeXeXeXeXeXeXeXeXeXeXeXeXeXeXeXeXeXeXeXeXeXeXeXeXeXeXeXeXeXeXeX                                                                                                                                                            O < f c n m C O.#.#.#.%.&.&.&.*.*.*.=.=.-.-.=.-.-.-.-.-.-.-.-.-.-.-.-.-.-.-.-.-.-.*.$.+.V h >                     eXeXeXeXeXeXeXeXeXeXeXeXeXeXeXeXeXeXeXeXeXeXeXeXeXeXeXeXeXeXeXeXeXeXeXeXeXeXeXeXeXeXeXeXeXeXeXeXeXeXeXeXeXeXeXeXeXeXeXeXeXeXeXeXeXeXeXeXeXeXeXeXeXeXeXeXeXeXeXeXeXeXeXeXeXeXeXeXeXeXeXeXeXeXeXeXeXeXeXeXeXeXeXeXeXeXeXeXeXeXeXeXeXeXeXeXeXeXeXeXeXeXeXeXeXeXeXeXeXeXeXeXeXeXeXeXeXeXeXeXeXeXeXeXeXeXeXeXeXeXeXeXeXeXeXeXeXeXeXeXeXeXeXeXeXeXeXeXeXeXeXeXeXeXeX",
"eXeXeXeXeXeXeXeXeXeXeXeXeXeXeXeXeXeXeXeXeXeXeXeXeXeXeXeXeXeXeXeXeXeXeXeXeXeXeXeXeXeXeXeXeXeXeXeXeXeXeXeXeXeXeXeXeXeXeXeX                                                      o o O O O > > > > 2 1 2 < < a < p p < p p d d d d d d d p d p < < < , : : - O o                                     o O < d g h v v v n n m m o.o.O.#.%.&.&.*.=.-.-.-.-.-.=.-.-.-.-.-.-.-.-.-.-.-.-.=.*.&.+.k >                   eXeXeXeXeXeXeXeXeXeXeXeXeXeXeXeXeXeXeXeXeXeXeXeXeXeXeXeXeXeXeXeXeXeXeXeXeXeXeXeXeXeXeXeXeXeXeXeXeXeXeXeXeXeXeXeXeXeXeXeXeXeXeXeXeXeXeXeXeXeXeXeXeXeXeXeXeXeXeXeXeXeXeXeXeXeXeXeXeXeXeXeXeXeXeXeXeXeXeXeXeXeXeXeXeXeXeXeXeXeXeXeXeXeXeXeXeXeXeXeXeXeXeXeXeXeXeXeXeXeXeXeXeXeXeXeXeXeXeXeXeXeXeXeXeXeXeXeXeXeXeXeXeXeXeXeXeXeXeXeXeXeXeXeXeXeXeXeXeXeXeXeXeX",
"eXeXeXeXeXeXeXeXeXeXeXeXeXeXeXeXeXeXeXeXeXeXeXeXeXeXeXeXeXeXeXeXeXeXeXeXeXeXeXeXeXeXeXeXeXeXeXeXeXeXeXeXeXeXeXeXeX                                          o o O # O - > > < 1 f f j k N c b b b n n M M n n v v v v v v v v b v v x v x x v x x x x x x x x x h g d < , O o                             O : < g h b v v v v v v M M n m o.O.O.%.&.*.=.=.=.-.-.-.-.-.-.-.-.-.-.-.-.-.-.-.*.&.O.j o                 eXeXeXeXeXeXeXeXeXeXeXeXeXeXeXeXeXeXeXeXeXeXeXeXeXeXeXeXeXeXeXeXeXeXeXeXeXeXeXeXeXeXeXeXeXeXeXeXeXeXeXeXeXeXeXeXeXeXeXeXeXeXeXeXeXeXeXeXeXeXeXeXeXeXeXeXeXeXeXeXeXeXeXeXeXeXeXeXeXeXeXeXeXeXeXeXeXeXeXeXeXeXeXeXeXeXeXeXeXeXeXeXeXeXeXeXeXeXeXeXeXeXeXeXeXeXeXeXeXeXeXeXeXeXeXeXeXeXeXeXeXeXeXeXeXeXeXeXeXeXeXeXeXeXeXeXeXeXeXeXeXeXeXeXeXeXeXeXeXeXeX",
"eXeXeXeXeXeXeXeXeXeXeXeXeXeXeXeXeXeXeXeXeXeXeXeXeXeXeXeXeXeXeXeXeXeXeXeXeXeXeXeXeXeXeXeXeXeXeXeXeXeXeXeXeXeXeX                                o   o o O - 2 a h c B V O.C o.o.m n n n b v v v v v v b b v v v v v v v v v v v v v v v v v v v v v v v v v v v v v v v v v v v v k g g a O O o o o               o O < d h x v v v v v v M v v M n n m O.#.%.*.=.-.-.-.-.-.-.-.-.-.-.-.-.-.-.-.-.*.&.V >                 eXeXeXeXeXeXeXeXeXeXeXeXeXeXeXeXeXeXeXeXeXeXeXeXeXeXeXeXeXeXeXeXeXeXeXeXeXeXeXeXeXeXeXeXeXeXeXeXeXeXeXeXeXeXeXeXeXeXeXeXeXeXeXeXeXeXeXeXeXeXeXeXeXeXeXeXeXeXeXeXeXeXeXeXeXeXeXeXeXeXeXeXeXeXeXeXeXeXeXeXeXeXeXeXeXeXeXeXeXeXeXeXeXeXeXeXeXeXeXeXeXeXeXeXeXeXeXeXeXeXeXeXeXeXeXeXeXeXeXeXeXeXeXeXeXeXeXeXeXeXeXeXeXeXeXeXeXeXeXeXeXeXeXeXeXeXeXeXeX",
"eXeXeXeXeXeXeXeXeXeXeXeXeXeXeXeXeXeXeXeXeXeXeXeXeXeXeXeXeXeXeXeXeXeXeXeXeXeXeXeXeXeXeXeXeXeXeXeXeXeXeXeXeX                              o > 1 j N V C O.O.o.o.n M v v v v v v v v v v v v v v v v v v v v v v v v v v v v v v v v v v v v v v v v v v v v v v v v v v v v v v v M v v M m C V c 1 O O O               o : p g x v v v v v v v v M v v v M M m o.O.&.=.-.-.-.-.-.-.-.-.-.-.-.-.-.-.=.*.*.O.1                 eXeXeXeXeXeXeXeXeXeXeXeXeXeXeXeXeXeXeXeXeXeXeXeXeXeXeXeXeXeXeXeXeXeXeXeXeXeXeXeXeXeXeXeXeXeXeXeXeXeXeXeXeXeXeXeXeXeXeXeXeXeXeXeXeXeXeXeXeXeXeXeXeXeXeXeXeXeXeXeXeXeXeXeXeXeXeXeXeXeXeXeXeXeXeXeXeXeXeXeXeXeXeXeXeXeXeXeXeXeXeXeXeXeXeXeXeXeXeXeXeXeXeXeXeXeXeXeXeXeXeXeXeXeXeXeXeXeXeXeXeXeXeXeXeXeXeXeXeXeXeXeXeXeXeXeXeXeXeXeXeXeXeXeXeXeXeX",
"eXeXeXeXeXeXeXeXeXeXeXeXeXeXeXeXeXeXeXeXeXeXeXeXeXeXeXeXeXeXeXeXeXeXeXeXeXeXeXeXeXeXeXeXeXeXeXeXeXeXeX                      - 1 a c V o.o.o.n M v v v v v v v v v v v v v v v v v v v v v v v v v v v v v v v v M v v v v v v v v v v v v v v v v v v v v v v v v v v v v v v v v v v v v v v m O.&.O.N 1 : - o             O , p h v v v v v v v v v v v v v v n n m o.%.=.-.-.-.-.-.=.-.-.-.-.-.-.-.-.-.-.$.a               eXeXeXeXeXeXeXeXeXeXeXeXeXeXeXeXeXeXeXeXeXeXeXeXeXeXeXeXeXeXeXeXeXeXeXeXeXeXeXeXeXeXeXeXeXeXeXeXeXeXeXeXeXeXeXeXeXeXeXeXeXeXeXeXeXeXeXeXeXeXeXeXeXeXeXeXeXeXeXeXeXeXeXeXeXeXeXeXeXeXeXeXeXeXeXeXeXeXeXeXeXeXeXeXeXeXeXeXeXeXeXeXeXeXeXeXeXeXeXeXeXeXeXeXeXeXeXeXeXeXeXeXeXeXeXeXeXeXeXeXeXeXeXeXeXeXeXeXeXeXeXeXeXeXeXeXeXeXeXeXeXeXeXeXeXeX",
"eXeXeXeXeXeXeXeXeXeXeXeXeXeXeXeXeXeXeXeXeXeXeXeXeXeXeXeXeXeXeXeXeXeXeXeXeXeXeXeXeXeXeXeXeXeXeXeXeXeX              : < j k v b b v v v v v x v v v v v v v v v v v M v v v v v v v v v M v v v v v v v v v v v v v v v v v v v v v v v v v v v v v v v v v v v v v v v v v v v v v v v v v v v v b v m #.&.%.C z > - o           o : p h v v v v v v v v v v v v v v M M n m O.&.=.-.-.=.-.-.-.-.-.-.-.-.-.-.-.=.$.2 o             eXeXeXeXeXeXeXeXeXeXeXeXeXeXeXeXeXeXeXeXeXeXeXeXeXeXeXeXeXeXeXeXeXeXeXeXeXeXeXeXeXeXeXeXeXeXeXeXeXeXeXeXeXeXeXeXeXeXeXeXeXeXeXeXeXeXeXeXeXeXeXeXeXeXeXeXeXeXeXeXeXeXeXeXeXeXeXeXeXeXeXeXeXeXeXeXeXeXeXeXeXeXeXeXeXeXeXeXeXeXeXeXeXeXeXeXeXeXeXeXeXeXeXeXeXeXeXeXeXeXeXeXeXeXeXeXeXeXeXeXeXeXeXeXeXeXeXeXeXeXeXeXeXeXeXeXeXeXeXeXeXeXeXeX",
"eXeXeXeXeXeXeXeXeXeXeXeXeXeXeXeXeXeXeXeXeXeXeXeXeXeXeXeXeXeXeXeXeXeXeXeXeXeXeXeXeXeXeXeXeXeXeXeXeX          o , h x x v v v v v v v v v v v v v v v v v v v v v v v v v v v v v v v v v v v v v v v v v v v v v v v v v v v v v v v v v v v v v v v v v v v v v v v v v v v v v v v v v v v v v v v v v M o.#.&.*.Z j 1 >           o : < h v v v v v v v v v v v v v v v v M n m #.*.=.-.-.-.-.-.-.-.-.-.-.-.-.-.-.O.:             eXeXeXeXeXeXeXeXeXeXeXeXeXeXeXeXeXeXeXeXeXeXeXeXeXeXeXeXeXeXeXeXeXeXeXeXeXeXeXeXeXeXeXeXeXeXeXeXeXeXeXeXeXeXeXeXeXeXeXeXeXeXeXeXeXeXeXeXeXeXeXeXeXeXeXeXeXeXeXeXeXeXeXeXeXeXeXeXeXeXeXeXeXeXeXeXeXeXeXeXeXeXeXeXeXeXeXeXeXeXeXeXeXeXeXeXeXeXeXeXeXeXeXeXeXeXeXeXeXeXeXeXeXeXeXeXeXeXeXeXeXeXeXeXeXeXeXeXeXeXeXeXeXeXeXeXeXeXeXeXeXeXeX",
"eXeXeXeXeXeXeXeXeXeXeXeXeXeXeXeXeXeXeXeXeXeXeXeXeXeXeXeXeXeXeXeXeXeXeXeXeXeXeXeXeXeXeXeXeXeXeXeX          : g x v v v v v v v v v v v v v v v v v v v v v v v v v v v v v v v v v v v v v v v v v v v v v v v v v v v v v v v v v v v v v v v v v v v v v v v v v v v v v v v v v v v v v v v v v v v v v v v m #.&.*.*.V f > o         o : p x v v v v v v v v v v v v v v v v M M n O.*.-.-.=.-.-.-.-.-.-.-.-.-.-.-.=.B O             eXeXeXeXeXeXeXeXeXeXeXeXeXeXeXeXeXeXeXeXeXeXeXeXeXeXeXeXeXeXeXeXeXeXeXeXeXeXeXeXeXeXeXeXeXeXeXeXeXeXeXeXeXeXeXeXeXeXeXeXeXeXeXeXeXeXeXeXeXeXeXeXeXeXeXeXeXeXeXeXeXeXeXeXeXeXeXeXeXeXeXeXeXeXeXeXeXeXeXeXeXeXeXeXeXeXeXeXeXeXeXeXeXeXeXeXeXeXeXeXeXeXeXeXeXeXeXeXeXeXeXeXeXeXeXeXeXeXeXeXeXeXeXeXeXeXeXeXeXeXeXeXeXeXeXeXeXeXeXeXeX",
"eXeXeXeXeXeXeXeXeXeXeXeXeXeXeXeXeXeXeXeXeXeXeXeXeXeXeXeXeXeXeXeXeXeXeXeXeXeXeXeXeXeXeXeXeXeXeX          < h v v v v v v v v v v v v v v v v v v v v v v v v v v v v v v v v v v v v v v v v v v v v v v v v v v v v v v v v v v v v v v v M v v v v v v v v v v v v v v v v v v v v v v v v v v v v v v v v v v v n O.&.*.=.$.k 1 @         o : d v v v v v v v v v v v v v v v v v v M n o.*.=.-.-.-.-.-.-.-.-.-.-.-.-.=.$.1 o           eXeXeXeXeXeXeXeXeXeXeXeXeXeXeXeXeXeXeXeXeXeXeXeXeXeXeXeXeXeXeXeXeXeXeXeXeXeXeXeXeXeXeXeXeXeXeXeXeXeXeXeXeXeXeXeXeXeXeXeXeXeXeXeXeXeXeXeXeXeXeXeXeXeXeXeXeXeXeXeXeXeXeXeXeXeXeXeXeXeXeXeXeXeXeXeXeXeXeXeXeXeXeXeXeXeXeXeXeXeXeXeXeXeXeXeXeXeXeXeXeXeXeXeXeXeXeXeXeXeXeXeXeXeXeXeXeXeXeXeXeXeXeXeXeXeXeXeXeXeXeXeXeXeXeXeXeXeXeXeX",
"eXeXeXeXeXeXeXeXeXeXeXeXeXeXeXeXeXeXeXeXeXeXeXeXeXeXeXeXeXeXeXeXeXeXeXeXeXeXeXeXeXeXeXeXeXeXeX        < x v v v v v v v v v v v v v v v v v v v v v v v v v v v v v v v v v v v v v v v v v v v v v v v v v v v v v v v v v v v v v v v v v v v v v v v v v v v v v v v v v v v v v v v v v v v v v v v v v v v v v v m O.%.*.-.%.B 1 O         O < h v v v v v M v v v v v v v v v v v v M M o.*.-.-.-.-.-.-.-.-.-.-.-.=.=.=.B O           eXeXeXeXeXeXeXeXeXeXeXeXeXeXeXeXeXeXeXeXeXeXeXeXeXeXeXeXeXeXeXeXeXeXeXeXeXeXeXeXeXeXeXeXeXeXeXeXeXeXeXeXeXeXeXeXeXeXeXeXeXeXeXeXeXeXeXeXeXeXeXeXeXeXeXeXeXeXeXeXeXeXeXeXeXeXeXeXeXeXeXeXeXeXeXeXeXeXeXeXeXeXeXeXeXeXeXeXeXeXeXeXeXeXeXeXeXeXeXeXeXeXeXeXeXeXeXeXeXeXeXeXeXeXeXeXeXeXeXeXeXeXeXeXeXeXeXeXeXeXeXeXeXeXeXeXeXeXeX",
"eXeXeXeXeXeXeXeXeXeXeXeXeXeXeXeXeXeXeXeXeXeXeXeXeXeXeXeXeXeXeXeXeXeXeXeXeXeXeXeXeXeXeXeXeXeXeX      O h v v v v v v v v v v v v v v v v v v v M v v v v v v v v v v v v v v v v v v v v v v v v v M v v v v v v v v v v v v v v v v v v v v v v v v v v v v v v v v v v v v v v v v v v v v v v v v v v v v v v v v v v v n #.*.-.-.&.B 1 O         : d v v v v v v v v v v v v v v v v v v v M n O.=.-.-.-.-.-.-.-.-.-.=.-.-.-.$.,           eXeXeXeXeXeXeXeXeXeXeXeXeXeXeXeXeXeXeXeXeXeXeXeXeXeXeXeXeXeXeXeXeXeXeXeXeXeXeXeXeXeXeXeXeXeXeXeXeXeXeXeXeXeXeXeXeXeXeXeXeXeXeXeXeXeXeXeXeXeXeXeXeXeXeXeXeXeXeXeXeXeXeXeXeXeXeXeXeXeXeXeXeXeXeXeXeXeXeXeXeXeXeXeXeXeXeXeXeXeXeXeXeXeXeXeXeXeXeXeXeXeXeXeXeXeXeXeXeXeXeXeXeXeXeXeXeXeXeXeXeXeXeXeXeXeXeXeXeXeXeXeXeXeXeXeXeXeX",
"eXeXeXeXeXeXeXeXeXeXeXeXeXeXeXeXeXeXeXeXeXeXeXeXeXeXeXeXeXeXeXeXeXeXeXeXeXeXeXeXeXeXeXeXeXeX        < v v v v v v v v v v v v v v v v v v v v v v v v v v v v v v v v v v v v v v v v v v v v v v v v v v v v v v v v v v v v v v v v v v v v v v v v v v v v v v v v v v v v v v v v v v v v v v v v v v v v v v v v v v v v m #.*.-.-.&.l 1 o       O < x v v v v v v v v v v v v v v v v v v v M n %.=.-.-.-.-.-.-.-.-.-.-.-.-.*.f O         eXeXeXeXeXeXeXeXeXeXeXeXeXeXeXeXeXeXeXeXeXeXeXeXeXeXeXeXeXeXeXeXeXeXeXeXeXeXeXeXeXeXeXeXeXeXeXeXeXeXeXeXeXeXeXeXeXeXeXeXeXeXeXeXeXeXeXeXeXeXeXeXeXeXeXeXeXeXeXeXeXeXeXeXeXeXeXeXeXeXeXeXeXeXeXeXeXeXeXeXeXeXeXeXeXeXeXeXeXeXeXeXeXeXeXeXeXeXeXeXeXeXeXeXeXeXeXeXeXeXeXeXeXeXeXeXeXeXeXeXeXeXeXeXeXeXeXeXeXeXeXeXeXeXeXeXeX",
"eXeXeXeXeXeXeXeXeXeXeXeXeXeXeXeXeXeXeXeXeXeXeXeXeXeXeXeXeXeXeXeXeXeXeXeXeXeXeXeXeXeXeXeXeXeX        h v v v v v v v v v v v v v v v v v v v v v v v v v v v v v v v v v v v v v v v v v v v v v v v v v v v v v v v v v v v v v v v v v v v v v v v v v v v v v v v v v v v v v v v v v v v v v v v v v v v v v v v v v v v v v M O.&.=.=.=.$.j -         , h v v v v v v v v v v v v v v v v v v v v M o.*.=.=.=.-.-.-.-.-.-.-.-.-.=.l O           eXeXeXeXeXeXeXeXeXeXeXeXeXeXeXeXeXeXeXeXeXeXeXeXeXeXeXeXeXeXeXeXeXeXeXeXeXeXeXeXeXeXeXeXeXeXeXeXeXeXeXeXeXeXeXeXeXeXeXeXeXeXeXeXeXeXeXeXeXeXeXeXeXeXeXeXeXeXeXeXeXeXeXeXeXeXeXeXeXeXeXeXeXeXeXeXeXeXeXeXeXeXeXeXeXeXeXeXeXeXeXeXeXeXeXeXeXeXeXeXeXeXeXeXeXeXeXeXeXeXeXeXeXeXeXeXeXeXeXeXeXeXeXeXeXeXeXeXeXeXeXeXeXeXeX",
"eXeXeXeXeXeXeXeXeXeXeXeXeXeXeXeXeXeXeXeXeXeXeXeXeXeXeXeXeXeXeXeXeXeXeXeXeXeXeXeXeXeXeXeXeXeX      o h v v v v v v v v v v v v v v v v v v v v v v v v v v v v v v v v v v v v v v v v v v v v v v v v v v v v v v v v v v v v v v v v v v v v v v v v v v v v v v v v v v v v v v v v v v v v v v v v v v v v v v v v v v v v v v v m #.=.=.=.*.V a         : g v v v v v v v v v v v v v v v v v v v v M M %.=.=.-.-.-.-.-.-.-.-.-.-.-.V >           eXeXeXeXeXeXeXeXeXeXeXeXeXeXeXeXeXeXeXeXeXeXeXeXeXeXeXeXeXeXeXeXeXeXeXeXeXeXeXeXeXeXeXeXeXeXeXeXeXeXeXeXeXeXeXeXeXeXeXeXeXeXeXeXeXeXeXeXeXeXeXeXeXeXeXeXeXeXeXeXeXeXeXeXeXeXeXeXeXeXeXeXeXeXeXeXeXeXeXeXeXeXeXeXeXeXeXeXeXeXeXeXeXeXeXeXeXeXeXeXeXeXeXeXeXeXeXeXeXeXeXeXeXeXeXeXeXeXeXeXeXeXeXeXeXeXeXeXeXeXeXeXeXeX",
"eXeXeXeXeXeXeXeXeXeXeXeXeXeXeXeXeXeXeXeXeXeXeXeXeXeXeXeXeXeXeXeXeXeXeXeXeXeXeXeXeXeXeXeXeXeX      O x v v v v v v v v v v v v v v v v v v v v v v v v v v v v v v v v v v v v v v v v v v v v v v v v v v M v v v v v v v v v v v v v v v v v v v v v v v v v v v v v v v v v v v v v v v v v v v v v v v v v v v v v v v v v v v v v n O.*.=.=.-.$.j +       O d x v v v v v v v v v v v v v v v v v v v v v O.=.=.-.-.-.-.-.-.-.-.-.-.-.O.2           eXeXeXeXeXeXeXeXeXeXeXeXeXeXeXeXeXeXeXeXeXeXeXeXeXeXeXeXeXeXeXeXeXeXeXeXeXeXeXeXeXeXeXeXeXeXeXeXeXeXeXeXeXeXeXeXeXeXeXeXeXeXeXeXeXeXeXeXeXeXeXeXeXeXeXeXeXeXeXeXeXeXeXeXeXeXeXeXeXeXeXeXeXeXeXeXeXeXeXeXeXeXeXeXeXeXeXeXeXeXeXeXeXeXeXeXeXeXeXeXeXeXeXeXeXeXeXeXeXeXeXeXeXeXeXeXeXeXeXeXeXeXeXeXeXeXeXeXeXeXeXeXeX",
"eXeXeXeXeXeXeXeXeXeXeXeXeXeXeXeXeXeXeXeXeXeXeXeXeXeXeXeXeXeXeXeXeXeXeXeXeXeXeXeXeXeXeXeXeXeX      o h v v v v v v v v v v v v v v v v v v v v v v v v v v v v v v v v v v v v v v v v M v v v v v v v v v v v v v v v v v v v M v v v v v v v v v v v v v v v v v v v v v v v v v v v v v M v v v v v v v v v v v v v M v v v v v v v v M o.%.=.-.-.*.B -       O d v v v v v v v v v v v v v v v v v v v v v v m *.=.-.-.-.-.-.-.-.-.-.-.-.O.>         eXeXeXeXeXeXeXeXeXeXeXeXeXeXeXeXeXeXeXeXeXeXeXeXeXeXeXeXeXeXeXeXeXeXeXeXeXeXeXeXeXeXeXeXeXeXeXeXeXeXeXeXeXeXeXeXeXeXeXeXeXeXeXeXeXeXeXeXeXeXeXeXeXeXeXeXeXeXeXeXeXeXeXeXeXeXeXeXeXeXeXeXeXeXeXeXeXeXeXeXeXeXeXeXeXeXeXeXeXeXeXeXeXeXeXeXeXeXeXeXeXeXeXeXeXeXeXeXeXeXeXeXeXeXeXeXeXeXeXeXeXeXeXeXeXeXeXeXeXeXeXeXeX",
"eXeXeXeXeXeXeXeXeXeXeXeXeXeXeXeXeXeXeXeXeXeXeXeXeXeXeXeXeXeXeXeXeXeXeXeXeXeXeXeXeXeXeXeXeXeX        h v v v v v v v v v v v v v v v v v v v v v M v v v v v v v v v v v v v v v v v v v v v v v v v v v v v v v v v v v v v v v v v v v v v v v v v v v v v v v v v v v v v v v v v v v v v v v v v v v v v v v v v v v v v v v v v v v v v m %.=.-.-.=.V > o     O d x v v v v v v v v v v v v v v v v v v v v v n &.=.=.=.-.-.-.-.-.-.-.-.-.+.2         eXeXeXeXeXeXeXeXeXeXeXeXeXeXeXeXeXeXeXeXeXeXeXeXeXeXeXeXeXeXeXeXeXeXeXeXeXeXeXeXeXeXeXeXeXeXeXeXeXeXeXeXeXeXeXeXeXeXeXeXeXeXeXeXeXeXeXeXeXeXeXeXeXeXeXeXeXeXeXeXeXeXeXeXeXeXeXeXeXeXeXeXeXeXeXeXeXeXeXeXeXeXeXeXeXeXeXeXeXeXeXeXeXeXeXeXeXeXeXeXeXeXeXeXeXeXeXeXeXeXeXeXeXeXeXeXeXeXeXeXeXeXeXeXeXeXeXeXeXeXeXeX",
"eXeXeXeXeXeXeXeXeXeXeXeXeXeXeXeXeXeXeXeXeXeXeXeXeXeXeXeXeXeXeXeXeXeXeXeXeXeXeXeXeXeXeXeXeXeX        d x v v v v v v v v v v v v v v v v v v v v v v v v v v v v v v v v v v v v v v v v v v v v v v v v v v v v v v v v v v v v v v M v v v v v v v v v v v v v v v v v v v v v v v v v v v v v v v v v v v v v v v v v v v v v v v v v v v v n #.*.-.-.-.O.1       o p x v v v v v v v v v v v v v v v v v v v v v M #.=.-.-.-.-.-.-.-.-.-.-.-.O.2         eXeXeXeXeXeXeXeXeXeXeXeXeXeXeXeXeXeXeXeXeXeXeXeXeXeXeXeXeXeXeXeXeXeXeXeXeXeXeXeXeXeXeXeXeXeXeXeXeXeXeXeXeXeXeXeXeXeXeXeXeXeXeXeXeXeXeXeXeXeXeXeXeXeXeXeXeXeXeXeXeXeXeXeXeXeXeXeXeXeXeXeXeXeXeXeXeXeXeXeXeXeXeXeXeXeXeXeXeXeXeXeXeXeXeXeXeXeXeXeXeXeXeXeXeXeXeXeXeXeXeXeXeXeXeXeXeXeXeXeXeXeXeXeXeXeXeXeXeXeXeX",
"eXeXeXeXeXeXeXeXeXeXeXeXeXeXeXeXeXeXeXeXeXeXeXeXeXeXeXeXeXeXeXeXeXeXeXeXeXeXeXeXeXeXeXeXeXeX        < g x v v v v v v v v v v v v v v v v v v v v v v v v v v v v v v v v v v v v v v v v v v v v v v v v v v v v v v v v v v v v v v v v v v v v v v v v v v v v v v v v v v v v v v v v v v v v M v v v v v v v v v v v v v v v v v v v v v v n #.*.-.-.=.+.1 o     O d v v v v v v v v v v v v v v v v v v v v v v M #.=.-.=.-.-.-.-.-.-.-.-.-.C >         eXeXeXeXeXeXeXeXeXeXeXeXeXeXeXeXeXeXeXeXeXeXeXeXeXeXeXeXeXeXeXeXeXeXeXeXeXeXeXeXeXeXeXeXeXeXeXeXeXeXeXeXeXeXeXeXeXeXeXeXeXeXeXeXeXeXeXeXeXeXeXeXeXeXeXeXeXeXeXeXeXeXeXeXeXeXeXeXeXeXeXeXeXeXeXeXeXeXeXeXeXeXeXeXeXeXeXeXeXeXeXeXeXeXeXeXeXeXeXeXeXeXeXeXeXeXeXeXeXeXeXeXeXeXeXeXeXeXeXeXeXeXeXeXeXeXeXeXeXeX",
"eXeXeXeXeXeXeXeXeXeXeXeXeXeXeXeXeXeXeXeXeXeXeXeXeXeXeXeXeXeXeXeXeXeXeXeXeXeXeXeXeXeXeXeXeXeXeX      , d g x v v v v v v v v v v v v v v v v v v v v v v v v v v v v v v v M v v v v v v v v v v v v v v v v v v v v v v v v v v v v v v v v v v v M v v v v v v v v v v v v v v v v v v v v v v v v v v v v M v v v v v v v v v v v M v v v v v v n #.=.-.=.=.$.a       O g v v v v v v v v v v v v v v v v v v v v v v M O.=.=.-.-.-.-.-.-.-.-.-.-.B O         eXeXeXeXeXeXeXeXeXeXeXeXeXeXeXeXeXeXeXeXeXeXeXeXeXeXeXeXeXeXeXeXeXeXeXeXeXeXeXeXeXeXeXeXeXeXeXeXeXeXeXeXeXeXeXeXeXeXeXeXeXeXeXeXeXeXeXeXeXeXeXeXeXeXeXeXeXeXeXeXeXeXeXeXeXeXeXeXeXeXeXeXeXeXeXeXeXeXeXeXeXeXeXeXeXeXeXeXeXeXeXeXeXeXeXeXeXeXeXeXeXeXeXeXeXeXeXeXeXeXeXeXeXeXeXeXeXeXeXeXeXeXeXeXeXeXeXeXeX",
"eXeXeXeXeXeXeXeXeXeXeXeXeXeXeXeXeXeXeXeXeXeXeXeXeXeXeXeXeXeXeXeXeXeXeXeXeXeXeXeXeXeXeXeXeXeXeX      o < g g h v v v v v v v v v v v v v v v v v v v v v v v v v v v v v v v v v v v v v v v v v v v v v v v v v v v v v v v v v v v v v v v v v v v v v v v v v v v v v v v v v v v v v v v v v v v v v v v v v v v v v v v v v v v v v v v v v v v M #.=.=.=.=.+.1       - g v v v v v v v v v v v v v v v M v v v v v v M #.=.-.-.-.-.-.-.-.-.-.-.*.l O         eXeXeXeXeXeXeXeXeXeXeXeXeXeXeXeXeXeXeXeXeXeXeXeXeXeXeXeXeXeXeXeXeXeXeXeXeXeXeXeXeXeXeXeXeXeXeXeXeXeXeXeXeXeXeXeXeXeXeXeXeXeXeXeXeXeXeXeXeXeXeXeXeXeXeXeXeXeXeXeXeXeXeXeXeXeXeXeXeXeXeXeXeXeXeXeXeXeXeXeXeXeXeXeXeXeXeXeXeXeXeXeXeXeXeXeXeXeXeXeXeXeXeXeXeXeXeXeXeXeXeXeXeXeXeXeXeXeXeXeXeXeXeXeXeXeXeXeX",
"eXeXeXeXeXeXeXeXeXeXeXeXeXeXeXeXeXeXeXeXeXeXeXeXeXeXeXeXeXeXeXeXeXeXeXeXeXeXeXeXeXeXeXeXeXeXeX        < g g g h x v v v v v v v v v v v v v v v v v v v v v v v v v v v v v v v v v v v v v v v v v v v v v v v v v v M v v v v v v v v v v v v v v v v v v v v v v v v v v v v v v v v v v v v v v v v v v v v v v v v v v v v v v v v v v v v v M v n %.=.=.=.-.+.2       , x v v v v v v v v v v v v v v v v v v v v v v v #.*.-.-.-.-.-.-.-.-.-.-.*.f o       eXeXeXeXeXeXeXeXeXeXeXeXeXeXeXeXeXeXeXeXeXeXeXeXeXeXeXeXeXeXeXeXeXeXeXeXeXeXeXeXeXeXeXeXeXeXeXeXeXeXeXeXeXeXeXeXeXeXeXeXeXeXeXeXeXeXeXeXeXeXeXeXeXeXeXeXeXeXeXeXeXeXeXeXeXeXeXeXeXeXeXeXeXeXeXeXeXeXeXeXeXeXeXeXeXeXeXeXeXeXeXeXeXeXeXeXeXeXeXeXeXeXeXeXeXeXeXeXeXeXeXeXeXeXeXeXeXeXeXeXeXeXeXeXeXeXeXeX",
"eXeXeXeXeXeXeXeXeXeXeXeXeXeXeXeXeXeXeXeXeXeXeXeXeXeXeXeXeXeXeXeXeXeXeXeXeXeXeXeXeXeXeXeXeXeXeXeX      - d g g g g h x v v v v v v v v v v v v v v v v v v v v v v v v v v v v v v v v v v v v v v v v v v v v v v v v v v v v v v v v v v v v v v v v v v v v v v v v v v v v v v v v v v v v v v v v v v v v v v v v v v v v v v v M v v v v v v v v v n #.=.;.-.=.C -     o < x v v v v v v v v v v v v v v v v v v v v v v M #.*.-.-.-.-.-.-.-.-.-.-.$.1         eXeXeXeXeXeXeXeXeXeXeXeXeXeXeXeXeXeXeXeXeXeXeXeXeXeXeXeXeXeXeXeXeXeXeXeXeXeXeXeXeXeXeXeXeXeXeXeXeXeXeXeXeXeXeXeXeXeXeXeXeXeXeXeXeXeXeXeXeXeXeXeXeXeXeXeXeXeXeXeXeXeXeXeXeXeXeXeXeXeXeXeXeXeXeXeXeXeXeXeXeXeXeXeXeXeXeXeXeXeXeXeXeXeXeXeXeXeXeXeXeXeXeXeXeXeXeXeXeXeXeXeXeXeXeXeXeXeXeXeXeXeXeXeXeXeXeX",
"eXeXeXeXeXeXeXeXeXeXeXeXeXeXeXeXeXeXeXeXeXeXeXeXeXeXeXeXeXeXeXeXeXeXeXeXeXeXeXeXeXeXeXeXeXeXeXeX        < g g g g g g h x v v v v v v v v v v v v v v v v v v v v v v v v v v v v v v v v v v v v v v v v M v v v v v v v v v v v v v v v v v v v v v v v v v v v v v v v v v v v v v v v v v v v v v v v v v v M v v v v v v v v v v v v v v v v v v v v o.%.=.-.-.-.B O     o d v v v v v v v v v v v v v v v v v v v v v v v n $.=.-.-.-.-.-.-.-.-.-.-.C >         eXeXeXeXeXeXeXeXeXeXeXeXeXeXeXeXeXeXeXeXeXeXeXeXeXeXeXeXeXeXeXeXeXeXeXeXeXeXeXeXeXeXeXeXeXeXeXeXeXeXeXeXeXeXeXeXeXeXeXeXeXeXeXeXeXeXeXeXeXeXeXeXeXeXeXeXeXeXeXeXeXeXeXeXeXeXeXeXeXeXeXeXeXeXeXeXeXeXeXeXeXeXeXeXeXeXeXeXeXeXeXeXeXeXeXeXeXeXeXeXeXeXeXeXeXeXeXeXeXeXeXeXeXeXeXeXeXeXeXeXeXeXeXeXeXeX",
"eXeXeXeXeXeXeXeXeXeXeXeXeXeXeXeXeXeXeXeXeXeXeXeXeXeXeXeXeXeXeXeXeXeXeXeXeXeXeXeXeXeXeXeXeXeXeXeX        : d g g g g g g g g h x v v v v v v M M v v v v v v v v v v v v v v v v v v M v v v v v v v v v v v v v v v v v v v v v v v v v v v v v v v v v v v v v v v v v v v v v v v v v v v v v v v v v v v v v v v v v v v v v v v v v v v v v v v v v v v o.=.=.-.-.*.j #     : h v v v v v v v v v v v v v v v v v v v v v v M n %.=.-.-.-.-.-.-.-.-.-.=.l O       eXeXeXeXeXeXeXeXeXeXeXeXeXeXeXeXeXeXeXeXeXeXeXeXeXeXeXeXeXeXeXeXeXeXeXeXeXeXeXeXeXeXeXeXeXeXeXeXeXeXeXeXeXeXeXeXeXeXeXeXeXeXeXeXeXeXeXeXeXeXeXeXeXeXeXeXeXeXeXeXeXeXeXeXeXeXeXeXeXeXeXeXeXeXeXeXeXeXeXeXeXeXeXeXeXeXeXeXeXeXeXeXeXeXeXeXeXeXeXeXeXeXeXeXeXeXeXeXeXeXeXeXeXeXeXeXeXeXeXeXeXeXeXeXeXeX",
"eXeXeXeXeXeXeXeXeXeXeXeXeXeXeXeXeXeXeXeXeXeXeXeXeXeXeXeXeXeXeXeXeXeXeXeXeXeXeXeXeXeXeXeXeXeXeXeXeX      o < g g g g g g g g g g g g g x x x x x x x v v x x v v x v x v v v v v v v v v v v v v v v v v v v v v v v v v v v v v v v v v v v v v v v v v v v v v v v v v v v v v v v v v v v v v v v v v v v v v v v v v v v v v v v v v v v v v v v v v v v n o.*.-.-.-.$.1     o < x v v v v v v v v v v v v v v v v v v v v v v v m *.-.-.-.-.-.-.-.-.-.-.&.f         eXeXeXeXeXeXeXeXeXeXeXeXeXeXeXeXeXeXeXeXeXeXeXeXeXeXeXeXeXeXeXeXeXeXeXeXeXeXeXeXeXeXeXeXeXeXeXeXeXeXeXeXeXeXeXeXeXeXeXeXeXeXeXeXeXeXeXeXeXeXeXeXeXeXeXeXeXeXeXeXeXeXeXeXeXeXeXeXeXeXeXeXeXeXeXeXeXeXeXeXeXeXeXeXeXeXeXeXeXeXeXeXeXeXeXeXeXeXeXeXeXeXeXeXeXeXeXeXeXeXeXeXeXeXeXeXeXeXeXeXeXeXeXeXeX",
"eXeXeXeXeXeXeXeXeXeXeXeXeXeXeXeXeXeXeXeXeXeXeXeXeXeXeXeXeXeXeXeXeXeXeXeXeXeXeXeXeXeXeXeXeXeXeXeXeX        : d g g g g g g g g g g g g g g g g g g g g g g g g g g g g h h x x x x v v v v v v v v v v v v v v v v v v v v v v v v v M v v v v v M v v v v v v v v v v v v v v v v v v v v v v v v v v v v v v v v v v v v v v v v v v v v v v v v v v v v v v n &.=.-.-.=.C O     O d v v v v v v v v v v v v v v v v v v v v v v v v O.*.=.-.-.-.-.-.-.-.-.-.C :       eXeXeXeXeXeXeXeXeXeXeXeXeXeXeXeXeXeXeXeXeXeXeXeXeXeXeXeXeXeXeXeXeXeXeXeXeXeXeXeXeXeXeXeXeXeXeXeXeXeXeXeXeXeXeXeXeXeXeXeXeXeXeXeXeXeXeXeXeXeXeXeXeXeXeXeXeXeXeXeXeXeXeXeXeXeXeXeXeXeXeXeXeXeXeXeXeXeXeXeXeXeXeXeXeXeXeXeXeXeXeXeXeXeXeXeXeXeXeXeXeXeXeXeXeXeXeXeXeXeXeXeXeXeXeXeXeXeXeXeXeXeXeXeXeX",
"eXeXeXeXeXeXeXeXeXeXeXeXeXeXeXeXeXeXeXeXeXeXeXeXeXeXeXeXeXeXeXeXeXeXeXeXeXeXeXeXeXeXeXeXeXeXeXeXeXeX      o < h g g g g g g g g g g g g g g g g g g g g g g g g g g g g g g g g x x v v v M v v v v v v v v v v v v v v v v v v v v v v v v v v v v v v M v v v v v v v v v v v v v v M v v v v M v v v v v v v v v v v v v v v v v v v v v v v v v v v v v v v m &.-.-.-.*.j o     , x v v v v v v v v v v v v v v v v v v v v v v v M #.*.-.-.-.-.-.-.-.-.-.=.k #       eXeXeXeXeXeXeXeXeXeXeXeXeXeXeXeXeXeXeXeXeXeXeXeXeXeXeXeXeXeXeXeXeXeXeXeXeXeXeXeXeXeXeXeXeXeXeXeXeXeXeXeXeXeXeXeXeXeXeXeXeXeXeXeXeXeXeXeXeXeXeXeXeXeXeXeXeXeXeXeXeXeXeXeXeXeXeXeXeXeXeXeXeXeXeXeXeXeXeXeXeXeXeXeXeXeXeXeXeXeXeXeXeXeXeXeXeXeXeXeXeXeXeXeXeXeXeXeXeXeXeXeXeXeXeXeXeXeXeXeXeXeXeXeX",
"eXeXeXeXeXeXeXeXeXeXeXeXeXeXeXeXeXeXeXeXeXeXeXeXeXeXeXeXeXeXeXeXeXeXeXeXeXeXeXeXeXeXeXeXeXeXeXeXeXeX        , g g g g g g g g g g g g g g g g g g g g g g g g g g g g g g g g g g h x x v v v v v v v v v v v v v M v v v v v v v v v v v v v v v v v v v v v v v v v v v v v v v v v v v v v v v v v v v v v v v v v v v v v v v v v v M v v v v v v v v v v v v #.*.=.-.-.$.1     o d v v v v v v v v M v v v v v v v v v v v v v v v n %.=.=.-.-.-.-.-.-.-.-.$.1         eXeXeXeXeXeXeXeXeXeXeXeXeXeXeXeXeXeXeXeXeXeXeXeXeXeXeXeXeXeXeXeXeXeXeXeXeXeXeXeXeXeXeXeXeXeXeXeXeXeXeXeXeXeXeXeXeXeXeXeXeXeXeXeXeXeXeXeXeXeXeXeXeXeXeXeXeXeXeXeXeXeXeXeXeXeXeXeXeXeXeXeXeXeXeXeXeXeXeXeXeXeXeXeXeXeXeXeXeXeXeXeXeXeXeXeXeXeXeXeXeXeXeXeXeXeXeXeXeXeXeXeXeXeXeXeXeXeXeXeXeXeXeX",
"eXeXeXeXeXeXeXeXeXeXeXeXeXeXeXeXeXeXeXeXeXeXeXeXeXeXeXeXeXeXeXeXeXeXeXeXeXeXeXeXeXeXeXeXeXeXeXeXeXeXeX      o < g g g g g g g g g g g g g g g g g g g g g g g g g g g g g g g g g g g h x v v v v v v v v v M v v v v v v v v v v v v v v v v v v v v v v v v v v v v v v v v v v v v v v v v v v v v v v v v v v v v v v v v v v v v v v v v v v v v v v v v v v n #.=.-.-.*.B #     : h v v v v v v v v v v v v v v v v v v v v v v v v o.*.-.-.-.-.-.-.-.-.-.-.N #       eXeXeXeXeXeXeXeXeXeXeXeXeXeXeXeXeXeXeXeXeXeXeXeXeXeXeXeXeXeXeXeXeXeXeXeXeXeXeXeXeXeXeXeXeXeXeXeXeXeXeXeXeXeXeXeXeXeXeXeXeXeXeXeXeXeXeXeXeXeXeXeXeXeXeXeXeXeXeXeXeXeXeXeXeXeXeXeXeXeXeXeXeXeXeXeXeXeXeXeXeXeXeXeXeXeXeXeXeXeXeXeXeXeXeXeXeXeXeXeXeXeXeXeXeXeXeXeXeXeXeXeXeXeXeXeXeXeXeXeXeXeXeX",
"eXeXeXeXeXeXeXeXeXeXeXeXeXeXeXeXeXeXeXeXeXeXeXeXeXeXeXeXeXeXeXeXeXeXeXeXeXeXeXeXeXeXeXeXeXeXeXeXeXeXeX        : d g g g g g g g g g g g g g g g g g g g g g g g g g g g g g g g g g g g h x v v v v v v v v v v v v v v v v v v v v v v v v v v v v v v v v v v v v v M v v v v v v v v v v v v v v v v v v v v v v M v v v v v v v v v v v v v v v v v v v v v v v O.*.-.-.-.&.1     o d v v v v v v v v v v v v v v v v v v v v v v v v M #.*.-.-.-.-.-.-.-.-.-.&.a         eXeXeXeXeXeXeXeXeXeXeXeXeXeXeXeXeXeXeXeXeXeXeXeXeXeXeXeXeXeXeXeXeXeXeXeXeXeXeXeXeXeXeXeXeXeXeXeXeXeXeXeXeXeXeXeXeXeXeXeXeXeXeXeXeXeXeXeXeXeXeXeXeXeXeXeXeXeXeXeXeXeXeXeXeXeXeXeXeXeXeXeXeXeXeXeXeXeXeXeXeXeXeXeXeXeXeXeXeXeXeXeXeXeXeXeXeXeXeXeXeXeXeXeXeXeXeXeXeXeXeXeXeXeXeXeXeXeXeXeXeXeX",
"eXeXeXeXeXeXeXeXeXeXeXeXeXeXeXeXeXeXeXeXeXeXeXeXeXeXeXeXeXeXeXeXeXeXeXeXeXeXeXeXeXeXeXeXeXeXeXeXeXeXeXeX      o < g g g g g g g g g g g g g g g g g g g g g g g g g g g g g g g g g g g g h x v v v v v v v v v v v v v v v v v v v v v v v v v v v v v v v v v v v v v v v v v v v v v v v v v v v v v v v v v v v v v v v v v v v v v v v v v v v v v v v v v v v n #.=.-.-.=.B -     , h v v v v v v v v v v v v v v v v v v v v v v v v n %.=.-.-.-.-.-.-.-.-.-.B -       eXeXeXeXeXeXeXeXeXeXeXeXeXeXeXeXeXeXeXeXeXeXeXeXeXeXeXeXeXeXeXeXeXeXeXeXeXeXeXeXeXeXeXeXeXeXeXeXeXeXeXeXeXeXeXeXeXeXeXeXeXeXeXeXeXeXeXeXeXeXeXeXeXeXeXeXeXeXeXeXeXeXeXeXeXeXeXeXeXeXeXeXeXeXeXeXeXeXeXeXeXeXeXeXeXeXeXeXeXeXeXeXeXeXeXeXeXeXeXeXeXeXeXeXeXeXeXeXeXeXeXeXeXeXeXeXeXeXeXeXeXeX",
"eXeXeXeXeXeXeXeXeXeXeXeXeXeXeXeXeXeXeXeXeXeXeXeXeXeXeXeXeXeXeXeXeXeXeXeXeXeXeXeXeXeXeXeXeXeXeXeXeXeXeXeX        , d g g g g g g g g g g g g g g g g g g g g g g g g g g g g g g g g g g g g h c v v v v v v v v v v v v v v v v v v v v v v v v v v v v v v v v v v v v v v v v v v v v v v v v v v M v v v v v v v v v v v v v v v v v v v v v v v v v v v v v v v v o.*.-.-.-.&.1     O d v v v v v v v v v v v v v v v v v v v v v v v v v o.*.=.=.=.-.-.-.-.-.-.$.a         eXeXeXeXeXeXeXeXeXeXeXeXeXeXeXeXeXeXeXeXeXeXeXeXeXeXeXeXeXeXeXeXeXeXeXeXeXeXeXeXeXeXeXeXeXeXeXeXeXeXeXeXeXeXeXeXeXeXeXeXeXeXeXeXeXeXeXeXeXeXeXeXeXeXeXeXeXeXeXeXeXeXeXeXeXeXeXeXeXeXeXeXeXeXeXeXeXeXeXeXeXeXeXeXeXeXeXeXeXeXeXeXeXeXeXeXeXeXeXeXeXeXeXeXeXeXeXeXeXeXeXeXeXeXeXeXeXeXeXeXeX",
"eXeXeXeXeXeXeXeXeXeXeXeXeXeXeXeXeXeXeXeXeXeXeXeXeXeXeXeXeXeXeXeXeXeXeXeXeXeXeXeXeXeXeXeXeXeXeXeXeXeXeXeXeX      o < g g g g g g g g g g g g g g g g g g g g g g g g g g g g g g g g g g g g g x v v v v v v v v v v v v v v v v v v v v v v v v v v v v M v v v v v v v v v v v v v v v v v v v v v v v v v v v v v v v v v v v v v v v v v v v v v v v M v v v v v v n #.-.-.-.=.N O     < x v v v v v v v v v v v v M v v v v v v v v v v M M #.=.=.=.-.-.-.-.-.-.=.B O       eXeXeXeXeXeXeXeXeXeXeXeXeXeXeXeXeXeXeXeXeXeXeXeXeXeXeXeXeXeXeXeXeXeXeXeXeXeXeXeXeXeXeXeXeXeXeXeXeXeXeXeXeXeXeXeXeXeXeXeXeXeXeXeXeXeXeXeXeXeXeXeXeXeXeXeXeXeXeXeXeXeXeXeXeXeXeXeXeXeXeXeXeXeXeXeXeXeXeXeXeXeXeXeXeXeXeXeXeXeXeXeXeXeXeXeXeXeXeXeXeXeXeXeXeXeXeXeXeXeXeXeXeXeXeXeXeXeXeXeXeX",
"eXeXeXeXeXeXeXeXeXeXeXeXeXeXeXeXeXeXeXeXeXeXeXeXeXeXeXeXeXeXeXeXeXeXeXeXeXeXeXeXeXeXeXeXeXeXeXeXeXeXeXeXeX        : g g g g g g g g a g g g g g g g g g g g g g g g g g g g g g g g g g g g g h v v v v v v v v v v v v v v v v v v v v v v v v v v v v v v v v v v v v v v v v v v v v v v v v v v v v v v v v v v v v v v v v v v v v v v v v v v v v v v v v v v v v o.*.-.-.-.$.1     O g v v v v v v v v v v v v v v v v v v v v v v v v v m *.-.-.-.-.-.-.-.-.-.&.a         eXeXeXeXeXeXeXeXeXeXeXeXeXeXeXeXeXeXeXeXeXeXeXeXeXeXeXeXeXeXeXeXeXeXeXeXeXeXeXeXeXeXeXeXeXeXeXeXeXeXeXeXeXeXeXeXeXeXeXeXeXeXeXeXeXeXeXeXeXeXeXeXeXeXeXeXeXeXeXeXeXeXeXeXeXeXeXeXeXeXeXeXeXeXeXeXeXeXeXeXeXeXeXeXeXeXeXeXeXeXeXeXeXeXeXeXeXeXeXeXeXeXeXeXeXeXeXeXeXeXeXeXeXeXeXeXeXeXeXeX",
"eXeXeXeXeXeXeXeXeXeXeXeXeXeXeXeXeXeXeXeXeXeXeXeXeXeXeXeXeXeXeXeXeXeXeXeXeXeXeXeXeXeXeXeXeXeXeXeXeXeXeXeXeXeX      O < g g g g g g g g g g g g g g g g g g g g g g g g g g g g g g g g g g g g h h v v v v v v v v v v v v v v v v v M v v v v v v v v v v v v v v v v v v v v v v v v v v v v M v v v v v v v v v v v v v v v v v v v v v v v v v v v v v v v v v v v v n #.-.-.-.*.j     o p v v v v v v v v v v v v v v v v v v v v v v v v v M O.=.-.-.-.-.-.-.-.-.=.N O       eXeXeXeXeXeXeXeXeXeXeXeXeXeXeXeXeXeXeXeXeXeXeXeXeXeXeXeXeXeXeXeXeXeXeXeXeXeXeXeXeXeXeXeXeXeXeXeXeXeXeXeXeXeXeXeXeXeXeXeXeXeXeXeXeXeXeXeXeXeXeXeXeXeXeXeXeXeXeXeXeXeXeXeXeXeXeXeXeXeXeXeXeXeXeXeXeXeXeXeXeXeXeXeXeXeXeXeXeXeXeXeXeXeXeXeXeXeXeXeXeXeXeXeXeXeXeXeXeXeXeXeXeXeXeXeXeXeXeXeX",
"eXeXeXeXeXeXeXeXeXeXeXeXeXeXeXeXeXeXeXeXeXeXeXeXeXeXeXeXeXeXeXeXeXeXeXeXeXeXeXeXeXeXeXeXeXeXeXeXeXeXeXeXeXeX        , g g g g g g g g g g g g g g g g g g g g g g g g g g g g g g g g g g g g g h x v v v v v v v v v v v v v v v v v v v v v v v v v v v v v v v v v v v v v v v v v v v v v v v v v v v v v v v v v v v v v v v v v v v v M v v v v v v v v v v v v v M o.*.=.-.-.V >     , h v v v v v v v v v v v v v v v v v v v v v v v v v m &.=.-.-.-.-.-.-.-.-.+.1       eXeXeXeXeXeXeXeXeXeXeXeXeXeXeXeXeXeXeXeXeXeXeXeXeXeXeXeXeXeXeXeXeXeXeXeXeXeXeXeXeXeXeXeXeXeXeXeXeXeXeXeXeXeXeXeXeXeXeXeXeXeXeXeXeXeXeXeXeXeXeXeXeXeXeXeXeXeXeXeXeXeXeXeXeXeXeXeXeXeXeXeXeXeXeXeXeXeXeXeXeXeXeXeXeXeXeXeXeXeXeXeXeXeXeXeXeXeXeXeXeXeXeXeXeXeXeXeXeXeXeXeXeXeXeXeXeXeXeXeX",
"eXeXeXeXeXeXeXeXeXeXeXeXeXeXeXeXeXeXeXeXeXeXeXeXeXeXeXeXeXeXeXeXeXeXeXeXeXeXeXeXeXeXeXeXeXeXeXeXeXeXeXeXeXeXeX      O p g g g g g g g g g g g g g g g g g g g g g g g g g g g g g g g g g g g g g x v v v v v v v v v v v v v v v v v v v v v v v v v v v v v v v v v v v v v v v v v v v v v v M v v v v v v v M v v v v v v v v v v v v v v v v v v v v v v v v v v v v o.%.=.-.-.&.f     O g v v v v v v v v v v v v v v v v v v v v v v v v v M #.=.-.-.-.-.-.-.-.-.=.j         eXeXeXeXeXeXeXeXeXeXeXeXeXeXeXeXeXeXeXeXeXeXeXeXeXeXeXeXeXeXeXeXeXeXeXeXeXeXeXeXeXeXeXeXeXeXeXeXeXeXeXeXeXeXeXeXeXeXeXeXeXeXeXeXeXeXeXeXeXeXeXeXeXeXeXeXeXeXeXeXeXeXeXeXeXeXeXeXeXeXeXeXeXeXeXeXeXeXeXeXeXeXeXeXeXeXeXeXeXeXeXeXeXeXeXeXeXeXeXeXeXeXeXeXeXeXeXeXeXeXeXeXeXeXeXeXeXeXeX",
"eXeXeXeXeXeXeXeXeXeXeXeXeXeXeXeXeXeXeXeXeXeXeXeXeXeXeXeXeXeXeXeXeXeXeXeXeXeXeXeXeXeXeXeXeXeXeXeXeXeXeXeXeXeXeX        , g g g g g g g g g g g g g g g g g g g g g g g g g g g g g g g g g g g g g h v v v v v v v v v v v v v v v v v v v v v v v v v v v v v v v v v v v M v v v v v v v v v v v v v v v v v v v v v v v v v v v v v v v v v v v v v v v v v v v v v v v M #.=.-.-.=.l     o < v v v M v v v v v v v v v v v v v v v v v v v v v v n %.=.-.-.-.-.-.-.-.-.V ;       eXeXeXeXeXeXeXeXeXeXeXeXeXeXeXeXeXeXeXeXeXeXeXeXeXeXeXeXeXeXeXeXeXeXeXeXeXeXeXeXeXeXeXeXeXeXeXeXeXeXeXeXeXeXeXeXeXeXeXeXeXeXeXeXeXeXeXeXeXeXeXeXeXeXeXeXeXeXeXeXeXeXeXeXeXeXeXeXeXeXeXeXeXeXeXeXeXeXeXeXeXeXeXeXeXeXeXeXeXeXeXeXeXeXeXeXeXeXeXeXeXeXeXeXeXeXeXeXeXeXeXeXeXeXeXeXeXeXeX",
"eXeXeXeXeXeXeXeXeXeXeXeXeXeXeXeXeXeXeXeXeXeXeXeXeXeXeXeXeXeXeXeXeXeXeXeXeXeXeXeXeXeXeXeXeXeXeXeXeXeXeXeXeXeXeXeX      O d g g g g g g g g g g g g g g g g g g g g g g g g g g g g g g g g g g g g h x v v v v v v v v v v v v v v v v v v v v v v v v v v v v v v v v v v v v v v v v v v v v v v v v v v v v v v v v v v v v v v v v v v v v v v v v v v v v M v v v v v v o.*.-.-.-.C :     , x v v v v v v v v v v v v v v v v v v v v v v v v v M O.=.-.-.-.-.-.-.-.-.&.a       eXeXeXeXeXeXeXeXeXeXeXeXeXeXeXeXeXeXeXeXeXeXeXeXeXeXeXeXeXeXeXeXeXeXeXeXeXeXeXeXeXeXeXeXeXeXeXeXeXeXeXeXeXeXeXeXeXeXeXeXeXeXeXeXeXeXeXeXeXeXeXeXeXeXeXeXeXeXeXeXeXeXeXeXeXeXeXeXeXeXeXeXeXeXeXeXeXeXeXeXeXeXeXeXeXeXeXeXeXeXeXeXeXeXeXeXeXeXeXeXeXeXeXeXeXeXeXeXeXeXeXeXeXeXeXeXeXeXeX",
"eXeXeXeXeXeXeXeXeXeXeXeXeXeXeXeXeXeXeXeXeXeXeXeXeXeXeXeXeXeXeXeXeXeXeXeXeXeXeXeXeXeXeXeXeXeXeXeXeXeXeXeXeXeXeXeX      o , g g g g g g g g g g g g g g g g g g g g g g g g g g g g g g g g g g g g g h v v v v v v v v v v v v v v v v v v v v v v v v v v v v v v v v v v v v v v v v v v M v v v v v v v v v v v v v v v v v v v v v v v v v v v v v v v v v v v v v v v v o.#.-.-.-.&.a     - h v v v v v v v v v v v v v v v v v v v v v v v v v v m &.=.-.-.-.-.-.-.-.=.l o       eXeXeXeXeXeXeXeXeXeXeXeXeXeXeXeXeXeXeXeXeXeXeXeXeXeXeXeXeXeXeXeXeXeXeXeXeXeXeXeXeXeXeXeXeXeXeXeXeXeXeXeXeXeXeXeXeXeXeXeXeXeXeXeXeXeXeXeXeXeXeXeXeXeXeXeXeXeXeXeXeXeXeXeXeXeXeXeXeXeXeXeXeXeXeXeXeXeXeXeXeXeXeXeXeXeXeXeXeXeXeXeXeXeXeXeXeXeXeXeXeXeXeXeXeXeXeXeXeXeXeXeXeXeXeXeXeXeX",
"eXeXeXeXeXeXeXeXeXeXeXeXeXeXeXeXeXeXeXeXeXeXeXeXeXeXeXeXeXeXeXeXeXeXeXeXeXeXeXeXeXeXeXeXeXeXeXeXeXeXeXeXeXeXeXeXeX      : d g g g g g g g g g g g g g g g g g g g g g g g g g g g g g g g g g g g g h v v v v v v v v v v v v v v M v v v v v v v M v v v v v v v v v v v v v v v v v v v v v v v v v v v v v v v v v v v v v v v v v v v v v v v v v v v v v v v v v v v v n o.-.-.-.*.l     O d v v v v v v v v v v v v v v v v v v v v v v v v v v M #.=.-.=.-.-.-.-.-.-.Z ,       eXeXeXeXeXeXeXeXeXeXeXeXeXeXeXeXeXeXeXeXeXeXeXeXeXeXeXeXeXeXeXeXeXeXeXeXeXeXeXeXeXeXeXeXeXeXeXeXeXeXeXeXeXeXeXeXeXeXeXeXeXeXeXeXeXeXeXeXeXeXeXeXeXeXeXeXeXeXeXeXeXeXeXeXeXeXeXeXeXeXeXeXeXeXeXeXeXeXeXeXeXeXeXeXeXeXeXeXeXeXeXeXeXeXeXeXeXeXeXeXeXeXeXeXeXeXeXeXeXeXeXeXeXeXeXeXeXeX",
"eXeXeXeXeXeXeXeXeXeXeXeXeXeXeXeXeXeXeXeXeXeXeXeXeXeXeXeXeXeXeXeXeXeXeXeXeXeXeXeXeXeXeXeXeXeXeXeXeXeXeXeXeXeXeXeXeX      - d g g g g g g g g g g g g g g g g g g g g g g g g g g g g g g g g g g g g h v v v v v v v v v v v v v v v v v v v v v v v v v v v v v v v v v v v v v v v v v v v v v M v v v v v v v v v v v v v v v v v v v v v v v v v v v v v v v v v v v v v v o.*.=.-.-.B o     < v v v v v v v v v v v v v v v v v M v v v v v v v v v m *.=.=.-.-.-.-.-.-.&.j       eXeXeXeXeXeXeXeXeXeXeXeXeXeXeXeXeXeXeXeXeXeXeXeXeXeXeXeXeXeXeXeXeXeXeXeXeXeXeXeXeXeXeXeXeXeXeXeXeXeXeXeXeXeXeXeXeXeXeXeXeXeXeXeXeXeXeXeXeXeXeXeXeXeXeXeXeXeXeXeXeXeXeXeXeXeXeXeXeXeXeXeXeXeXeXeXeXeXeXeXeXeXeXeXeXeXeXeXeXeXeXeXeXeXeXeXeXeXeXeXeXeXeXeXeXeXeXeXeXeXeXeXeXeXeXeXeXeX",
"eXeXeXeXeXeXeXeXeXeXeXeXeXeXeXeXeXeXeXeXeXeXeXeXeXeXeXeXeXeXeXeXeXeXeXeXeXeXeXeXeXeXeXeXeXeXeXeXeXeXeXeXeXeXeXeXeX      O < g g g g g g g g g g g g g g g g g g g g g g g g g g g g g g g g g g g g g x v v v v v v v v v v v v v v v v v v v v v v v v v v v v v v v v v v v v v v v v v v v v v v v v v v v v v v v v v v v v v v v v v v v v v v v v v v M v v v v v v v v o.&.-.-.-.+.:     : v v v v v v v v v v v v v v v v v v v v v v v v v v v M #.=.=.-.-.-.-.-.-.=.N         eXeXeXeXeXeXeXeXeXeXeXeXeXeXeXeXeXeXeXeXeXeXeXeXeXeXeXeXeXeXeXeXeXeXeXeXeXeXeXeXeXeXeXeXeXeXeXeXeXeXeXeXeXeXeXeXeXeXeXeXeXeXeXeXeXeXeXeXeXeXeXeXeXeXeXeXeXeXeXeXeXeXeXeXeXeXeXeXeXeXeXeXeXeXeXeXeXeXeXeXeXeXeXeXeXeXeXeXeXeXeXeXeXeXeXeXeXeXeXeXeXeXeXeXeXeXeXeXeXeXeXeXeXeXeXeXeX",
"eXeXeXeXeXeXeXeXeXeXeXeXeXeXeXeXeXeXeXeXeXeXeXeXeXeXeXeXeXeXeXeXeXeXeXeXeXeXeXeXeXeXeXeXeXeXeXeXeXeXeXeXeXeXeXeXeX        : g g g g g g g g g g g g g g g g g g g g g g g g g g g g g g g g g g g g g x v v v v v v v v v v v v v v v v v v v v v v v M v v v v v v v v v v v v v v v v v v v v v v v v v v v v v v v v v v v v v v v v v v v v v v v v v v v v v v v v v v v n #.=.=.=.$.a     - x v v v v v v v v v v v v v v v v v v v v v v v v v v v m *.-.-.-.-.-.-.-.-.C -       eXeXeXeXeXeXeXeXeXeXeXeXeXeXeXeXeXeXeXeXeXeXeXeXeXeXeXeXeXeXeXeXeXeXeXeXeXeXeXeXeXeXeXeXeXeXeXeXeXeXeXeXeXeXeXeXeXeXeXeXeXeXeXeXeXeXeXeXeXeXeXeXeXeXeXeXeXeXeXeXeXeXeXeXeXeXeXeXeXeXeXeXeXeXeXeXeXeXeXeXeXeXeXeXeXeXeXeXeXeXeXeXeXeXeXeXeXeXeXeXeXeXeXeXeXeXeXeXeXeXeXeXeXeXeXeXeX",
"eXeXeXeXeXeXeXeXeXeXeXeXeXeXeXeXeXeXeXeXeXeXeXeXeXeXeXeXeXeXeXeXeXeXeXeXeXeXeXeXeXeXeXeXeXeXeXeXeXeXeXeXeXeXeXeXeXeX      O g g g g g g g g g g g g g g g g g g g g g g g g g g g g g g g g g g g g g h v v v v v v v v v v v v v v v v v v v v v v v v v v v v v v v v v v v v v v v v v v v v v v v v v v v v v v v v v v v v v v v v v v v v v v M v v v v v v v v v v v v v o.=.;.=.*.k     O h v v v v v v v v v v v v v v v v v v v v v v v v v v v n %.=.-.-.-.-.-.-.-.$.f       eXeXeXeXeXeXeXeXeXeXeXeXeXeXeXeXeXeXeXeXeXeXeXeXeXeXeXeXeXeXeXeXeXeXeXeXeXeXeXeXeXeXeXeXeXeXeXeXeXeXeXeXeXeXeXeXeXeXeXeXeXeXeXeXeXeXeXeXeXeXeXeXeXeXeXeXeXeXeXeXeXeXeXeXeXeXeXeXeXeXeXeXeXeXeXeXeXeXeXeXeXeXeXeXeXeXeXeXeXeXeXeXeXeXeXeXeXeXeXeXeXeXeXeXeXeXeXeXeXeXeXeXeXeXeXeXeX",
"eXeXeXeXeXeXeXeXeXeXeXeXeXeXeXeXeXeXeXeXeXeXeXeXeXeXeXeXeXeXeXeXeXeXeXeXeXeXeXeXeXeXeXeXeXeXeXeXeXeXeXeXeXeXeXeXeXeX      - g g g g g g g g g g g g g g g g g g g g g g g g g g h g g g g g g g g g h x v v v v v v v v v v v v v v v v v v v v v v v v v v v v v v v v v v v v v v v v v v v v v v v v M v v v v v v v v v v v M v v v v v v v v v v v v v v v v v v v v v v v o.=.=.=.*.N     o p v v v v v v v v v v v v v v v v v v v v v v v v v v v M O.=.-.-.-.-.-.-.-.*.l         eXeXeXeXeXeXeXeXeXeXeXeXeXeXeXeXeXeXeXeXeXeXeXeXeXeXeXeXeXeXeXeXeXeXeXeXeXeXeXeXeXeXeXeXeXeXeXeXeXeXeXeXeXeXeXeXeXeXeXeXeXeXeXeXeXeXeXeXeXeXeXeXeXeXeXeXeXeXeXeXeXeXeXeXeXeXeXeXeXeXeXeXeXeXeXeXeXeXeXeXeXeXeXeXeXeXeXeXeXeXeXeXeXeXeXeXeXeXeXeXeXeXeXeXeXeXeXeXeXeXeXeXeXeXeXeX",
"eXeXeXeXeXeXeXeXeXeXeXeXeXeXeXeXeXeXeXeXeXeXeXeXeXeXeXeXeXeXeXeXeXeXeXeXeXeXeXeXeXeXeXeXeXeXeXeXeXeXeXeXeXeXeXeXeXeX      O g g g g g g g g g g g d g g g g g g g g g g g g g g p g g g g g g g g g g x v v v v M v v v v v v v v v v v v v v v v v v v v v v v v v v v v v v v v v v v v v v v v v v v v v v v v v v v v v v v v v v v v v v v v v v v v v v v v v v v v v v v o.=.=.=.-.V     o < v v v v v v v v v v v v v v v v v v v v v v v v v v v v m &.-.-.-.-.-.-.-.-.V o       eXeXeXeXeXeXeXeXeXeXeXeXeXeXeXeXeXeXeXeXeXeXeXeXeXeXeXeXeXeXeXeXeXeXeXeXeXeXeXeXeXeXeXeXeXeXeXeXeXeXeXeXeXeXeXeXeXeXeXeXeXeXeXeXeXeXeXeXeXeXeXeXeXeXeXeXeXeXeXeXeXeXeXeXeXeXeXeXeXeXeXeXeXeXeXeXeXeXeXeXeXeXeXeXeXeXeXeXeXeXeXeXeXeXeXeXeXeXeXeXeXeXeXeXeXeXeXeXeXeXeXeXeXeXeXeX",
"eXeXeXeXeXeXeXeXeXeXeXeXeXeXeXeXeXeXeXeXeXeXeXeXeXeXeXeXeXeXeXeXeXeXeXeXeXeXeXeXeXeXeXeXeXeXeXeXeXeXeXeXeXeXeXeXeXeX      O g g g g g g g g g g g g g g g g g g g g g g g g g g g g g g g g g g g g h x v v v v v v v v v v v v v v v M v v v v v v v v v v v v v v v v v v v v M v v v v v v v v v v v v v v v v v v v v v v M v v v v v v v v v v v v v v v v v v v v v v v v M #.=.-.-.+.O     , v v v v v v v v v v v v v v v v v v v v v v v v v v v v n #.-.-.-.-.-.-.-.-.+.2       eXeXeXeXeXeXeXeXeXeXeXeXeXeXeXeXeXeXeXeXeXeXeXeXeXeXeXeXeXeXeXeXeXeXeXeXeXeXeXeXeXeXeXeXeXeXeXeXeXeXeXeXeXeXeXeXeXeXeXeXeXeXeXeXeXeXeXeXeXeXeXeXeXeXeXeXeXeXeXeXeXeXeXeXeXeXeXeXeXeXeXeXeXeXeXeXeXeXeXeXeXeXeXeXeXeXeXeXeXeXeXeXeXeXeXeXeXeXeXeXeXeXeXeXeXeXeXeXeXeXeXeXeXeXeXeX",
"eXeXeXeXeXeXeXeXeXeXeXeXeXeXeXeXeXeXeXeXeXeXeXeXeXeXeXeXeXeXeXeXeXeXeXeXeXeXeXeXeXeXeXeXeXeXeXeXeXeXeXeXeXeXeXeXeXeX      O g g g g g g g g g g g g g g g g g g g g g g g g g g g g g g g g g g g g h x M v v v v v v v v v v v v v v v v v v v v v v v v v v v v v v v v v v v v v v v v v v v v v v v v v v v v v v v v v v v v v v v v v v v v v v v v v v v v v v v v v v v n O.=.=.=.+.2     : v v v v v v v v v v v v v v M v v v v v v v v v v v v v M m =.-.-.-.-.-.-.-.&.f       eXeXeXeXeXeXeXeXeXeXeXeXeXeXeXeXeXeXeXeXeXeXeXeXeXeXeXeXeXeXeXeXeXeXeXeXeXeXeXeXeXeXeXeXeXeXeXeXeXeXeXeXeXeXeXeXeXeXeXeXeXeXeXeXeXeXeXeXeXeXeXeXeXeXeXeXeXeXeXeXeXeXeXeXeXeXeXeXeXeXeXeXeXeXeXeXeXeXeXeXeXeXeXeXeXeXeXeXeXeXeXeXeXeXeXeXeXeXeXeXeXeXeXeXeXeXeXeXeXeXeXeXeXeXeXeX",
"eXeXeXeXeXeXeXeXeXeXeXeXeXeXeXeXeXeXeXeXeXeXeXeXeXeXeXeXeXeXeXeXeXeXeXeXeXeXeXeXeXeXeXeXeXeXeXeXeXeXeXeXeXeXeXeXeXeX      O g g g g g g g g g g g g g g g g g g g g g g g g g g g g g g g g g g g g h v v v v v v v v v v v v v v v v v v v v v v v v v v v v v v v v v v v v v v v v v v v v v v v v v v v v v v v v v v v v v v v v v v v v v v v v v v v v v v v v v v v v v v o.=.=.-.$.a     - v v v v v v v v v v v v v v v v v v v v v v v v v v v v v n &.-.-.-.-.-.-.-.*.B         eXeXeXeXeXeXeXeXeXeXeXeXeXeXeXeXeXeXeXeXeXeXeXeXeXeXeXeXeXeXeXeXeXeXeXeXeXeXeXeXeXeXeXeXeXeXeXeXeXeXeXeXeXeXeXeXeXeXeXeXeXeXeXeXeXeXeXeXeXeXeXeXeXeXeXeXeXeXeXeXeXeXeXeXeXeXeXeXeXeXeXeXeXeXeXeXeXeXeXeXeXeXeXeXeXeXeXeXeXeXeXeXeXeXeXeXeXeXeXeXeXeXeXeXeXeXeXeXeXeXeXeXeXeXeX",
"eXeXeXeXeXeXeXeXeXeXeXeXeXeXeXeXeXeXeXeXeXeXeXeXeXeXeXeXeXeXeXeXeXeXeXeXeXeXeXeXeXeXeXeXeXeXeXeXeXeXeXeXeXeXeXeXeX      o < g g g g g g g g g g g g g g g g g g g g g g g g g g g g g g g g g g g g x v v v v v v v v v v v v v v v v v v v v v v v v v v v v v v M v v v v v v v v v v v v v v v v v v v v v v v v v v v v v v v v v v v v v v v v v v v v v v v v v v v v v v v o.=.=.-.*.j     O x v v v v v v v v v v v v v v v v v v v v v v v v v v v v n O.-.-.-.-.-.-.-.*.C         eXeXeXeXeXeXeXeXeXeXeXeXeXeXeXeXeXeXeXeXeXeXeXeXeXeXeXeXeXeXeXeXeXeXeXeXeXeXeXeXeXeXeXeXeXeXeXeXeXeXeXeXeXeXeXeXeXeXeXeXeXeXeXeXeXeXeXeXeXeXeXeXeXeXeXeXeXeXeXeXeXeXeXeXeXeXeXeXeXeXeXeXeXeXeXeXeXeXeXeXeXeXeXeXeXeXeXeXeXeXeXeXeXeXeXeXeXeXeXeXeXeXeXeXeXeXeXeXeXeXeXeXeXeXeX",
"eXeXeXeXeXeXeXeXeXeXeXeXeXeXeXeXeXeXeXeXeXeXeXeXeXeXeXeXeXeXeXeXeXeXeXeXeXeXeXeXeXeXeXeXeXeXeXeXeXeXeXeXeXeXeXeXeX      o d g g g g g g g g g g g g g g g g g g g g g g g g g g g g g g g g g g g h x v v v v v v v v v v v v v v v v v v v v v v v M v v v v v v v v v v v v v v v v v v v v v v v v v v v v v v v v v v v v v v v v v v v v v v v v v v v v v v v v v v v v v v m *.-.-.*.k     O h v v v v v v v v v v v v v v v v v v v v v v v v v v v v v o.=.-.-.-.-.-.-.-.+.O       eXeXeXeXeXeXeXeXeXeXeXeXeXeXeXeXeXeXeXeXeXeXeXeXeXeXeXeXeXeXeXeXeXeXeXeXeXeXeXeXeXeXeXeXeXeXeXeXeXeXeXeXeXeXeXeXeXeXeXeXeXeXeXeXeXeXeXeXeXeXeXeXeXeXeXeXeXeXeXeXeXeXeXeXeXeXeXeXeXeXeXeXeXeXeXeXeXeXeXeXeXeXeXeXeXeXeXeXeXeXeXeXeXeXeXeXeXeXeXeXeXeXeXeXeXeXeXeXeXeXeXeXeXeXeX",
"eXeXeXeXeXeXeXeXeXeXeXeXeXeXeXeXeXeXeXeXeXeXeXeXeXeXeXeXeXeXeXeXeXeXeXeXeXeXeXeXeXeXeXeXeXeXeXeXeXeXeXeXeXeXeXeXeX      O g g g g g g g g g g g g g g g g g g g g g g g g g g g g g g g g g g g g x M v v v v v v v v v v v v v v v v v v v v v v v v v v v v v v v v v v v v v v v v v v v v v v v v v v v v v v v v v v v v v v v v v v v v v v v v v v v v v v v v v v v v v v n &.-.-.*.N     o g v v v v v v v v v v v v v v v v v v v v v v v v v v v v v n %.-.=.-.-.-.-.-.$.a       eXeXeXeXeXeXeXeXeXeXeXeXeXeXeXeXeXeXeXeXeXeXeXeXeXeXeXeXeXeXeXeXeXeXeXeXeXeXeXeXeXeXeXeXeXeXeXeXeXeXeXeXeXeXeXeXeXeXeXeXeXeXeXeXeXeXeXeXeXeXeXeXeXeXeXeXeXeXeXeXeXeXeXeXeXeXeXeXeXeXeXeXeXeXeXeXeXeXeXeXeXeXeXeXeXeXeXeXeXeXeXeXeXeXeXeXeXeXeXeXeXeXeXeXeXeXeXeXeXeXeXeXeXeXeX",
"eXeXeXeXeXeXeXeXeXeXeXeXeXeXeXeXeXeXeXeXeXeXeXeXeXeXeXeXeXeXeXeXeXeXeXeXeXeXeXeXeXeXeXeXeXeXeXeXeXeXeXeXeXeXeXeXeX      O g g g g g g g g g g g g g g g g g g g g g g g g g g g g g g g g g g g x v v v v v v v v v v v v v v v v v v v v v v v v v v v v v v v v v v v v v v v v v v v v v v v v v v v v v v v v v v v v v v v v v v v v v v v v v v v v v v v v v v v v v v v v n %.-.-.*.B     o g v v v v v v v v v v v v v v v v v v v v v v v v v v v v v n o.=.=.-.-.-.-.-.*.j       eXeXeXeXeXeXeXeXeXeXeXeXeXeXeXeXeXeXeXeXeXeXeXeXeXeXeXeXeXeXeXeXeXeXeXeXeXeXeXeXeXeXeXeXeXeXeXeXeXeXeXeXeXeXeXeXeXeXeXeXeXeXeXeXeXeXeXeXeXeXeXeXeXeXeXeXeXeXeXeXeXeXeXeXeXeXeXeXeXeXeXeXeXeXeXeXeXeXeXeXeXeXeXeXeXeXeXeXeXeXeXeXeXeXeXeXeXeXeXeXeXeXeXeXeXeXeXeXeXeXeXeXeXeXeX",
"eXeXeXeXeXeXeXeXeXeXeXeXeXeXeXeXeXeXeXeXeXeXeXeXeXeXeXeXeXeXeXeXeXeXeXeXeXeXeXeXeXeXeXeXeXeXeXeXeXeXeXeXeXeXeXeXeX      : g g g g g g g g g g g g g g g g g g g j g g g g g g g g g g g g g g h x v v v v v v v v v v v v v v v v v v v v v v v v v v v v v v v v v v v v v v v v v v v v v v v v v v v v v v v v v v v v v v v v v v v v v v v v v v v v v v v v v v v v v v v v n $.=.-.=.V     O d v v v v v v v v v v v v v v v v v v v v v v v v v v v v v M o.=.=.-.-.-.-.-.=.B         eXeXeXeXeXeXeXeXeXeXeXeXeXeXeXeXeXeXeXeXeXeXeXeXeXeXeXeXeXeXeXeXeXeXeXeXeXeXeXeXeXeXeXeXeXeXeXeXeXeXeXeXeXeXeXeXeXeXeXeXeXeXeXeXeXeXeXeXeXeXeXeXeXeXeXeXeXeXeXeXeXeXeXeXeXeXeXeXeXeXeXeXeXeXeXeXeXeXeXeXeXeXeXeXeXeXeXeXeXeXeXeXeXeXeXeXeXeXeXeXeXeXeXeXeXeXeXeXeXeXeXeXeXeX",
"eXeXeXeXeXeXeXeXeXeXeXeXeXeXeXeXeXeXeXeXeXeXeXeXeXeXeXeXeXeXeXeXeXeXeXeXeXeXeXeXeXeXeXeXeXeXeXeXeXeXeXeXeXeXeXeX      o < g g g g g g g g g g g g g g g g g g g g g g g g g g g g g g g g g h x v v v v v v v v v v v v v v v v v v v v v v v v v v v v v v v v v v v v v v v v v v v v v v v v v v v v v v v v v v v v v v v v v v v v v v v v v v v v v v v v v v v v v v v v v n O.-.-.=.A     o d v v v v v v v v v v v v v v v v v v v v v v v v v v v v v M n *.-.-.-.-.-.-.-.Z         eXeXeXeXeXeXeXeXeXeXeXeXeXeXeXeXeXeXeXeXeXeXeXeXeXeXeXeXeXeXeXeXeXeXeXeXeXeXeXeXeXeXeXeXeXeXeXeXeXeXeXeXeXeXeXeXeXeXeXeXeXeXeXeXeXeXeXeXeXeXeXeXeXeXeXeXeXeXeXeXeXeXeXeXeXeXeXeXeXeXeXeXeXeXeXeXeXeXeXeXeXeXeXeXeXeXeXeXeXeXeXeXeXeXeXeXeXeXeXeXeXeXeXeXeXeXeXeXeXeXeXeXeXeX",
"eXeXeXeXeXeXeXeXeXeXeXeXeXeXeXeXeXeXeXeXeXeXeXeXeXeXeXeXeXeXeXeXeXeXeXeXeXeXeXeXeXeXeXeXeXeXeXeXeXeXeXeXeXeXeXeX      o g g g g g g g g g g g g g g g g g g g g g g g g g g g g g g g g g g x v v v v v v v v v v v v v v v v v v v v v v v v v v v v v v v v v v v v v v v v v v v v v v v v v v v v v v v v v v v v v v v v v v v v v v v v v v v v v v v v v v v M v v v v v v n O.-.-.=.C       d v v v v v v v v v v v v v v v v v v v v v v v v v M v v v v n #.-.-.-.-.-.-.-.$.o       eXeXeXeXeXeXeXeXeXeXeXeXeXeXeXeXeXeXeXeXeXeXeXeXeXeXeXeXeXeXeXeXeXeXeXeXeXeXeXeXeXeXeXeXeXeXeXeXeXeXeXeXeXeXeXeXeXeXeXeXeXeXeXeXeXeXeXeXeXeXeXeXeXeXeXeXeXeXeXeXeXeXeXeXeXeXeXeXeXeXeXeXeXeXeXeXeXeXeXeXeXeXeXeXeXeXeXeXeXeXeXeXeXeXeXeXeXeXeXeXeXeXeXeXeXeXeXeXeXeXeXeXeXeX",
"eXeXeXeXeXeXeXeXeXeXeXeXeXeXeXeXeXeXeXeXeXeXeXeXeXeXeXeXeXeXeXeXeXeXeXeXeXeXeXeXeXeXeXeXeXeXeXeXeXeXeXeXeXeXeXeX      o g g g g g g g g g g g g g g g g g g g g g g g g g g g g g g g g h x v v v v v v v v v v v v v v v v v v v v v v v v v v v v v v v v v v v v v v v v v v v v v v v v v v v v v v v v v v v v v v v v v v v v v v v v v v v v v v v v v v v v v v v v v v v M o.-.-.=.Z     o d v v v v v v v v v v v v v v v v v v v v v v v v v v v v v v M o.-.-.-.-.-.-.-.&.:       eXeXeXeXeXeXeXeXeXeXeXeXeXeXeXeXeXeXeXeXeXeXeXeXeXeXeXeXeXeXeXeXeXeXeXeXeXeXeXeXeXeXeXeXeXeXeXeXeXeXeXeXeXeXeXeXeXeXeXeXeXeXeXeXeXeXeXeXeXeXeXeXeXeXeXeXeXeXeXeXeXeXeXeXeXeXeXeXeXeXeXeXeXeXeXeXeXeXeXeXeXeXeXeXeXeXeXeXeXeXeXeXeXeXeXeXeXeXeXeXeXeXeXeXeXeXeXeXeXeXeXeXeXeX",
"eXeXeXeXeXeXeXeXeXeXeXeXeXeXeXeXeXeXeXeXeXeXeXeXeXeXeXeXeXeXeXeXeXeXeXeXeXeXeXeXeXeXeXeXeXeXeXeXeXeXeXeXeXeXeXeX      o g g g g g g g g g g g g g g g g g g g g g g g g g g g g g g g h x v v v v v v v v v v v v v v M v v v v v v v v v v v v v v v v v v v v v v v v v v v v v v v v v v v v v v v v v v v v v v v v v v v v v v v v v v v v v v v v v v v v v v v v v v v v v M o.-.-.=.O.      p v v v v v v v v v v v v v v v v v v v v v v v v v v v v v v v n =.-.-.-.-.-.-.&.a       eXeXeXeXeXeXeXeXeXeXeXeXeXeXeXeXeXeXeXeXeXeXeXeXeXeXeXeXeXeXeXeXeXeXeXeXeXeXeXeXeXeXeXeXeXeXeXeXeXeXeXeXeXeXeXeXeXeXeXeXeXeXeXeXeXeXeXeXeXeXeXeXeXeXeXeXeXeXeXeXeXeXeXeXeXeXeXeXeXeXeXeXeXeXeXeXeXeXeXeXeXeXeXeXeXeXeXeXeXeXeXeXeXeXeXeXeXeXeXeXeXeXeXeXeXeXeXeXeXeXeXeXeXeX",
"eXeXeXeXeXeXeXeXeXeXeXeXeXeXeXeXeXeXeXeXeXeXeXeXeXeXeXeXeXeXeXeXeXeXeXeXeXeXeXeXeXeXeXeXeXeXeXeXeXeXeXeXeXeXeXeX      O g g g g g g g g g g g g g g g g g g g g g g g g g g g g g g h x v v v v v v v v v v v v v v v v v v v v v v v v v v v v v v v v v v v v v v v v v v v v v v v v v v v v v v v v v v v v v v v v v v v v v v v v v v v v v v v v v v v v v v v v v v v v v M m -.-.=.+.    o p v v v v v v v v v v v v v v v v v v v v v v v v v v v v v v v M %.-.-.-.-.-.-.*.c       eXeXeXeXeXeXeXeXeXeXeXeXeXeXeXeXeXeXeXeXeXeXeXeXeXeXeXeXeXeXeXeXeXeXeXeXeXeXeXeXeXeXeXeXeXeXeXeXeXeXeXeXeXeXeXeXeXeXeXeXeXeXeXeXeXeXeXeXeXeXeXeXeXeXeXeXeXeXeXeXeXeXeXeXeXeXeXeXeXeXeXeXeXeXeXeXeXeXeXeXeXeXeXeXeXeXeXeXeXeXeXeXeXeXeXeXeXeXeXeXeXeXeXeXeXeXeXeXeXeXeXeXeXeX",
"eXeXeXeXeXeXeXeXeXeXeXeXeXeXeXeXeXeXeXeXeXeXeXeXeXeXeXeXeXeXeXeXeXeXeXeXeXeXeXeXeXeXeXeXeXeXeXeXeXeXeXeXeXeXeXeX      , g g g g g g g g g g g g g g g g g g g g g g g g g g g g g h x v v v v v v v v v v v v v v v v v v v v v v v v v v v v v v v v v v v v v v v v v v v v v v v v v v v v v v v v v v v v v v v v v v v v v v v v v v v v v v v v v v v v v v v v v v v v v v v m =.-.=.O.      p v v v v v v v v v v v v v v v v v v v v v v v v v v v v x v v M O.-.-.-.-.-.-.-.N         eXeXeXeXeXeXeXeXeXeXeXeXeXeXeXeXeXeXeXeXeXeXeXeXeXeXeXeXeXeXeXeXeXeXeXeXeXeXeXeXeXeXeXeXeXeXeXeXeXeXeXeXeXeXeXeXeXeXeXeXeXeXeXeXeXeXeXeXeXeXeXeXeXeXeXeXeXeXeXeXeXeXeXeXeXeXeXeXeXeXeXeXeXeXeXeXeXeXeXeXeXeXeXeXeXeXeXeXeXeXeXeXeXeXeXeXeXeXeXeXeXeXeXeXeXeXeXeXeXeXeXeXeX",
"eXeXeXeXeXeXeXeXeXeXeXeXeXeXeXeXeXeXeXeXeXeXeXeXeXeXeXeXeXeXeXeXeXeXeXeXeXeXeXeXeXeXeXeXeXeXeXeXeXeXeXeXeXeXeXeX    o < g g g g g g g g g g g g g g d g g g g g g g g g g g g g h x v v v v v v v v v v v v v v v v v v v v v v v v v v v v v v v v v v v v M v v v v v v v v v v v v v v v v v v v v v v v v v v v v v v v v v v v v v v v v v v v v v v v v v v v v v v v v v v v m -.-.=.O.      d v v v v v v v v v v v v v v v v v v v v v v v v v v v v M v v M o.-.-.-.-.-.-.-.+.        eXeXeXeXeXeXeXeXeXeXeXeXeXeXeXeXeXeXeXeXeXeXeXeXeXeXeXeXeXeXeXeXeXeXeXeXeXeXeXeXeXeXeXeXeXeXeXeXeXeXeXeXeXeXeXeXeXeXeXeXeXeXeXeXeXeXeXeXeXeXeXeXeXeXeXeXeXeXeXeXeXeXeXeXeXeXeXeXeXeXeXeXeXeXeXeXeXeXeXeXeXeXeXeXeXeXeXeXeXeXeXeXeXeXeXeXeXeXeXeXeXeXeXeXeXeXeXeXeXeXeXeXeX",
"eXeXeXeXeXeXeXeXeXeXeXeXeXeXeXeXeXeXeXeXeXeXeXeXeXeXeXeXeXeXeXeXeXeXeXeXeXeXeXeXeXeXeXeXeXeXeXeXeXeXeXeXeXeXeX        d g g g g g g g g g g g g g g g g g g g g g g g g g g g h x v v v v v v v v v v v v v v v v v v v v v v v v v v v v v v v v v v v v v v v v v v v v v v v v v v v v v v v v v v v v v v v v v v v v v v v v v v v v v v v v v v v v v v v v v v v v v v v M M n -.-.=.+.    o d v v v v v v v v v v v v v v v v v v v v v v v v v v v v v v v v M =.-.-.-.-.=.=.+.        eXeXeXeXeXeXeXeXeXeXeXeXeXeXeXeXeXeXeXeXeXeXeXeXeXeXeXeXeXeXeXeXeXeXeXeXeXeXeXeXeXeXeXeXeXeXeXeXeXeXeXeXeXeXeXeXeXeXeXeXeXeXeXeXeXeXeXeXeXeXeXeXeXeXeXeXeXeXeXeXeXeXeXeXeXeXeXeXeXeXeXeXeXeXeXeXeXeXeXeXeXeXeXeXeXeXeXeXeXeXeXeXeXeXeXeXeXeXeXeXeXeXeXeXeXeXeXeXeXeXeXeXeX",
"eXeXeXeXeXeXeXeXeXeXeXeXeXeXeXeXeXeXeXeXeXeXeXeXeXeXeXeXeXeXeXeXeXeXeXeXeXeXeXeXeXeXeXeXeXeXeXeXeXeXeXeXeXeXeX      o d g g g g g g g g g g g g g g g g g g g g g g g g g g h x v v v v v v v v v v v v v v v v v v v v v v v v v v v v v v v v v v v v v v v v v v v v v v v v v v v v v v v v v v v v v v v v v v v v v v v v v v v v v v v v v v v v v v v v v v v v v v v v v v n -.=.=.C       g v v v v v v v v v v v v v v v v v v v v M v v v v M x M v v v v M %.-.-.-.-.-.-.&.        eXeXeXeXeXeXeXeXeXeXeXeXeXeXeXeXeXeXeXeXeXeXeXeXeXeXeXeXeXeXeXeXeXeXeXeXeXeXeXeXeXeXeXeXeXeXeXeXeXeXeXeXeXeXeXeXeXeXeXeXeXeXeXeXeXeXeXeXeXeXeXeXeXeXeXeXeXeXeXeXeXeXeXeXeXeXeXeXeXeXeXeXeXeXeXeXeXeXeXeXeXeXeXeXeXeXeXeXeXeXeXeXeXeXeXeXeXeXeXeXeXeXeXeXeXeXeXeXeXeXeXeXeX",
"eXeXeXeXeXeXeXeXeXeXeXeXeXeXeXeXeXeXeXeXeXeXeXeXeXeXeXeXeXeXeXeXeXeXeXeXeXeXeXeXeXeXeXeXeXeXeXeXeXeXeXeXeXeXeX        g g g g g g g g g g g g g g g g g g g g g g g g g g g x v v v v v v v v v v v v v v v v v v v v v v v v v v v v v v v v v v v v v v v v v v v v v v v v v v v v v v v v v v v v v v v v v v v v v v v v v v v v v v v v v v v v v v v v v v v v v v v v v v v n =.=.=.V       h v v v v v v v v v v v v v v v v v v v v x v v v v M x v v v v v v O.-.-.-.-.-.-.*.o       eXeXeXeXeXeXeXeXeXeXeXeXeXeXeXeXeXeXeXeXeXeXeXeXeXeXeXeXeXeXeXeXeXeXeXeXeXeXeXeXeXeXeXeXeXeXeXeXeXeXeXeXeXeXeXeXeXeXeXeXeXeXeXeXeXeXeXeXeXeXeXeXeXeXeXeXeXeXeXeXeXeXeXeXeXeXeXeXeXeXeXeXeXeXeXeXeXeXeXeXeXeXeXeXeXeXeXeXeXeXeXeXeXeXeXeXeXeXeXeXeXeXeXeXeXeXeXeXeXeXeXeXeX",
"eXeXeXeXeXeXeXeXeXeXeXeXeXeXeXeXeXeXeXeXeXeXeXeXeXeXeXeXeXeXeXeXeXeXeXeXeXeXeXeXeXeXeXeXeXeXeXeXeXeXeXeXeXeXeX        g g g g g g g g g g g g g g g g g g g g g g g g g h x v v v v v v v v v v v v v v v v v M v v v v v v v v v v v v v v v v v v v v v v v v v v v v v v v v v v v v v v v v v v v v v v v v v v v v v v v v v v v v v v v v v v v v v v v v v v v v v M v v v v n =.-.=.V       h v v v v v v x b v x x v x x x x x x x x x x x x h h h h h h x x v o.-.-.-.-.-.-.=.-       eXeXeXeXeXeXeXeXeXeXeXeXeXeXeXeXeXeXeXeXeXeXeXeXeXeXeXeXeXeXeXeXeXeXeXeXeXeXeXeXeXeXeXeXeXeXeXeXeXeXeXeXeXeXeXeXeXeXeXeXeXeXeXeXeXeXeXeXeXeXeXeXeXeXeXeXeXeXeXeXeXeXeXeXeXeXeXeXeXeXeXeXeXeXeXeXeXeXeXeXeXeXeXeXeXeXeXeXeXeXeXeXeXeXeXeXeXeXeXeXeXeXeXeXeXeXeXeXeXeXeXeXeX",
"eXeXeXeXeXeXeXeXeXeXeXeXeXeXeXeXeXeXeXeXeXeXeXeXeXeXeXeXeXeXeXeXeXeXeXeXeXeXeXeXeXeXeXeXeXeXeXeXeXeXeXeXeXeXeX        g g g g g g g g g g g g g g g g g g g g g g g g g h v v v v v v v v v v v v v v v v v v v v v v v v v v v v v v v v v v v v v v v v v v v v v v v v v v v v v x v x x x x x x x x h x x x h h h h h h g h h g g g g g g h g d d d d d d d d d p d p p p p p p k -.-.-.k       < < < < , < , , , , , , , , , : : : : - : - - - : - - - - - - - , p g *.-.-.-.-.-.-.1       eXeXeXeXeXeXeXeXeXeXeXeXeXeXeXeXeXeXeXeXeXeXeXeXeXeXeXeXeXeXeXeXeXeXeXeXeXeXeXeXeXeXeXeXeXeXeXeXeXeXeXeXeXeXeXeXeXeXeXeXeXeXeXeXeXeXeXeXeXeXeXeXeXeXeXeXeXeXeXeXeXeXeXeXeXeXeXeXeXeXeXeXeXeXeXeXeXeXeXeXeXeXeXeXeXeXeXeXeXeXeXeXeXeXeXeXeXeXeXeXeXeXeXeXeXeXeXeXeXeXeXeXeX",
"eXeXeXeXeXeXeXeXeXeXeXeXeXeXeXeXeXeXeXeXeXeXeXeXeXeXeXeXeXeXeXeXeXeXeXeXeXeXeXeXeXeXeXeXeXeXeXeXeXeXeXeXeXeXeX      O g g g g g g g g g g g g g g g g g g g g g g g g h v v v v v v v v v v v v v v v v v v v v v v v v M v v v v v v v v v v v v v v v v v M v v v v v v v v v h d < < , < , : , : : : : : : : - : - - - - - O O - O O O O : O O O O O O o o O o O o O o o o o o   : =.=.=.a                     o . . + @ + & @ 4 4 4 4 5 5 7 8 S r D D D J J J S @   O f Z -.-.-.-.-.f       eXeXeXeXeXeXeXeXeXeXeXeXeXeXeXeXeXeXeXeXeXeXeXeXeXeXeXeXeXeXeXeXeXeXeXeXeXeXeXeXeXeXeXeXeXeXeXeXeXeXeXeXeXeXeXeXeXeXeXeXeXeXeXeXeXeXeXeXeXeXeXeXeXeXeXeXeXeXeXeXeXeXeXeXeXeXeXeXeXeXeXeXeXeXeXeXeXeXeXeXeXeXeXeXeXeXeXeXeXeXeXeXeXeXeXeXeXeXeXeXeXeXeXeXeXeXeXeXeXeXeXeXeX",
"eXeXeXeXeXeXeXeXeXeXeXeXeXeXeXeXeXeXeXeXeXeXeXeXeXeXeXeXeXeXeXeXeXeXeXeXeXeXeXeXeXeXeXeXeXeXeXeXeXeXeXeXeXeXeX      O g g g g g g g g g g g g g g g g g g g g g g g g x v v v v v v v v v v v v v v v v v v v v v v v v M x v v v M v v v v v v v v v v v v v v v v v v v v d O     # @ + @ @ * 3 3 5 4 7 7 7 7 r s z D D G G H J ! ! ! H Y T Q Q Q E E W _ ] 2.2.2.2.6.6.5.5.5.q.q.t.,.t.,.t.r.r.r.r.k.k.k.k.z.l.l.l.l.x.l.x.x.x.x.c.c.c.M.c.c.c.R.R.R.R.W.E.E.E.c.z.6.D   > N *.-.-.-.c       eXeXeXeXeXeXeXeXeXeXeXeXeXeXeXeXeXeXeXeXeXeXeXeXeXeXeXeXeXeXeXeXeXeXeXeXeXeXeXeXeXeXeXeXeXeXeXeXeXeXeXeXeXeXeXeXeXeXeXeXeXeXeXeXeXeXeXeXeXeXeXeXeXeXeXeXeXeXeXeXeXeXeXeXeXeXeXeXeXeXeXeXeXeXeXeXeXeXeXeXeXeXeXeXeXeXeXeXeXeXeXeXeXeXeXeXeXeXeXeXeXeXeXeXeXeXeXeXeXeXeXeXeX",
"eXeXeXeXeXeXeXeXeXeXeXeXeXeXeXeXeXeXeXeXeXeXeXeXeXeXeXeXeXeXeXeXeXeXeXeXeXeXeXeXeXeXeXeXeXeXeXeXeXeXeXeXeXeXeX      : g g g g g g g g g g g g g g g g g g g g g g g h v v v v v v v v v v v v v v v v v v v v v v v v v v M v v v v v v v v v v v v v v v v v v v v v v h O   o @ W r.l.x.x.x.x.x.c.c.c.M.c.R.R.R.R.E.E.E.E.E.E.E.Q.Q.Q.!.!.!.!.!.).).).).).)._._._._._.'._.'.'.[.[.].[.].].].:X:X:X:X:X>X>X>X>X>X>X>X>X>X>X>X>X>X>X>X>X>X>X>X>X>X>X>X>X>X>X>X>X>X>X>X[.R.5.@ + l =.-.-.B         eXeXeXeXeXeXeXeXeXeXeXeXeXeXeXeXeXeXeXeXeXeXeXeXeXeXeXeXeXeXeXeXeXeXeXeXeXeXeXeXeXeXeXeXeXeXeXeXeXeXeXeXeXeXeXeXeXeXeXeXeXeXeXeXeXeXeXeXeXeXeXeXeXeXeXeXeXeXeXeXeXeXeXeXeXeXeXeXeXeXeXeXeXeXeXeXeXeXeXeXeXeXeXeXeXeXeXeXeXeXeXeXeXeXeXeXeXeXeXeXeXeXeXeXeXeXeXeXeXeXeXeX",
"eXeXeXeXeXeXeXeXeXeXeXeXeXeXeXeXeXeXeXeXeXeXeXeXeXeXeXeXeXeXeXeXeXeXeXeXeXeXeXeXeXeXeXeXeXeXeXeXeXeXeXeXeXeXeX      < g g g g g g g g g g g g g g g g g g g g g g g b v v v v v v v v v v v v v v v v v v v v v v v v v v v v v v v v v v v v v v v v v v v v v v v v h     5 x.:X>X>X>X>X>X>X>X>X>X>X>X>X>X>X>X>X>X>X>X>X>X>X>X>X>X>X>X>X>X>X>X>X>X<X>X>X>X>X>X>X>X>X>X>X>X>X>X>X>X>X>X>X>X>X>X>X>X>X>X>X>X>X>X>X>X>X>X>X>X>X>X>X>X>X>X>X>X>X>X>X>X>X>X>X>X>X>X>X>X>X>X>X'.z.3 o N =.=.C         eXeXeXeXeXeXeXeXeXeXeXeXeXeXeXeXeXeXeXeXeXeXeXeXeXeXeXeXeXeXeXeXeXeXeXeXeXeXeXeXeXeXeXeXeXeXeXeXeXeXeXeXeXeXeXeXeXeXeXeXeXeXeXeXeXeXeXeXeXeXeXeXeXeXeXeXeXeXeXeXeXeXeXeXeXeXeXeXeXeXeXeXeXeXeXeXeXeXeXeXeXeXeXeXeXeXeXeXeXeXeXeXeXeXeXeXeXeXeXeXeXeXeXeXeXeXeXeXeXeXeXeX",
"eXeXeXeXeXeXeXeXeXeXeXeXeXeXeXeXeXeXeXeXeXeXeXeXeXeXeXeXeXeXeXeXeXeXeXeXeXeXeXeXeXeXeXeXeXeXeXeXeXeXeXeXeXeXeX      < g g g g g g g g g g g g g g g g g g g g g g x v v v v v v v v v v v v v v v v v v v v v v v v v v v v v v v v v v v v v v v v v v v v v v v v f     2.].>X>X>X>X>X>X>X>X>X>X>X>X>X>X>X>X>X>X>X>X>X>X>X>X>X>X>X>X>X>X>X>X>X>X>X>X>X>X>X>X>X>X>X>X>X>X>X>X>X>X>X>X>X>X>X>X>X>X>X>X>X>X>X>X>X>X1X>X>X>X1X1X>X1X1X1X1X1X1X1X1X2X1X2X2X2X2X2X2X2X1X1X>X>X>X:Xl.@ + z l a               eXeXeXeXeXeXeXeXeXeXeXeXeXeXeXeXeXeXeXeXeXeXeXeXeXeXeXeXeXeXeXeXeXeXeXeXeXeXeXeXeXeXeXeXeXeXeXeXeXeXeXeXeXeXeXeXeXeXeXeXeXeXeXeXeXeXeXeXeXeXeXeXeXeXeXeXeXeXeXeXeXeXeXeXeXeXeXeXeXeXeXeXeXeXeXeXeXeXeXeXeXeXeXeXeXeXeXeXeXeXeXeXeXeXeXeXeXeXeXeXeXeXeXeXeXeXeXeXeX",
"eXeXeXeXeXeXeXeXeXeXeXeXeXeXeXeXeXeXeXeXeXeXeXeXeXeXeXeXeXeXeXeXeXeXeXeXeXeXeXeXeXeXeXeXeXeXeXeXeXeXeXeXeXeXeX      < g g g g g g g g g g g g g g g g g g g g g g v v v v v v v v v v v v v v v v v M v v v v b v v M M v v v M v v v v v v v v v v v v v M v v v x     r.:X>X>X>X>X>X>X>X>X>X>X1X1X1X1X1X1X1X1X1X1X1X1X2X1X2X1X2X2X2X4X2X6X2X6X2X6X6X6X6X6X6X6X6X7X6X7X7X7X7X6X2X6X6X6X6X6X7X7X9X9X9X9X7X7X7X7X7X7X7X7X7X7X7X9X9XqXqXqX0XqXqX0XqXqXqXqXqXqXqXqXqX9X6X2X1X>X>X].5.o   o                 eXeXeXeXeXeXeXeXeXeXeXeXeXeXeXeXeXeXeXeXeXeXeXeXeXeXeXeXeXeXeXeXeXeXeXeXeXeXeXeXeXeXeXeXeXeXeXeXeXeXeXeXeXeXeXeXeXeXeXeXeXeXeXeXeXeXeXeXeXeXeXeXeXeXeXeXeXeXeXeXeXeXeXeXeXeXeXeXeXeXeXeXeXeXeXeXeXeXeXeXeXeXeXeXeXeXeXeXeXeXeXeXeXeXeXeXeXeXeXeXeXeXeXeXeXeXeXeXeX",
"eXeXeXeXeXeXeXeXeXeXeXeXeXeXeXeXeXeXeXeXeXeXeXeXeXeXeXeXeXeXeXeXeXeXeXeXeXeXeXeXeXeXeXeXeXeXeXeXeXeXeXeXeXeX        p g g g g j g d g g g d g d d d d d g p d d d g h h g d g d d g d d d d d p d p p p p < < < < < < < , < , , , , : : , : - : - - - - O O O O O     ,.].>X>X>X>X>X>X>X>X>X1X2X7X7X7X7X9X9X9X7X9X7X9X9X9X9X9X9X9X9XqXqXqXqX0XqXqX0X0XqX0XqXqX0XqX0X0X0X0XqX0XqX0XqX0X0X0X0X0X0XqX0X0X0X0X0X0X0X0X0X0X0X0X0X0X0X0X0X0X0X0X0X0X0X0X0X0X0X0X0X0X0X0X0X0X0X6X1X>X>X).8                     eXeXeXeXeXeXeXeXeXeXeXeXeXeXeXeXeXeXeXeXeXeXeXeXeXeXeXeXeXeXeXeXeXeXeXeXeXeXeXeXeXeXeXeXeXeXeXeXeXeXeXeXeXeXeXeXeXeXeXeXeXeXeXeXeXeXeXeXeXeXeXeXeXeXeXeXeXeXeXeXeXeXeXeXeXeXeXeXeXeXeXeXeXeXeXeXeXeXeXeXeXeXeXeXeXeXeXeXeXeXeXeXeXeXeXeXeXeXeXeXeXeXeXeXeXeXeXeXeX",
"eXeXeXeXeXeXeXeXeXeXeXeXeXeXeXeXeXeXeXeXeXeXeXeXeXeXeXeXeXeXeXeXeXeXeXeXeXeXeXeXeXeXeXeXeXeXeXeXeXeX                O O o O o o o o o o o   o o o o   o   o     o o o   o o o o o   o o   o   o   o   o     o                                                       @ _.>X>X>X>X>X>X>X>X1X7X0X0X0X0X0X0X0X0X0X0X0X0X0X0X0XqX0X0X0X0X0X0X0X0X0X0X0X0X0X0X0X0X0X0X0X0X0X0X0X0X0X0XqX0XqXqXqX0X0X0X0X0X0X0XqXqXqXqXqXqXqXqXqX9XqX0X0X0X0X0X0X0X0X0X0X0X0X0X0X0X0X0XqX7X7X7X0X9X3X>X>Xq..                   eXeXeXeXeXeXeXeXeXeXeXeXeXeXeXeXeXeXeXeXeXeXeXeXeXeXeXeXeXeXeXeXeXeXeXeXeXeXeXeXeXeXeXeXeXeXeXeXeXeXeXeXeXeXeXeXeXeXeXeXeXeXeXeXeXeXeXeXeXeXeXeXeXeXeXeXeXeXeXeXeXeXeXeXeXeXeXeXeXeXeXeXeXeXeXeXeXeXeXeXeXeXeXeXeXeXeXeXeXeXeXeXeXeXeXeXeXeXeXeXeXeXeXeXeXeXeXeXeX",
"eXeXeXeXeXeXeXeXeXeXeXeXeXeXeXeXeXeXeXeXeXeXeXeXeXeXeXeXeXeXeXeXeXeXeXeXeXeXeXeXeXeXeXeXeXeXeXeXeX                                                                                                                                                                  r.:X>X>X>X>X>X>X>X1XqX0X0XqX9X7X9X9X9X9X9X9X9X9X9X9X7X9X9X9X9XqX0X0X0X0X0X0X0X0X0X0X0X0X0X0X0X0X0X0X0X0X9X7X7X6X7X7X7X9X0X0X0X0X0X9X7X6X6X6X6X6X6X6X6X6X6XqX0X0X0X0X0X0X0X0X0X0X0X0X0X0X0X7X1X].'.].1X9X7X1X>XE.3 o N B A A >       eXeXeXeXeXeXeXeXeXeXeXeXeXeXeXeXeXeXeXeXeXeXeXeXeXeXeXeXeXeXeXeXeXeXeXeXeXeXeXeXeXeXeXeXeXeXeXeXeXeXeXeXeXeXeXeXeXeXeXeXeXeXeXeXeXeXeXeXeXeXeXeXeXeXeXeXeXeXeXeXeXeXeXeXeXeXeXeXeXeXeXeXeXeXeXeXeXeXeXeXeXeXeXeXeXeXeXeXeXeXeXeXeXeXeXeXeXeXeXeXeXeXeXeXeXeXeXeXeX",
"eXeXeXeXeXeXeXeXeXeXeXeXeXeXeXeXeXeXeXeXeXeXeXeXeXeXeXeXeXeXeXeXeXeXeXeXeXeXeXeXeXeXeXeXeXeXeXeXeX                                                                                                                                                                  !.>X>X>X>X>X>X>X1X9X0XqX6X>X[.].>X2X6X6X6X6X6X6X6X6X6X6X6X6X6XqX0X0X0X0X0X0X0X0X0X0X0X0X0X0X0X0X0X0X0X0X7X6X6X6X6X6X6XqX0X0X0X0X0X7X6X6X6X6X6X6X6X6X6X6X9X0X0X0X0X0X0X0X0X0X0X0X0X0X0X0X9X[.x.q.r.c.!.:X9X6X1X'.7 o -.:.>.:.f                     eXeXeXeXeXeXeXeXeXeXeXeXeXeXeXeXeXeXeXeXeXeXeXeXeXeXeXeXeXeXeXeXeXeXeXeXeXeXeXeXeXeXeXeXeXeXeXeXeXeXeXeXeXeXeXeXeXeXeXeXeXeXeXeXeXeXeXeXeXeXeXeXeXeXeXeXeXeXeXeXeXeXeXeXeXeXeXeXeXeXeXeXeXeXeXeXeXeXeXeXeXeXeXeXeXeXeXeXeXeXeXeXeXeXeXeXeXeXeXeXeXeX",
"eXeXeXeXeXeXeXeXeXeXeXeXeXeXeXeXeXeXeXeXeXeXeXeXeXeXeXeXeXeXeXeXeXeXeXeXeXeXeXeXeXeXeXeXeXeXeXeXeX                                            o o # O O # - - ; > > > > > 2 1 1 1 1 a a f f f z z l l l l l N N N B B A A A A A Z +.+.+.$.$.$.&.$.*.*.*.-.-.,.+.# D '.>X>X>X>X>X>X>X7X0X9X2X).c.x.R.Q._.1X6X6X6X6X6X6X6X6X6X6X6X7X0X0X0X0X0X0X0X0X0X0X0X0X0X0X0X0X0X0X0X0X0X7X6X6X6X6X6X7XqX0X0X0X0X0X7X6X6X6X6X6X6X6X6X6X6XqX0X0X0X0X0X0X0X0X0X0X0X0X0X0X0X1Xk.7   o P c.!.3X9X1X:Xt   -.:.>.>.z         & 3 3 + o     eXeXeXeXeXeXeXeXeXeXeXeXeXeXeXeXeXeXeXeXeXeXeXeXeXeXeXeXeXeXeXeXeXeXeXeXeXeXeXeXeXeXeXeXeXeXeXeXeXeXeXeXeXeXeXeXeXeXeXeXeXeXeXeXeXeXeXeXeXeXeXeXeXeXeXeXeXeXeXeXeXeXeXeXeXeXeXeXeXeXeXeXeXeXeXeXeXeXeXeXeXeXeXeXeXeXeXeXeXeXeXeXeXeXeXeXeXeXeXeXeX",
"eXeXeXeXeXeXeXeXeXeXeXeXeXeXeXeXeXeXeXeXeXeXeXeXeXeXeXeXeXeXeXeXeXeXeXeXeXeXeXeXeXeXeXeXeXeXeXeXeX        A $.&.*.*.-.-.-.-.-.;.;.:.:.:.:.:.:.:.:.:.:.:.>.:.:.:.:.:.>.:.:.>.>.:.:.>.:.>.:.>.>.:.:.>.:.:.>.:.>.>.:.>.:.>.:.>.>.>.>.>.:.>.>.:.>.>.>.>.>.>.>.>.:.+.O @.].>X>X>X>X>X>X2XqX9X4X_.9.3   7 k.Q.[.2X6X6X6X6X6X6X6X6X6X6X7X0X0X0X0X0X0X0X0X0X0X0X0X0X0X0X0X0X0X0X0X9X6X6X6X6X6X6X9X0X0X0X0X0X9X6X6X6X6X6X6X6X6X6X6X7X0X0X0X0X0X0X0X0X0X0X0X0X0X0X0X0X).z         q.E.].9X2X>XJ   &.:.:.;.1 o     & F T T R R F     eXeXeXeXeXeXeXeXeXeXeXeXeXeXeXeXeXeXeXeXeXeXeXeXeXeXeXeXeXeXeXeXeXeXeXeXeXeXeXeXeXeXeXeXeXeXeXeXeXeXeXeXeXeXeXeXeXeXeXeXeXeXeXeXeXeXeXeXeXeXeXeXeXeXeXeXeXeXeXeXeXeXeXeXeXeXeXeXeXeXeXeXeXeXeXeXeXeXeXeXeXeXeXeXeXeXeXeXeXeXeXeXeXeXeXeXeXeXeXeX",
"eXeXeXeXeXeXeXeXeXeXeXeXeXeXeXeXeXeXeXeXeXeXeXeXeXeXeXeXeXeXeXeXeXeXeXeXeXeXeXeXeXeXeXeXeXeXeXeXeX        *.:.>.>.>.>.>.>.>.>.>.>.>.>.>.>.>.>.>.>.>.>.>.>.>.>.>.>.>.>.>.>.>.>.>.>.>.>.>.>.>.>.>.>.>.>.>.>.>.>.>.>.>.>.>.>.>.>.>.>.>.>.>.>.>.>.>.:.>.>.>.>.>.>.Z O 5.[.>X>X>X>X>X>X7X9X7X1Xx.;       5 R.!.1X6X6X6X6X6X6X6X6X6X6X9X0X0X0X0X0X0X0X0X0X0X0X0X0X0X0X0X0X0X0X0X9X7X6X6X6X6X6XqX0X0X0X0X0X7X6X6X6X6X6X6X6X6X6X6X9X0X0X0X0X0X0X0X0X0X0X0X0X0X0X0X0X!.5         2.E.'.6X6X>XH   $.-.-.-.1       S R T T R Y R P     eXeXeXeX              eXeXeXeXeXeXeXeXeXeXeXeXeXeXeXeXeXeXeXeXeXeXeXeXeXeXeXeXeXeXeXeXeXeXeXeXeXeXeXeXeXeXeXeXeXeXeXeXeXeXeXeXeXeXeXeXeXeXeXeXeXeXeXeXeXeXeXeXeXeXeXeXeXeXeXeXeXeXeXeXeXeXeXeXeXeXeXeXeXeXeXeXeXeXeXeXeXeXeXeXeXeXeXeXeXeXeXeX",
"eXeXeXeXeXeXeXeXeXeXeXeXeXeXeXeXeXeXeXeXeXeXeXeXeXeXeXeXeXeXeXeXeXeXeXeXeXeXeXeXeXeXeXeXeXeXeXeXeX        *.>.>.>.>.>.>.>.>.>.>.>.>.>.>.>.>.>.>.>.>.>.>.>.>.>.>.:.:.:.>.:.:.>.:.:.:.>.:.:.:.:.:.:.:.:.:.:.;.:.:.:.;.;.:.;.:.;.;.;.;.:.;.;.;.;.-.;.;.;.;.;.-.;.B o 5.[.>X>X>X>X>X>X7X7X6X>X5.+         x.Q.1X6X6X6X6X6X6X6X6X6X7X0X0X0X0X0X0X0X0X0X0X0X0X0X0X0X0X0X0X0X0XqX7X6X6X6X6X6X7XqX0X0X0X0XqX7X6X6X6X6X6X6X7X6X6X6X9X0X0X0X0X0X0X0X0X0X0X0X0X0X0X0X0X_.H       . r.Q.].6X4X1XH   Z -.-.-.1       F T T R R R T Y 8         . o         @       eXeXeXeXeXeXeXeXeXeXeXeXeXeXeXeXeXeXeXeXeXeXeXeXeXeXeXeXeXeXeXeXeXeXeXeXeXeXeXeXeXeXeXeXeXeXeXeXeXeXeXeXeXeXeXeXeXeXeXeXeXeXeXeXeXeXeXeXeXeXeXeXeXeXeXeXeXeXeXeXeXeXeXeXeXeXeXeXeXeXeXeXeXeXeXeXeXeXeXeXeXeXeXeXeXeX",
"eXeXeXeXeXeXeXeXeXeXeXeXeXeXeXeXeXeXeXeXeXeXeXeXeXeXeXeXeXeXeXeXeXeXeXeXeXeXeXeXeXeXeXeXeXeXeXeXeX        Z -.;.;.-.;.;.;.;.-.-.;.;.-.-.-.;.;.-.;.=.-.-.-.-.-.-.-.;.-.-.-.;.-.-.-.;.-.-.-.-.-.-.-.-.-.-.-.-.-.-.-.-.-.-.-.-.-.-.-.-.-.-.-.-.-.-.-.-.-.-.-.-.-.N + 5.'.>X>X>X>X>X>X7X6X6X>Xk.4       @ c.!.1X6X6X6X6X6X6X6X6X6X9X0X0X0X0X0X0X0X0X0X0X0X0X0X0X0X0X0X0X0X0X9X7X6X6X6X6X6X9X0X0X0X0X0X9X7X6X6X6X6X6X6X6X6X6X7XqX0X0X0X0X0X0X0X0X0X0X0X0X0X0X0X0X2Xx.T 9 8 W R.).1X6X2X>XY   Z -.-.-.1       F E ] ] E R R Y G     & 5 S G Y Y P G G r 5 o   eXeXeXeXeXeXeXeXeXeXeXeXeXeXeXeXeXeXeXeXeXeXeXeXeXeXeXeXeXeXeXeXeXeXeXeXeXeXeXeXeXeXeXeXeXeXeXeXeXeXeXeXeXeXeXeXeXeXeXeXeXeXeXeXeXeXeXeXeXeXeXeXeXeXeXeXeXeXeXeXeXeXeXeXeXeXeXeXeXeXeXeXeXeXeXeXeXeXeXeXeXeXeXeXeX",
"eXeXeXeXeXeXeXeXeXeXeXeXeXeXeXeXeXeXeXeXeXeXeXeXeXeXeXeXeXeXeXeXeXeXeXeXeXeXeXeXeXeXeXeXeXeXeXeXeX        A =.-.-.=.=.-.-.-.-.-.-.-.-.-.-.-.-.-.-.-.-.-.-.-.-.-.-.-.-.-.-.-.-.-.-.-.-.-.-.-.-.-.-.-.-.-.-.-.-.-.-.-.-.-.-.-.-.-.-.-.-.-.-.-.-.-.-.-.-.-.-.-.-.B + 5.'.>X>X>X>X>X>X6X8X6X2X!.T @ + 4 5.E.'.2X6X6X6X6X6X7X6X6X6X9X0X0X0X0X0X0X0X0X0X0X0X0X0X0X0X0X0X0X0X0X9X6X6X6X6X6X6X9X0X0X0X0X0X7X7X6X6X6X6X7X6X6X6X6X7X0X0X0X0X0X0X0X0X0X0X0X0X0X0X0X0X0X9X>XE.k.z.E.).:X2X6X2X>XT   Z -.-.-.1       H 4.7.8.7.3.[ R F   @ G R Y R T R R Y R R Y 7     eXeXeXeXeXeXeXeXeXeXeXeXeXeXeXeXeXeXeXeXeXeXeXeXeXeXeXeXeXeXeXeXeXeXeXeXeXeXeXeXeXeXeXeXeXeXeXeXeXeXeXeXeXeXeXeXeXeXeXeXeXeXeXeXeXeXeXeXeXeXeXeXeXeXeXeXeXeXeXeXeXeXeXeXeXeXeXeXeXeXeXeXeXeXeXeXeXeXeXeXeXeXeXeX",
"eXeXeXeXeXeXeXeXeXeXeXeXeXeXeXeXeXeXeXeXeXeXeXeXeXeXeXeXeXeXeXeXeXeXeXeXeXeXeXeXeXeXeXeXeXeXeXeXeX        B =.-.-.-.-.-.-.-.-.-.-.-.-.-.-.-.-.-.-.-.-.-.-.-.-.-.-.-.-.-.-.-.-.-.-.-.-.-.-.-.-.-.-.-.-.-.-.-.-.-.-.-.-.-.-.-.-.-.-.-.-.-.-.-.-.-.-.-.-.-.-.-.-.B # 6.'.>X>X>X>X>X>X2X6X6X6X>X!.r.6.k.E.).1X6X6X6X6X6X6X6X6X6X7XqX0X0X0X0X0X0X0X0X0X0X0X0X0X0X0X0X0X0X0X0X7X6X6X6X6X6X7X0X0X0X0X0X0X7X6X6X6X6X6X6X6X6X6X6X9X0X0X0X0X0X0X0X0X0X0X0X0X0X0X0X0X0X0XqX2X].'.].>X6X6X6X2X>XT   +.-.-.-.a       Y 8.8.8.8.8.4.[ r   5 E E E E E E E R R T T P &   eXeXeXeXeXeXeXeXeXeXeXeXeXeXeXeXeXeXeXeXeXeXeXeXeXeXeXeXeXeXeXeXeXeXeXeXeXeXeXeXeXeXeXeXeXeXeXeXeXeXeXeXeXeXeXeXeXeXeXeXeXeXeXeXeXeXeXeXeXeXeXeXeXeXeXeXeXeXeXeXeXeXeXeXeXeXeXeXeXeXeXeXeXeXeXeXeXeXeXeXeXeXeXeX",
"eXeXeXeXeXeXeXeXeXeXeXeXeXeXeXeXeXeXeXeXeXeXeXeXeXeXeXeXeXeXeXeXeXeXeXeXeXeXeXeXeXeXeXeXeXeXeXeXeX        B =.-.-.-.-.-.-.-.-.-.-.-.-.-.-.-.-.-.-.-.-.-.-.-.-.-.-.-.-.-.-.-.-.-.-.-.-.-.-.-.-.-.-.-.-.-.-.-.-.-.-.-.-.-.-.-.-.-.-.-.-.-.-.-.-.-.-.-.-.-.-.-.-.B O 6.'.>X>X>X>X>X>X6X6X6X6X6X1X'.)._.'.1X6X6X6X6X6X6X6X6X6X6X7X0X0X0X0X0X0X0X0X0X0X0X0X0X0X0X0X0X0X0X0X9X7X6X6X6X6X6X9XqX0X0X0X0X9X7X6X7X6X6X6X6X6X6X6X7XqX0X0X0X0X0X0X0X0X0X0X0X0X0X0X0X0X0X0X0X0X7X6X6X6X6X6X6X2X>XQ   A -.-.-.a       Y 8.8.8.8.8.7.[ r . F 3.1.7.7.8.7.7.3.] R R T r     eXeXeXeXeXeXeXeXeXeXeXeXeXeXeXeXeXeXeXeXeXeXeXeXeXeXeXeXeXeXeXeXeXeXeXeXeXeXeXeXeXeXeXeXeXeXeXeXeXeXeXeXeXeXeXeXeXeXeXeXeXeXeXeXeXeXeXeXeXeXeXeXeXeXeXeXeXeXeXeXeXeXeXeXeXeXeXeXeXeXeXeXeXeXeXeXeXeXeXeXeXeXeX",
"eXeXeXeXeXeXeXeXeXeXeXeXeXeXeXeXeXeXeXeXeXeXeXeXeXeXeXeXeXeXeXeXeXeXeXeXeXeXeXeXeXeXeXeXeXeXeXeXeX        B =.-.-.-.-.-.-.-.-.-.-.-.-.-.-.-.-.-.-.-.-.-.-.-.-.-.-.-.-.-.-.-.-.-.-.-.-.-.-.-.-.-.-.-.-.-.-.-.-.-.-.-.-.-.-.-.-.-.-.-.-.-.-.-.-.-.-.-.-.-.-.-.=.B O 2.'.>X>X>X>X>X>X2X6X6X6X7X6X6X6X6X6X6X6X6X6X6X6X6X6X6X6X6XqX0X0X0X0X0X0X0X0X0X0X0X0X0X0X0X0X0X0X0X0X9X6X6X6X6X6X6X9X0X0X0X0X0X9X6X6X6X6X6X6X6X6X6X6X7X0X0X0X0X0X0X0X0X0X0X0X0X0X0X0X0X0X0X0X0X9X7X6X6X6X6X6X6X2X>XW   B -.-.-.1 o     Y 8.8.8.8.8.8.P @ 4 E 8.8.8.8.8.7.8.7.4.] T T 7     eXeXeXeXeXeXeXeXeXeXeXeXeXeXeXeXeXeXeXeXeXeXeXeXeXeXeXeXeXeXeXeXeXeXeXeXeXeXeXeXeXeXeXeXeXeXeXeXeXeXeXeXeXeXeXeXeXeXeXeXeXeXeXeXeXeXeXeXeXeXeXeXeXeXeXeXeXeXeXeXeXeXeXeXeXeXeXeXeXeXeXeXeXeXeXeXeXeXeXeXeXeXeX",
"eXeXeXeXeXeXeXeXeXeXeXeXeXeXeXeXeXeXeXeXeXeXeXeXeXeXeXeXeXeXeXeXeXeXeXeXeXeXeXeXeXeXeXeXeXeXeXeXeX        B =.=.-.-.-.-.-.-.-.-.-.-.-.-.-.-.-.-.-.-.-.-.-.-.-.-.-.-.-.-.-.-.-.-.-.-.-.-.-.-.-.-.-.-.-.-.-.-.-.-.-.-.-.-.-.-.-.-.-.-.-.-.-.-.-.-.-.-.-.-.-.-.-.B O 2._.>X>X>X>X>X>X6X6X6X6X6X6X6X6X6X6X6X6X6X6X6X6X6X6X6X6X6XqX0X0X0X0X0X0X0X0X0X0X0X0X0X0X0X0X0X0X0X0X7X6X6X6X6X6X7XqX0X0X0X0X0X7X6X6X6X6X6X6X6X7X6X6X9X0X0X0X0X0X0X0X0X9X0X0X0X0X0X0X0X0X0X0X0X9X7X6X6X6X6X6X6X2X>X{   V -.-.-.f       P 8.8.7.8.7.P &   r <.8.8.8.8.8.8.8.8.8.1.E T 5   eXeXeXeXeXeXeXeXeXeXeXeXeXeXeXeXeXeXeXeXeXeXeXeXeXeXeXeXeXeXeXeXeXeXeXeXeXeXeXeXeXeXeXeXeXeXeXeXeXeXeXeXeXeXeXeXeXeXeXeXeXeXeXeXeXeXeXeXeXeXeXeXeXeXeXeXeXeXeXeXeXeXeXeXeXeXeXeXeXeXeXeXeXeXeXeXeXeXeXeXeXeXeXeX",
"eXeXeXeXeXeXeXeXeXeXeXeXeXeXeXeXeXeXeXeXeXeXeXeXeXeXeXeXeXeXeXeXeXeXeXeXeXeXeXeXeXeXeXeXeXeXeXeXeX        N *.-.-.-.-.-.-.-.-.-.-.-.-.-.-.-.-.-.-.-.-.-.-.-.-.-.-.-.-.-.-.-.-.-.-.-.-.-.-.-.-.-.-.-.-.-.-.-.-.-.-.-.-.-.-.-.-.-.-.-.-.-.-.-.-.-.-.-.-.-.-.-.-.A O 2._.>X>X>X>X>X1X2X6X6X6X6X6X6X6X6X6X6X6X6X6X6X6X6X6X6X6X9XqX0X0XqXqXqX0X0X0X0X0X0X0X0X0X0X0X0X0X0X9X7X6X6X6X6X7X9XqX0X0X0X0X9X6X6X6X6X6X6X6X6X6X6X6XqX0X0X0X0X0X9X7X7X2X9X0X0X0X0X0X0X0X0X0X0X7X6X6X6X6X6X6X6X3X1X]   A -.-.-.f       P 8.8.7.<.r .     5 ] 8.8.8.8.8.8.8.8.8.7.E P &   eXeXeXeXeXeXeXeXeXeXeXeXeXeXeXeXeXeXeXeXeXeXeXeXeXeXeXeXeXeXeXeXeXeXeXeXeXeXeXeXeXeXeXeXeXeXeXeXeXeXeXeXeXeXeXeXeXeXeXeXeXeXeXeXeXeXeXeXeXeXeXeXeXeXeXeXeXeXeXeXeXeXeXeXeXeXeXeXeXeXeXeXeXeXeXeXeXeXeXeXeXeXeXeX",
"eXeXeXeXeXeXeXeXeXeXeXeXeXeXeXeXeXeXeXeXeXeXeXeXeXeXeXeXeXeXeXeXeXeXeXeXeXeXeXeXeXeXeXeXeXeXeXeXeX        N -.-.-.-.-.-.-.-.-.-.-.-.-.-.-.-.-.-.-.-.-.-.-.-.-.-.-.-.-.-.-.-.-.-.-.-.-.-.-.-.-.-.-.-.-.-.-.-.-.-.-.-.-.-.-.-.-.-.-.-.-.-.-.-.-.-.-.=.-.-.-.-.=.B O 2._.>X>X>X>X>X>X2X6X6X6X6X6X6X6X6X6X6X6X6X6X6X6X6X6X6X6XqX0X0X0XqX7X6X6X6X7XqX0X0X0X0X0X0X0X0X0X0X9X7X6X6X6X6X6X9X0X0X0X0X0X9X6X6X6X6X6X6X6X6X6X6X7X0X0XqXqX9X6X:X).).2XqX0X0X0X0X0X0X0X0X0XqX7X6X6X6X6X6X6X6X2X1X6.  N -.-.-.f o     P 8.3.[ 4   . P &   G 3.8.8.8.8.8.8.8.8.8.T r o   eXeXeXeXeXeXeXeXeXeXeXeXeXeXeXeXeXeXeXeXeXeXeXeXeXeXeXeXeXeXeXeXeXeXeXeXeXeXeXeXeXeXeXeXeXeXeXeXeXeXeXeXeXeXeXeXeXeXeXeXeXeXeXeXeXeXeXeXeXeXeXeXeXeXeXeXeXeXeXeXeXeXeXeXeXeXeXeXeXeXeXeXeXeXeXeXeXeXeXeXeXeXeXeX",
"eXeXeXeXeXeXeXeXeXeXeXeXeXeXeXeXeXeXeXeXeXeXeXeXeXeXeXeXeXeXeXeXeXeXeXeXeXeXeXeXeXeXeXeXeXeXeXeXeX        N *.-.-.-.-.-.-.-.-.-.-.-.-.-.-.-.-.-.-.-.-.-.-.-.-.-.-.-.-.-.-.-.-.-.-.-.-.-.-.-.-.-.-.-.-.-.-.-.-.-.-.-.-.-.-.-.-.-.-.-.=.-.-.-.-.-.-.-.-.-.-.-.-.A O 2.).>X>X>X>X>X>X2X6X6X6X6X6X6X6X6X6X6X6X6X6X6X6X6X6X6X6XqX0X0X0X0X9X6X>X:X>X1X2X2X7X0X0X0X0X0X0X0X7X6X6X6X7X6X7XqX0X0X0X0X0X7X6X6X6X6X6X6X6X6X6X6X9XqX9X6X:X!.E.E._.6X0X0X0X0X0X0X0X0X0X0X0X9X7X6X6X6X6X6X6X6X2X>X4.  A -.-.-.f       P <.P .   & ] 7.Y . @ F [ <.3.7.7.1.E Y P r     eXeXeXeXeXeXeXeXeXeXeXeXeXeXeXeXeXeXeXeXeXeXeXeXeXeXeXeXeXeXeXeXeXeXeXeXeXeXeXeXeXeXeXeXeXeXeXeXeXeXeXeXeXeXeXeXeXeXeXeXeXeXeXeXeXeXeXeXeXeXeXeXeXeXeXeXeXeXeXeXeXeXeXeXeXeXeXeXeXeXeXeXeXeXeXeXeXeXeXeXeXeXeXeXeX",
"eXeXeXeXeXeXeXeXeXeXeXeXeXeXeXeXeXeXeXeXeXeXeXeXeXeXeXeXeXeXeXeXeXeXeXeXeXeXeXeXeXeXeXeXeXeXeXeXeX        N =.=.-.-.-.-.-.-.-.-.-.-.-.-.-.-.-.-.-.-.-.-.-.-.-.-.-.-.-.-.=.-.-.-.-.-.-.-.-.-.-.-.-.-.=.-.-.-.-.-.-.-.-.-.-.-.-.-.-.-.-.-.-.-.-.-.-.-.-.-.-.-.-.A O W ).>X>X>X>X>X>X6X6X6X6X6X6X6X6X6X6X6X6X6X6X6X6X6X6X6X9XqX0X0X0X0X0X0X7X1X].[.'.].:X:X>X2X7X0X0XqX7X6X6X6X6X6X7XqX0X0X0X0XqX7X6X6X6X6X6X6X6X6X6X6X1X].Q.E.Q.!.!.:X7X0X0X0X0X0X0X0X0X0X0X0X0X7X6X6X6X6X6X6X6X6X4X>X7.  N -.-.-.z       7 r   . r 7.7.8.7.P &   & 5 3 . . @ & & o     eXeXeXeXeXeXeXeXeXeXeXeXeXeXeXeXeXeXeXeXeXeXeXeXeXeXeXeXeXeXeXeXeXeXeXeXeXeXeXeXeXeXeXeXeXeXeXeXeXeXeXeXeXeXeXeXeXeXeXeXeXeXeXeXeXeXeXeXeXeXeXeXeXeXeXeXeXeXeXeXeXeXeXeXeXeXeXeXeXeXeXeXeXeXeXeXeXeXeXeXeXeXeXeXeXeX",
"eXeXeXeXeXeXeXeXeXeXeXeXeXeXeXeXeXeXeXeXeXeXeXeXeXeXeXeXeXeXeXeXeXeXeXeXeXeXeXeXeXeXeXeXeXeXeXeXeX        l *.=.-.-.-.-.-.-.-.-.-.-.-.-.-.-.-.-.-.-.-.-.-.-.-.-.-.-.-.-.-.-.-.-.-.-.-.-.-.-.-.-.-.-.-.-.-.-.-.-.-.-.-.-.-.-.-.-.-.-.-.-.-.-.-.-.-.-.-.-.=.=.;.B > W ).>X>X>X>X>X>X4X6X6X6X6X7X6X6X6X7X6X6X6X6X6X6X6X6X6X9X0X0X0X0X0X0X0X0XqX6X>X].'.'._.'.'.[.[.:X1X2X6X6X6X6X6X9X0X0X0X0X0X9X6X6X6X6X6X6X6X2X>X).E.E.Q.)._._.).1X9X0X0X0X0X0X0X0X0X0X0X0X0X9X7X6X6X6X6X6X6X6X6X2X>X5.o N -.-.-.z           . S 8.8.8.8.8.1.P 4 @ o               eXeXeXeXeXeXeXeXeXeXeXeXeXeXeXeXeXeXeXeXeXeXeXeXeXeXeXeXeXeXeXeXeXeXeXeXeXeXeXeXeXeXeXeXeXeXeXeXeXeXeXeXeXeXeXeXeXeXeXeXeXeXeXeXeXeXeXeXeXeXeXeXeXeXeXeXeXeXeXeXeXeXeXeXeXeXeXeXeXeXeXeXeXeXeXeXeXeXeXeXeXeXeXeXeXeXeXeX",
"eXeXeXeXeXeXeXeXeXeXeXeXeXeXeXeXeXeXeXeXeXeXeXeXeXeXeXeXeXeXeXeXeXeXeXeXeXeXeXeXeXeXeXeXeXeXeXeXeX        l =.-.-.-.-.-.-.-.-.-.-.-.-.-.-.-.-.-.-.-.-.-.-.-.-.-.-.-.-.-.-.-.-.-.-.-.-.-.-.-.-.-.-.-.-.-.-.-.-.-.-.-.-.-.-.-.-.-.-.-.-.-.-.-.-.-.-.-.-.-.-.=.=.A O W ).>X>X>X>X>X>X4X6X6X6X6X6X6X6X6X6X6X6X6X6X6X6X6X6X6X9X0X0X0X0X0X0X0X0X0X0X9X2X:X'.'.'.'._.)._._.!.).'.>X2X6XqX0X0X0X0X0X7X6X6X7X6X1X:X!.E.R.Q.).'.'.'.)._.6X0X0X0X0X0X0X0X0X0X0X0X0X0X0X9X7X6X6X6X6X6X6X6X6X2X1X9.  N -.-.-.z o     @ . & [ 8.8.8.8.8.4.[ P G S 3   eXeXeXeXeXeXeXeXeXeXeXeXeXeXeXeXeXeXeXeXeXeXeXeXeXeXeXeXeXeXeXeXeXeXeXeXeXeXeXeXeXeXeXeXeXeXeXeXeXeXeXeXeXeXeXeXeXeXeXeXeXeXeXeXeXeXeXeXeXeXeXeXeXeXeXeXeXeXeXeXeXeXeXeXeXeXeXeXeXeXeXeXeXeXeXeXeXeXeXeXeXeXeXeXeXeXeXeXeXeXeXeXeX",
"eXeXeXeXeXeXeXeXeXeXeXeXeXeXeXeXeXeXeXeXeXeXeXeXeXeXeXeXeXeXeXeXeXeXeXeXeXeXeXeXeXeXeXeXeXeXeXeXeX        l *.-.-.-.-.-.-.-.-.-.-.-.-.-.-.-.-.-.-.-.-.-.-.-.-.-.-.-.-.-.-.-.-.-.-.-.-.-.-.-.-.-.-.-.-.-.-.-.-.-.-.-.-.-.-.-.-.-.-.-.-.-.-.-.-.-.-.-.-.-.-.-.*.C - E ).>X>X>X>X>X>X2X6X6X6X6X6X6X6X6X6X6X6X6X6X6X6X6X6X9XqX0X0X0X0X0X0X0X0X0X0X0XqX6X1X].'.'.'.'.'._.).).!.Q.!.).].2X9X0X0X9X6X6X1X[.!.R.E.Q.)._.'.'.'.'.).].7X0X0X0X0X0X0X0X0X0X0X0X0X0X0X0X9X6X6X6X6X6X6X6X6X6X2X1Xq.  l -.-.-.z o     3 @ r 1.8.8.8.8.8.1.R T R F @   eXeXeXeXeXeXeXeXeXeXeXeXeXeXeXeXeXeXeXeXeXeXeXeXeXeXeXeXeXeXeXeXeXeXeXeXeXeXeXeXeXeXeXeXeXeXeXeXeXeXeXeXeXeXeXeXeXeXeXeXeXeXeXeXeXeXeXeXeXeXeXeXeXeXeXeXeXeXeXeXeXeXeXeXeXeXeXeXeXeXeXeXeXeXeXeXeXeXeXeXeXeXeXeXeXeXeXeXeXeXeXeXeX",
"eXeXeXeXeXeXeXeXeXeXeXeXeXeXeXeXeXeXeXeXeXeXeXeXeXeXeXeXeXeXeXeXeXeXeXeXeXeXeXeXeXeXeXeXeXeXeXeXeX        l *.=.-.-.-.-.-.-.-.-.-.-.-.-.-.-.-.-.-.-.-.-.-.-.-.-.-.-.-.-.-.-.-.-.-.-.-.-.-.-.-.-.-.-.-.-.-.-.-.-.-.-.-.-.-.-.-.-.-.-.-.-.-.-.-.-.-.-.-.-.-.-.;.A > Q ).>X>X>X>X>X>X2X7X6X6X6X6X6X6X6X6X6X6X6X6X6X6X6X6X9X0X0X0X0X0X0X0X0X0X0X0X0X0X0XqX2X:X'.'.'.'.'.'.'._.).).!.Q.Q.!._.:X>X'.!.E.E.!.)._.'.'.'.'.'._._.1X9X0X0X0X0X0X0X0X0X0X0X0X0X0X0X0XqX7X6X6X6X6X6X6X6X6X6X2X>Xr.  l -.-.-.z       @ @ Y 8.8.8.8.8.7.[ R T Y 7   eXeXeXeXeXeXeXeXeXeXeXeXeXeXeXeXeXeXeXeXeXeXeXeXeXeXeXeXeXeXeXeXeXeXeXeXeXeXeXeXeXeXeXeXeXeXeXeXeXeXeXeXeXeXeXeXeXeXeXeXeXeXeXeXeXeXeXeXeXeXeXeXeXeXeXeXeXeXeXeXeXeXeXeXeXeXeXeXeXeXeXeXeXeXeXeXeXeXeXeXeXeXeXeXeXeXeXeXeXeXeXeXeXeX",
"eXeXeXeXeXeXeXeXeXeXeXeXeXeXeXeXeXeXeXeXeXeXeXeXeXeXeXeXeXeXeXeXeXeXeXeXeXeXeXeXeXeXeXeXeXeXeXeXeXeX      z *.-.-.-.-.-.-.-.-.-.-.-.-.-.-.-.-.-.-.-.-.-.-.-.-.-.-.-.-.-.-.-.-.-.-.-.-.-.-.-.-.-.-.-.-.-.-.-.-.-.-.-.-.-.-.=.-.-.-.-.-.-.-.-.-.-.-.-.-.-.-.-.-.A > U !.>X>X>X>X>X>X2X6X6X6X6X6X6X6X6X6X6X6X6X6X6X6X6X7X9X0X0X0X0X0X0X0X0X0X0X0X0X0X0X0X0X7X1X:X'.'.'.'.'.'.'.'._._.).!.E.E.E.E.!.)._.'.'.'.'.'.'.[._._.2X0X0X0X0X0X0X0X0X0X0X0X0X0X0X0X0X0X9X7X6X7X6X6X6X6X6X6X6X2X1Xr.  l -.-.-.l o     . r [ 8.8.8.8.8.1.E T T F &   eXeXeXeXeXeXeXeXeXeXeXeXeXeXeXeXeXeXeXeXeXeXeXeXeXeXeXeXeXeXeXeXeXeXeXeXeXeXeXeXeXeXeXeXeXeXeXeXeXeXeXeXeXeXeXeXeXeXeXeXeXeXeXeXeXeXeXeXeXeXeXeXeXeXeXeXeXeXeXeXeXeXeXeXeXeXeXeXeXeXeXeXeXeXeXeXeXeXeXeXeXeXeXeXeXeXeXeXeXeXeXeXeXeX",
"eXeXeXeXeXeXeXeXeXeXeXeXeXeXeXeXeXeXeXeXeXeXeXeXeXeXeXeXeXeXeXeXeXeXeXeXeXeXeXeXeXeXeXeXeXeXeXeXeXeX      z =.-.-.-.-.-.-.-.-.-.-.-.-.-.-.-.-.-.-.-.-.-.-.-.-.-.-.-.-.-.-.-.-.-.-.-.-.-.-.-.-.-.-.-.-.-.-.-.-.-.-.-.-.-.-.-.-.-.-.-.-.-.-.-.-.-.-.-.-.-.-.-.-.C > Q !.>X>X>X>X>X>X2X6X6X7X6X6X6X6X6X6X6X6X6X6X7X6X6X7X9X0X0X0X0X0X0X0X0X0X0X0X0X0X0X0X0X0X9X6X>X[.'.'.'.'.'.'.'.'.'.'._._._._._.'.'.'.'.'.'.'.'._.].6X0X0X0X0X0X0X0X0X0X0X0X0X0X0X0X0X0X0X9X6X7X6X6X6X6X6X6X6X6X2X>Xr.  l -.-.-.l o     o P 1.8.8.8.8.8.[ T T T r o eXeXeXeXeXeXeXeXeXeXeXeXeXeXeXeXeXeXeXeXeXeXeXeXeXeXeXeXeXeXeXeXeXeXeXeXeXeXeXeXeXeXeXeXeXeXeXeXeXeXeXeXeXeXeXeXeXeXeXeXeXeXeXeXeXeXeXeXeXeXeXeXeXeXeXeXeXeXeXeXeXeXeXeXeXeXeXeXeXeXeXeXeXeXeXeXeXeXeXeXeXeXeXeXeXeXeXeXeXeXeXeXeXeXeX",
"eXeXeXeXeXeXeXeXeXeXeXeXeXeXeXeXeXeXeXeXeXeXeXeXeXeXeXeXeXeXeXeXeXeXeXeXeXeXeXeXeXeXeXeXeXeXeXeXeXeX      z *.=.-.-.-.-.-.-.-.-.-.-.-.-.-.=.-.-.-.-.-.-.-.-.-.-.-.-.-.-.-.-.-.-.-.-.-.-.-.-.-.-.-.-.-.-.-.-.-.-.-.-.-.-.-.-.-.-.-.-.-.-.-.-.-.-.-.-.-.-.-.-.-.Z > T !.>X>X>X>X>X>X2X6X6X6X6X6X6X6X6X6X6X6X6X6X6X6X6X9X0X0X0X0X0X0X0X0X0X0X0X0X0X0X0X0X0X0X0XqX9X1X:X'.'.'.'.'.'.'.'.'.'.'.'.'.'.'.'.'.'.'.'.'._.>X9X0X0X0X0X0X0X0X0X0X0X0X0X0X0X0X0X0X0XqX7X6X6X6X6X6X6X6X6X7X6X2X1Xr.  l =.-.-.l o     . <.8.8.8.8.8.1.E T T Y @   eXeXeXeXeXeXeXeXeXeXeXeXeXeXeXeXeXeXeXeXeXeXeXeXeXeXeXeXeXeXeXeXeXeXeXeXeXeXeXeXeXeXeXeXeXeXeXeXeXeXeXeXeXeXeXeXeXeXeXeXeXeXeXeXeXeXeXeXeXeXeXeXeXeXeXeXeXeXeXeXeXeXeXeXeXeXeXeXeXeXeXeXeXeXeXeXeXeXeXeXeXeXeXeXeXeXeXeXeXeXeXeXeXeXeX",
"eXeXeXeXeXeXeXeXeXeXeXeXeXeXeXeXeXeXeXeXeXeXeXeXeXeXeXeXeXeXeXeXeXeXeXeXeXeXeXeXeXeXeXeXeXeXeXeXeXeX      j *.-.-.-.=.-.-.-.-.-.-.-.-.-.-.-.-.-.-.-.-.-.-.-.-.-.-.-.-.-.-.-.-.-.-.-.-.-.=.-.-.-.-.-.-.-.-.-.-.-.-.-.-.-.-.-.-.-.-.-.=.-.-.-.-.-.-.-.-.-.-.-.-.Z > ! Q.>X>X>X>X>X>X2X6X6X6X6X6X6X7X6X6X6X6X6X6X6X6X7X9X0X0X0X0X0X0X0X0X0X0X0X0X0X0X0X0X0X0X0X0X9X9X7X>X[.'.'.'.'.'.'.'.'.'.'.'.'.'.'.'.'.'._.'.2X0X0X0X0X0X0X0X0X0X0X0X0X0X0X0X0X0X0X0X0X9X7X6X6X6X6X6X6X6X6X6X6X2X1Xk.  l =.-.-.l o     @ 1.8.8.8.8.8.[ T T T S o   eXeXeXeXeXeXeXeXeXeXeXeXeXeXeXeXeXeXeXeXeXeXeXeXeXeXeXeXeXeXeXeXeXeXeXeXeXeXeXeXeXeXeXeXeXeXeXeXeXeXeXeXeXeXeXeXeXeXeXeXeXeXeXeXeXeXeXeXeXeXeXeXeXeXeXeXeXeXeXeXeXeXeXeXeXeXeXeXeXeXeXeXeXeXeXeXeXeXeXeXeXeXeXeXeXeXeXeXeXeXeXeXeXeXeX",
"eXeXeXeXeXeXeXeXeXeXeXeXeXeXeXeXeXeXeXeXeXeXeXeXeXeXeXeXeXeXeXeXeXeXeXeXeXeXeXeXeXeXeXeXeXeXeXeXeXeX      z *.=.-.-.-.-.-.-.-.-.-.-.-.-.-.-.=.-.-.-.-.-.-.-.-.-.-.-.-.-.-.-.-.-.-.-.-.-.-.-.-.-.-.-.-.-.-.-.-.-.-.-.-.-.-.-.-.-.-.-.-.=.-.-.-.-.-.-.-.-.-.-.*.Z , Y Q.>X>X>X>X>X>X2X6X6X6X6X6X6X6X6X6X6X7X6X6X6X6X7X9X0X0X0X0X0X0X0X0X0X0X0X0X0X0X0X0X0X0X0XqX9X7X9XqX2X:X'.'.'.'.'.'.'.'.'.'.'.'.'.'.'._.].6X0X0X0X0X0X0X0X0X0X0X0X0X0X0X0X0X0X0X0X0X0X9X6X6X6X6X6X6X6X6X6X6X6X2X>Xz.  z -.-.-.l o       <.8.7.8.8.] R R T Y 3     eXeXeXeXeXeXeXeXeXeXeXeXeXeXeXeXeXeXeXeXeXeXeXeXeXeXeXeXeXeXeXeXeXeXeXeXeXeXeXeXeXeXeXeXeXeXeXeXeXeXeXeXeXeXeXeXeXeXeXeXeXeXeXeXeXeXeXeXeXeXeXeXeXeXeXeXeXeXeXeXeXeXeXeXeXeXeXeXeXeXeXeXeXeXeXeXeXeXeXeXeXeXeXeXeXeXeXeXeXeXeXeXeXeXeX",
"eXeXeXeXeXeXeXeXeXeXeXeXeXeXeXeXeXeXeXeXeXeXeXeXeXeXeXeXeXeXeXeXeXeXeXeXeXeXeXeXeXeXeXeXeXeXeXeXeXeX      f *.=.-.-.-.-.-.-.-.-.-.-.-.-.-.-.-.-.-.-.-.-.-.-.-.-.-.-.-.-.-.-.-.-.-.-.-.-.-.-.-.-.-.-.-.-.-.-.-.-.-.-.-.-.-.-.-.-.-.-.-.-.-.-.-.-.-.-.-.-.-.-.;.Z > ! !.>X>X>X>X>X>X2X6X6X6X6X6X6X6X6X6X6X6X6X6X6X6X7X0X0X0X0X0X0X0X0X0X0X0X0X0X0X0X0X0X0X0X0XqX7X7X7X9XqX7X1X[.'.'.'.'.'.'.'.'.'.'.'.'.'.>X9X0XqX0X0X0X0X0X0X0X0X0X0X0X0X0X0X0X0X0X0X0XqX7X6X6X6X6X6X6X6X6X6X6X6X2X1Xz.  j =.-.-.N o       r <.7.<.[ R T T Y r         eXeXeXeXeXeXeXeXeXeXeXeXeXeXeXeXeXeXeXeXeXeXeXeXeXeXeXeXeXeXeXeXeXeXeXeXeXeXeXeXeXeXeXeXeXeXeXeXeXeXeXeXeXeXeXeXeXeXeXeXeXeXeXeXeXeXeXeXeXeXeXeXeXeXeXeXeXeXeXeXeXeXeXeXeXeXeXeXeXeXeXeXeXeXeXeXeXeXeXeXeXeXeXeXeXeXeXeXeXeXeXeXeXeX",
"eXeXeXeXeXeXeXeXeXeXeXeXeXeXeXeXeXeXeXeXeXeXeXeXeXeXeXeXeXeXeXeXeXeXeXeXeXeXeXeXeXeXeXeXeXeXeXeXeXeX      f *.=.-.-.-.-.-.-.-.-.-.-.-.-.-.-.-.-.=.-.-.-.-.-.-.-.-.-.-.-.-.-.-.-.-.-.-.-.-.-.-.-.-.-.-.-.-.-.-.-.-.-.-.-.-.-.-.-.-.-.-.-.-.-.-.-.-.-.-.-.-.-.-.Z > H Q.>X>X>X>X>X>X2X6X6X6X6X6X6X6X6X6X6X6X6X6X6X7X9X0X0X0X0X0X0X0X0X0X0X0X0X0X0X0X0X0X0X0X0X9X6X6X6X7X7XqXqX6X>X'.'.'.'.'.'.'.'.'.'.'.1XqX9X7X0X0X0X0X0X0X0X0X0X0X0X0X0X0X0X0X0X0X0X0X9X7X6X6X6X7X6X6X6X6X6X6X6X2X1Xl.. f -.-.-.l o     .   5 P Y R R R G 5 @ .       eXeXeXeXeXeXeXeXeXeXeXeXeXeXeXeXeXeXeXeXeXeXeXeXeXeXeXeXeXeXeXeXeXeXeXeXeXeXeXeXeXeXeXeXeXeXeXeXeXeXeXeXeXeXeXeXeXeXeXeXeXeXeXeXeXeXeXeXeXeXeXeXeXeXeXeXeXeXeXeXeXeXeXeXeXeXeXeXeXeXeXeXeXeXeXeXeXeXeXeXeXeXeXeXeXeXeXeXeXeXeXeXeXeX",
"eXeXeXeXeXeXeXeXeXeXeXeXeXeXeXeXeXeXeXeXeXeXeXeXeXeXeXeXeXeXeXeXeXeXeXeXeXeXeXeXeXeXeXeXeXeXeXeXeXeX      f *.=.-.-.-.-.-.-.-.-.-.-.-.-.-.-.-.-.=.;.=.-.-.-.-.-.-.-.-.-.-.-.-.-.-.-.-.-.-.-.-.-.-.-.-.-.-.-.-.-.-.-.-.-.-.-.-.-.-.-.-.-.-.-.-.-.-.-.-.-.-.-.-.Z 2 H Q.>X>X>X>X>X>X1X6X6X6X6X6X6X6X6X6X6X6X6X6X6X7X9X0X0X0X0X0X0X0X0X0X0X0X0X0X0X0X0X0X0X0X0X7X6X6X6X6X6X7X0XqX9X2X].'.'.'.'.'.'.'.:X6X0X9X6X9X0X0X0X0X0X0X0X0X0X0X0X0X0X0X0X0X0X0X0X0X9X6X6X6X6X6X6X6X6X6X6X6X6X2X1Xl.o f -.=.=.N o     & &   o 3 7 7 3 & . 3 r       eXeXeXeXeXeXeXeXeXeXeXeXeXeXeXeXeXeXeXeXeXeXeXeXeXeXeXeXeXeXeXeXeXeXeXeXeXeXeXeXeXeXeXeXeXeXeXeXeXeXeXeXeXeXeXeXeXeXeXeXeXeXeXeXeXeXeXeXeXeXeXeXeXeXeXeXeXeXeXeXeXeXeXeXeXeXeXeXeXeXeXeXeXeXeXeXeXeXeXeXeXeXeXeXeXeXeXeXeXeXeXeXeXeX",
"eXeXeXeXeXeXeXeXeXeXeXeXeXeXeXeXeXeXeXeXeXeXeXeXeXeXeXeXeXeXeXeXeXeXeXeXeXeXeXeXeXeXeXeXeXeXeXeXeXeX      f *.-.-.-.-.-.-.-.-.-.-.-.-.-.-.-.-.-.=.-.-.-.-.=.=.=.-.-.=.=.-.-.-.-.-.-.-.-.-.-.-.-.-.-.=.=.-.-.-.-.=.-.-.-.-.-.-.=.-.-.=.=.-.-.-.-.-.-.-.-.-.*.=.+.2 H Q.<X>X>X>X>X>X2X6X6X6X6X6X6X6X6X6X6X6X6X6X6X7X0X0X0X0X0X0X0X0X0X0X0X0X0X0X0X0X0X0X0X0XqX7X6X6X6X6X6X7X0X0X0XqX6X>X'.'.'.'.[.>X9X0X7X6X7X9X0X0X0X0X0X0X0X0X0X0X0X0X0X0X0X0X0X0X0XqX9X6X6X6X7X6X6X6X6X6X6X6X6X2X1Xl.  a &.&.&.N #     4 D 5 +     o . @ 5 Y T @     eXeXeXeXeXeXeXeXeXeXeXeXeXeXeXeXeXeXeXeXeXeXeXeXeXeXeXeXeXeXeXeXeXeXeXeXeXeXeXeXeXeXeXeXeXeXeXeXeXeXeXeXeXeXeXeXeXeXeXeXeXeXeXeXeXeXeXeXeXeXeXeXeXeXeXeXeXeXeXeXeXeXeXeXeXeXeXeXeXeXeXeXeXeXeXeXeXeXeXeXeXeXeXeXeXeXeXeXeXeXeXeXeXeX",
"eXeXeXeXeXeXeXeXeXeXeXeXeXeXeXeXeXeXeXeXeXeXeXeXeXeXeXeXeXeXeXeXeXeXeXeXeXeXeXeXeXeXeXeXeXeXeXeXeXeX      a *.-.-.-.-.-.-.-.-.-.-.-.-.-.-.-.-.-.=.=.-.-.-.=.;.=.-.-.-.=.-.-.-.-.=.=.-.-.-.-.-.-.-.-.-.=.-.-.-.-.=.=.-.-.-.-.-.=.-.-.-.=.-.-.-.-.-.-.-.-.-.;.=.Z 2 H E.>X>X>X>X>X>X2X6X6X6X6X6X6X6X6X6X6X6X6X6X6X9X0X0X0X0X0X0X0X0X0X0X0X0X0X0X0X0X0X0X0X0X9X6X6X6X6X6X6X9X0X0X0X0X0XqX2X:X'.].2XqXqX7X7X6X7X0X0X0X0X0X0X0X0X0X0X0X0X0X0X0X0X0X0X0X0X9X7X6X6X6X6X6X6X6X6X6X6X6X6X6X1Xx.. < n n m j O     4 P Y H S r r S F Y ] E 4     eXeXeXeXeXeXeXeXeXeXeXeXeXeXeXeXeXeXeXeXeXeXeXeXeXeXeXeXeXeXeXeXeXeXeXeXeXeXeXeXeXeXeXeXeXeXeXeXeXeXeXeXeXeXeXeXeXeXeXeXeXeXeXeXeXeXeXeXeXeXeXeXeXeXeXeXeXeXeXeXeXeXeXeXeXeXeXeXeXeXeXeXeXeXeXeXeXeXeXeXeXeXeXeXeXeXeXeXeXeXeXeXeXeX",
"eXeXeXeXeXeXeXeXeXeXeXeXeXeXeXeXeXeXeXeXeXeXeXeXeXeXeXeXeXeXeXeXeXeXeXeXeXeXeXeXeXeXeXeXeXeXeXeXeXeX      1 *.-.-.-.-.=.-.-.=.=.-.-.-.-.-.-.-.*.*.=.=.*.=.*.*.*.=.=.*.*.*.*.*.*.*.*.*.*.*.*.*.&.*.*.&.*.&.&.&.&.*.%.%.%.&.&.&.&.&.%.%.%.%.%.%.%.%.%.%.%.%.%.$.V , J E.>X>X>X>X>X>X2X6X6X6X6X6X6X6X6X6X6X6X6X6X7X9X0X0X0X0X0X0X0X0X0X0X0X0X0X0X0X0X0X0X0XqX9X6X6X7X6X6X7X9X0X0X0X0X0X0X0X7X2X6X0XqX7X6X6X7X9X0X0X0X0X0X0X0X0X0X0X0X0X0X0X0X0X0X0X0X0X9X7X6X6X6X6X2X2X1X1X2X6X6X6X2X1Xc.  : v v v g O     4 P Y R R T Y T T T ] ] 7     eXeXeXeXeXeXeXeXeXeXeXeXeXeXeXeXeXeXeXeXeXeXeXeXeXeXeXeXeXeXeXeXeXeXeXeXeXeXeXeXeXeXeXeXeXeXeXeXeXeXeXeXeXeXeXeXeXeXeXeXeXeXeXeXeXeXeXeXeXeXeXeXeXeXeXeXeXeXeXeXeXeXeXeXeXeXeXeXeXeXeXeXeXeXeXeXeXeXeXeXeXeXeXeXeXeXeXeXeXeXeXeXeXeX",
"eXeXeXeXeXeXeXeXeXeXeXeXeXeXeXeXeXeXeXeXeXeXeXeXeXeXeXeXeXeXeXeXeXeXeXeXeXeXeXeXeXeXeXeXeXeXeXeXeXeX      1 +.$.%.%.%.#.%.%.%.%.%.#.#.#.#.#.#.#.#.#.#.#.#.#.O.#.#.#.#.o.o.#.O.o.o.o.o.o.o.o.o.o.m o.o.m o.m m m m m m m m m m n m m m n m M m n n n n M M v M h O G E.>X>X>X>X>X>X1X6X6X6X6X6X6X6X2X2X6X6X6X7X7X0X0X0X0X0X0X0X0X0X0X0X0X0X0X0X0X0X0X0X0XqX7X6X6X6X6X6X7X0X0X0X0X0XqX9XqX0XqX0XqX7X6X6X6X7X9X0X0X0X0X0X0X0X0X0X0X0X0X0X0X0X0X0X0X0X0X7X6X6X6X6X2X>X'._._.].>X6X6X2X1Xc.  : v v v j O     4 P R R T R R T T Y [ 1.7     eXeXeXeXeXeXeXeXeXeXeXeXeXeXeXeXeXeXeXeXeXeXeXeXeXeXeXeXeXeXeXeXeXeXeXeXeXeXeXeXeXeXeXeXeXeXeXeXeXeXeXeXeXeXeXeXeXeXeXeXeXeXeXeXeXeXeXeXeXeXeXeXeXeXeXeXeXeXeXeXeXeXeXeXeXeXeXeXeXeXeXeXeXeXeXeXeXeXeXeXeXeXeXeXeXeXeXeXeXeXeXeXeXeX",
"eXeXeXeXeXeXeXeXeXeXeXeXeXeXeXeXeXeXeXeXeXeXeXeXeXeXeXeXeXeXeXeXeXeXeXeXeXeXeXeXeXeXeXeXeXeXeXeXeXeX      , n n n n M M n v v n M v v v v v v v v v v v v v v v v v v v v v v v v v v v v v v v v v v v v v v v v v v v v v v v v v v v M v v v v v v v v v v h > D E.>X>X>X>X>X>X2X6X6X6X6X4X1X[.'.].>X6X6X6X9X0X0X0X0X0X0X0X0X0X0X0X0X0X0X0X0X0X0X0X0X9X6X6X6X6X6X6X9X0X0X0X0X0X9X6X9X9X0X9X7X6X6X6X6X7X0X0X0X0X0X0X0X0X0X0X0X0X0X0X0X0X0X0X0X0XqX7X6X6X6X6X:XE.w.8.k.R._.>X6X2X1Xc.  : b v v j O     3 P T R T R T T R R R 1.r       eXeXeXeXeXeXeXeXeXeXeXeXeXeXeXeXeXeXeXeXeXeXeXeXeXeXeXeXeXeXeXeXeXeXeXeXeXeXeXeXeXeXeXeXeXeXeXeXeXeXeXeXeXeXeXeXeXeXeXeXeXeXeXeXeXeXeXeXeXeXeXeXeXeXeXeXeXeXeXeXeXeXeXeXeXeXeXeXeXeXeXeXeXeXeXeXeXeXeXeXeXeXeXeXeXeXeXeXeXeXeXeXeX",
"eXeXeXeXeXeXeXeXeXeXeXeXeXeXeXeXeXeXeXeXeXeXeXeXeXeXeXeXeXeXeXeXeXeXeXeXeXeXeXeXeXeXeXeXeXeXeXeXeXeX      : b v v v v v v v v v v v v v v v v M v v v v v v v v v v v v v v v v v v v v v v v v v v v v v v v v v v v v v v v v v v v v v v v v v v v v v v v h : D E.>X>X>X>X>X>X1X6X6X6X2X].R.l.x.E.!.].2X6X9X0X0X0X0X0X0X0X0X0X0X0X0X0X0X0X0X0X0X0X0X9X6X6X6X6X6X6X9X0X0X0X0XqX9X6X6X7X7X7X6X6X6X6X6X9X0X0X0X0X0X0X0X0X0X0X0X0X0X0X0X0X0X0X0X0X9X6X6X6X6X1XE.T o   4 q.E.'.2X2X1XR.o : v v v g O     3 P T Y T T R T Y R [ 8.G       eXeXeXeXeXeXeXeXeXeXeXeXeXeXeXeXeXeXeXeXeXeXeXeXeXeXeXeXeXeXeXeXeXeXeXeXeXeXeXeXeXeXeXeXeXeXeXeXeXeXeXeXeXeXeXeXeXeXeXeXeXeXeXeXeXeXeXeXeXeXeXeXeXeXeXeXeXeXeXeXeXeXeXeXeXeXeXeXeXeXeXeXeXeXeXeXeXeXeXeXeXeXeXeXeXeXeXeXeXeXeXeXeX",
"eXeXeXeXeXeXeXeXeXeXeXeXeXeXeXeXeXeXeXeXeXeXeXeXeXeXeXeXeXeXeXeXeXeXeXeXeXeXeXeXeXeXeXeXeXeXeXeXeXeX      , M v v v v v v v v v v v v v v v v v v v v v v v v v v v v v v v v v v v v v v v v v v v v v v v v v v v v v v v v v v v v v v v v v v v v v v v v h : D R.>X>X>X>X>X>X1X6X6X6X>Xx.D   . T c.).>X7X0X0X0X0X0X0X0X0X0X0X0X0X0X0X0X0X0X0X0X0XqX7X6X6X6X6X6X7X0X0X0X0X0XqX7X6X6X6X6X6X6X6X7X6X7X9X0X0X0X0X0X0X0X0X0X0X0X0X0X0X0X0X0X0X0X0X9X6X6X6X6X:Xr.        D x.).>X2X1XR.  : M v M g O     3 Y T T R R [ [ 1.1.1.9.E       eXeXeXeXeXeXeXeXeXeXeXeXeXeXeXeXeXeXeXeXeXeXeXeXeXeXeXeXeXeXeXeXeXeXeXeXeXeXeXeXeXeXeXeXeXeXeXeXeXeXeXeXeXeXeXeXeXeXeXeXeXeXeXeXeXeXeXeXeXeXeXeXeXeXeXeXeXeXeXeXeXeXeXeXeXeXeXeXeXeXeXeXeXeXeXeXeXeXeXeXeXeXeXeXeXeXeXeXeXeXeXeXeX",
"eXeXeXeXeXeXeXeXeXeXeXeXeXeXeXeXeXeXeXeXeXeXeXeXeXeXeXeXeXeXeXeXeXeXeXeXeXeXeXeXeXeXeXeXeXeXeXeXeXeX      : v v v v v v v v v v v v v v v v v v v v v v v v v v v v v v v v v v v v v v v v v v v v v v v v v v v v v v v v v v v v v v v v v v v v v v v v v h : 0 R.>X>X>X>X>X>X1X6X6X2X).Q       o <.!.[.7X0X0X0X0X0X0X0X0X0X0X0X0X0X0X0X0X0X0X0X0X9X6X6X7X6X6X6X9X0X0X0X0X0X9X6X6X6X6X6X6X6X6X6X6X7XqX0X0X0X0X0X0X0X0X0X0X0X0X0X0X0X0X0X0X0X9X7X6X6X6X6X:Xq.        8 l.).>X2X>XR.  - c v c j O     3 P T E <.1.7.7.7.8.8.8.<.      eXeXeXeXeXeXeXeXeXeXeXeXeXeXeXeXeXeXeXeXeXeXeXeXeXeXeXeXeXeXeXeXeXeXeXeXeXeXeXeXeXeXeXeXeXeXeXeXeXeXeXeXeXeXeXeXeXeXeXeXeXeXeXeXeXeXeXeXeXeXeXeXeXeXeXeXeXeXeXeXeXeXeXeXeXeXeXeXeXeXeXeXeXeXeXeXeXeXeXeXeXeXeXeXeXeXeXeXeXeXeXeXeX",
"eXeXeXeXeXeXeXeXeXeXeXeXeXeXeXeXeXeXeXeXeXeXeXeXeXeXeXeXeXeXeXeXeXeXeXeXeXeXeXeXeXeXeXeXeXeXeXeXeXeX      : v v v v v v v v v v v v v v v v v v v v v v v v v v v v b v v v v v v v v v v v M v v v v v v v v v v v v v v v v v v v b v v v v v v v v v v v v h : r R.>X>X>X>X>X>X1X6X6X1XQ.D         T Q.[.7X0X0X0X0X0X0X0X0X0X0X0X0X0X0X0X0X0X0X0X0X9X6X6X6X6X6X7X9X0X0X0X0X0X9X6X6X6X6X6X6X6X6X6X6X9X0X0X0X0X0X0X0X0X0X0X0X0X0X0X0X0X0X0X0X0X9X6X6X6X6X6X>Xx.3     . H M._.>X1X>Xc.  o : : > O       & Y [ 7.8.8.8.8.8.8.8.8.1.@     eXeXeXeXeXeXeXeXeXeXeXeXeXeXeXeXeXeXeXeXeXeXeXeXeXeXeXeXeXeXeXeXeXeXeXeXeXeXeXeXeXeXeXeXeXeXeXeXeXeXeXeXeXeXeXeXeXeXeXeXeXeXeXeXeXeXeXeXeXeXeXeXeXeXeXeXeXeXeXeXeXeXeXeXeXeXeXeXeXeXeXeXeXeXeXeXeXeXeXeXeXeXeXeXeXeXeXeXeXeXeXeXeX",
"eXeXeXeXeXeXeXeXeXeXeXeXeXeXeXeXeXeXeXeXeXeXeXeXeXeXeXeXeXeXeXeXeXeXeXeXeXeXeXeXeXeXeXeXeXeXeXeXeXeX      : M v v v v v v v b M v v b b M v v v v v v v v v v v v v b b b v b v v v b b v b b b v v b c v b b b b b b b b b b b v v b b b b c b b b b c c b c h , 8 c.>X>X>X>X>X>X>X2X6X2X).Q       o { Q.].qX0X0X0X0X0X0X0X0X0X0X0X0X0X0X0X0X0X0X0XqX7X6X6X6X6X6X7XqX0X0X0X0XqX7X6X6X6X6X6X6X6X6X6X6X9X0X0X0X0X0X0X0X0X0X0X0X0X0X0X0X0X0X0X0X0X9X6X6X6X6X6X2X).q.D r Y k.!.[.1X>X].k.                  & [ 7.8.8.8.8.8.8.8.8.8.<.7     eXeXeXeXeXeXeXeXeXeXeXeXeXeXeXeXeXeXeXeXeXeXeXeXeXeXeXeXeXeXeXeXeXeXeXeXeXeXeXeXeXeXeXeXeXeXeXeXeXeXeXeXeXeXeXeXeXeXeXeXeXeXeXeXeXeXeXeXeXeXeXeXeXeXeXeXeXeXeXeXeXeXeXeXeXeXeXeXeXeXeXeXeXeXeXeXeXeXeXeXeXeXeXeXeXeXeXeXeXeXeXeXeX",
"eXeXeXeXeXeXeXeXeXeXeXeXeXeXeXeXeXeXeXeXeXeXeXeXeXeXeXeXeXeXeXeXeXeXeXeXeXeXeXeXeXeXeXeXeXeXeXeXeXeX      - c c b c c b b b b b b b b b b c c k c k k k k h j j g g g g g f d f a p f p p 1 < < < < 1 < < 2 , , , : , > : > - - O : O O O O O O O O o o o o   o   4 z.>X>X>X>X>X>X>X1X6X6X:Xl.7 @ ; P x.).1X0X0X0X0X0X0X0X0X0X0X0X0X0X0X0X0X0X0X0X0X9X7X6X6X6X6X7X7X0X0X0X0X0X9X7X6X6X6X6X6X6X6X6X6X7XqX0X0X0X0X0X0X0X0X0X0X0X0X0X0X0X0X0X0X0XqX7X7X6X6X6X6X6X1X).c.l.c.!.].>X1X>X_.W                   4 1.8.8.8.8.8.8.8.8.8.8.3.S       eXeXeXeXeXeXeXeXeXeXeXeXeXeXeXeXeXeXeXeXeXeXeXeXeXeXeXeXeXeXeXeXeXeXeXeXeXeXeXeXeXeXeXeXeXeXeXeXeXeXeXeXeXeXeXeXeXeXeXeXeXeXeXeXeXeXeXeXeXeXeXeXeXeXeXeXeXeXeXeXeXeXeXeXeXeXeXeXeXeXeXeXeXeXeXeXeXeXeXeXeXeXeXeXeXeXeXeXeXeXeXeX",
"eXeXeXeXeXeXeXeXeXeXeXeXeXeXeXeXeXeXeXeXeXeXeXeXeXeXeXeXeXeXeXeXeXeXeXeXeXeXeXeXeXeXeXeXeXeXeXeXeXeX        O O o O o o o                                                                                                                                         o 6.>X>X>X>X>X>X>X>X2X6X2X[.R.e.r.R.).].7X0X0X0X0X0X0X0X0X0X0X0X0X0X0X0X0X0X0X0X0X9X6X6X6X6X6X7X9X0X0X0X0X0X9X6X6X6X6X6X6X6X6X6X6X9X0X0X0X0X0X0X0X0X0X0X0X0X0X0X0X0X0X0X0X0X9X6X6X6X6X6X6X6X6X2X:X].].:X>X1X>X,XE.4   O O         + 4 S 1.8.8.8.8.8.8.8.8.8.8.4.F       eXeXeXeXeXeXeXeXeXeXeXeXeXeXeXeXeXeXeXeXeXeXeXeXeXeXeXeXeXeXeXeXeXeXeXeXeXeXeXeXeXeXeXeXeXeXeXeXeXeXeXeXeXeXeXeXeXeXeXeXeXeXeXeXeXeXeXeXeXeXeXeXeXeXeXeXeXeXeXeXeXeXeXeXeXeXeXeXeXeXeXeXeXeXeXeXeXeXeXeXeXeXeXeXeXeXeXeXeXeXeXeX",
"eXeXeXeXeXeXeXeXeXeXeXeXeXeXeXeXeXeXeXeXeXeXeXeXeXeXeXeXeXeXeXeXeXeXeXeXeXeXeXeXeXeXeXeXeXeXeXeXeXeX                                                                                                                                                                H ).>X>X>X>X>X>X>X>X2X6X2X>X'.)._.>X6XqX0X0X0X0X0X0X0X0X0X0X0X0X0X0X0X0X0X0X0XqX7X6X6X6X6X6X6XqX0X0X0X0XqX7X6X6X6X6X6X6X6X6X6X6X9X0X0X0X0X0X0X0X0X0X0X0X0X0X0X0X0X0X0X0X0X9X6X6X6X6X6X6X6X6X6X6X2X2X2X1X>X>X'.7.  , g < O     + F ] <.7.8.8.8.8.8.8.8.8.8.8.8.G .     eXeXeXeXeXeXeXeXeXeXeXeXeXeXeXeXeXeXeXeXeXeXeXeXeXeXeXeXeXeXeXeXeXeXeXeXeXeXeXeXeXeXeXeXeXeXeXeXeXeXeXeXeXeXeXeXeXeXeXeXeXeXeXeXeXeXeXeXeXeXeXeXeXeXeXeXeXeXeXeXeXeXeXeXeXeXeXeXeXeXeXeXeXeXeXeXeXeXeXeXeXeXeXeXeXeXeXeXeXeXeXeX",
"eXeXeXeXeXeXeXeXeXeXeXeXeXeXeXeXeXeXeXeXeXeXeXeXeXeXeXeXeXeXeXeXeXeXeXeXeXeXeXeXeXeXeXeXeXeXeXeXeXeX                                                              o         o   o   o o o o o o o o o o o o o o O O O O O O O - - O - - - - - - - - : : : : : : - o @ r.>X>X>X>X>X>X>X>X>X1X4X6X6X6X6X6X7X0X0X0X0X0X0X0X0X0X0X0X0X0X0X0X0X0X0XqX0X9X6X6X6X6X6X6X7X0X0X0X0XqX9X6X6X6X6X6X6X2X6X6X6X6X9X0X0X0X0XqX0XqX0XqXqXqXqX9XqX9X9X9X9X7X7X6X2X2X2X2X2X2X2X3X2X1X1X1X>X>X>X].l.3 O h v h O     + R 7.8.8.8.8.8.8.8.8.8.8.8.8.8.Y @     eXeXeXeXeXeXeXeXeXeXeXeXeXeXeXeXeXeXeXeXeXeXeXeXeXeXeXeXeXeXeXeXeXeXeXeXeXeXeXeXeXeXeXeXeXeXeXeXeXeXeXeXeXeXeXeXeXeXeXeXeXeXeXeXeXeXeXeXeXeXeXeXeXeXeXeXeXeXeXeXeXeXeXeXeXeXeXeXeXeXeXeXeXeXeXeXeXeXeXeXeXeXeXeXeXeXeXeXeXeXeXeX",
"eXeXeXeXeXeXeXeXeXeXeXeXeXeXeXeXeXeXeXeXeXeXeXeXeXeXeXeXeXeXeXeXeXeXeXeXeXeXeXeXeXeXeXeXeXeXeXeXeXeX                  : : : : : : : : : : , : : : : : : : : : : : , , : , , , : , , , , , , , < < < < < < < p d d g g g h g h g h h h h h h h x x h x x x x g , O     D Q.>X>X>X>X>X>X>X>X>X>X1X2X2X2X2X6X9X7X9X7X7X7X7X7X7X7X7X6X6X6X6X6X6X6X6X6X2X1X2X1X2X1X1X1X2X2X2X2X2X1X1X1X>X1X>X>X1X>X>X>X>X>X1X>X>X>X>X>X>X>X>X>X>X>X>X>X>X>X>X>X>X>X>X>X>X>X>X>X>X>X>X>X>X>X>X>X>X].c.z   p v v x :     @ E 7.8.8.8.8.8.8.8.8.8.8.8.8.8.E @     eXeXeXeXeXeXeXeXeXeXeXeXeXeXeXeXeXeXeXeXeXeXeXeXeXeXeXeXeXeXeXeXeXeXeXeXeXeXeXeXeXeXeXeXeXeXeXeXeXeXeXeXeXeXeXeXeXeXeXeXeXeXeXeXeXeXeXeXeXeXeXeXeXeXeXeXeXeXeXeXeXeXeXeXeXeXeXeXeXeXeXeXeXeXeXeXeXeXeXeXeXeXeXeXeXeXeXeXeXeXeXeX",
"eXeXeXeXeXeXeXeXeXeXeXeXeXeXeXeXeXeXeXeXeXeXeXeXeXeXeXeXeXeXeXeXeXeXeXeXeXeXeXeXeXeXeXeXeXeXeXeXeXeX              O p x x x b v x v v v v v x h g g g g g g g g g g g g g g g g g g g g g g g g g g g h h x v v v v M v v v v v v v v v v v v v v v v x d - o           ! _.>X>X>X>X>X>X>X>X>X>X>X>X>X>X>X>X>X>X>X>X>X>X>X>X>X>X>X>X>X>X>X>X>X>X>X>X>X>X>X>X>X>X>X>X>X>X>X>X>X>X>X>X>X>X>X>X>X>X>X>X>X>X>X>X>X>X>X>X>X>X>X>X>X>X>X>X>X>X>X>X>X>X>X>X>X>X>X>X>X>X>X>X>X>X:X_.z.r   < x v v h :     + E 8.8.8.8.8.8.8.8.8.8.8.8.8.7.1.+     eXeXeXeXeXeXeXeXeXeXeXeXeXeXeXeXeXeXeXeXeXeXeXeXeXeXeXeXeXeXeXeXeXeXeXeXeXeXeXeXeXeXeXeXeXeXeXeXeXeXeXeXeXeXeXeXeXeXeXeXeXeXeXeXeXeXeXeXeXeXeXeXeXeXeXeXeXeXeXeXeXeXeXeXeXeXeXeXeXeXeXeXeXeXeXeXeXeXeXeXeXeXeXeXeXeXeXeXeXeXeXeX",
"eXeXeXeXeXeXeXeXeXeXeXeXeXeXeXeXeXeXeXeXeXeXeXeXeXeXeXeXeXeXeXeXeXeXeXeXeXeXeXeXeXeXeXeXeXeXeXeX              , g x v v v v v v v v v v v v v v h g g g g g g g g g g g g g g g g g g g g g g g g h h h x v v v v v v v v v v v v v v v v v v v v x p - o                 H !.>X>X>X>X>X>X>X>X>X>X>X>X>X>X>X>X>X>X>X>X>X>X>X>X>X>X>X>X>X>X>X>X>X>X>X>X>X>X>X>X>X>X>X>X>X>X>X>X>X>X>X>X>X>X>X>X>X>X>X>X>X>X>X>X>X>X>X>X>X>X>X:X>X>X>X:X>X>X:X>X:X:X:X:X:X:X:X:X:X:X:X'.!.c.2.> o < h v v v x :     + E 8.8.8.7.8.8.8.8.8.8.8.8.8.7.4.      eXeXeXeXeXeXeXeXeXeXeXeXeXeXeXeXeXeXeXeXeXeXeXeXeXeXeXeXeXeXeXeXeXeXeXeXeXeXeXeXeXeXeXeXeXeXeXeXeXeXeXeXeXeXeXeXeXeXeXeXeXeXeXeXeXeXeXeXeXeXeXeXeXeXeXeXeXeXeXeXeXeXeXeXeXeXeXeXeXeXeXeXeXeXeXeXeXeXeXeXeXeXeXeXeXeXeXeXeXeXeXeX",
"eXeXeXeXeXeXeXeXeXeXeXeXeXeXeXeXeXeXeXeXeXeXeXeXeXeXeXeXeXeXeXeXeXeXeXeXeXeXeXeXeXeXeXeXeXeXeX            , d x v v v v v v v v v v v v v v v v x h g g g g g g g g g g g g g g g g g g g g g g g h b v v v v v v v v v v v v v v v v v v v v v d -                 + $ @   4 l.].:X:X>X:X,X>X>X:X>X:X>X:X>X:X:X:X:X:X:X:X:X:X:X:X:X:X:X:X].:X.X].:X:X]..X].].].].:X]..X].].].].].].].].[.[.].[.[.].[.[.'.[.[.'.'._._._._.).).!.!.!.Q.Q.Q.E.E.E.R.R.R.c.c.c.x.x.l.z.q.Q 3   > < x v v v v h -     @ R 8.8.8.8.8.8.8.8.8.8.8.8.8.7.]       eXeXeXeXeXeXeXeXeXeXeXeXeXeXeXeXeXeXeXeXeXeXeXeXeXeXeXeXeXeXeXeXeXeXeXeXeXeXeXeXeXeXeXeXeXeXeXeXeXeXeXeXeXeXeXeXeXeXeXeXeXeXeXeXeXeXeXeXeXeXeXeXeXeXeXeXeXeXeXeXeXeXeXeXeXeXeXeXeXeXeXeXeXeXeXeXeXeXeXeXeXeXeXeXeXeXeXeXeXeXeXeX",
"eXeXeXeXeXeXeXeXeXeXeXeXeXeXeXeXeXeXeXeXeXeXeXeXeXeXeXeXeXeXeXeXeXeXeXeXeXeXeXeXeXeXeXeXeXeX          O p d x v v v v v v v v v v v v v v v v v v v g g g g g g g g g g g g g g g g g g g g h h v v v v v v v v v v v v v v v v v v v v v v h , o             O 8 H ! Q H 4     5 5.c.!.).).!.!.!.Q.Q.E.E.E.E.R.R.c.c.c.x.x.l.l.l.z.z.k.r.r.r.r.q.q.q.q.4.6.2.{ @.W Q Q T T Y G D J D D 8 8 7 5 3 * @ + + .                     #     o                                   o d b v v v v v x -     + R 8.8.8.8.8.8.8.8.8.8.8.8.8.4.H       eXeXeXeXeXeXeXeXeXeXeXeXeXeXeXeXeXeXeXeXeXeXeXeXeXeXeXeXeXeXeXeXeXeXeXeXeXeXeXeXeXeXeXeXeXeXeXeXeXeXeXeXeXeXeXeXeXeXeXeXeXeXeXeXeXeXeXeXeXeXeXeXeXeXeXeXeXeXeXeXeXeXeXeXeXeXeXeXeXeXeXeXeXeXeXeXeXeXeXeXeXeXeXeXeXeXeXeXeXeXeXeX",
"eXeXeXeXeXeXeXeXeXeXeXeXeXeXeXeXeXeXeXeXeXeXeXeXeXeXeXeXeXeXeXeXeXeXeXeXeXeXeXeXeXeXeXeXeX          : p g x v v v v v v v v v v v v v v v v v v v v x g g g g g g g g g g g g g g g g g g h x v v v v v v v v v v v v v v v v v v v v v v d O             $ D H Q T U Q Q T D $                                   X # # + X X X X X X X @ @ @ @ @ @ X X @ $ $ $ $ $ $ $ $ $ * $ * * * * * * * 4 * 4 4 = 4 * 6 = 6 0 t t y K K K U U U U =   + > 4 * 4 4 4 4 5 4 5 4       o < v v v v v v x :     . R 8.8.8.8.8.8.8.8.8.8.8.8.8.<.7       eXeXeXeXeXeXeXeXeXeXeXeXeXeXeXeXeXeXeXeXeXeXeXeXeXeXeXeXeXeXeXeXeXeXeXeXeXeXeXeXeXeXeXeXeXeXeXeXeXeXeXeXeXeXeXeXeXeXeXeXeXeXeXeXeXeXeXeXeXeXeXeXeXeXeXeXeXeXeXeXeXeXeXeXeXeXeXeXeXeXeXeXeXeXeXeXeXeXeXeXeXeXeXeXeXeXeXeXeXeXeXeX",
"eXeXeXeXeXeXeXeXeXeXeXeXeXeXeXeXeXeXeXeXeXeXeXeXeXeXeXeXeXeXeXeXeXeXeXeXeXeXeXeXeXeXeXeX        o < g g g v v v v v v v v v v v v v v v v v v v v v v h g g g g g g g g g g g g g g g g h x v v v v v v v v v v v v v v v v v v v v v x < o           + 5 D ! U U ! T T ! Q T ! J 8 > @ O + @ @ @ @ @ @ @ @ X   @ 0 } i.i.s.d.d.f.g.h.n.n.n.n.C.C.C.Z.A.A.D.S.S.S.G.G.H./.}.|.|.|. X XXXoXoX+X#X%X%X%X&X&X=X*X*X*X*X*X*X*X*X*X*X*X*X&XS.0 4 J ! U Q Q ! ! U Q Q T J 4       O h v v v v v x :     . R 8.8.8.8.8.8.8.8.8.8.8.8.7.P o     eXeXeXeXeXeXeXeXeXeXeXeXeXeXeXeXeXeXeXeXeXeXeXeXeXeXeXeXeXeXeXeXeXeXeXeXeXeXeXeXeXeXeXeXeXeXeXeXeXeXeXeXeXeXeXeXeXeXeXeXeXeXeXeXeXeXeXeXeXeXeXeXeXeXeXeXeXeXeXeXeXeXeXeXeXeXeXeXeXeXeXeXeXeXeXeXeXeXeXeXeXeXeXeXeXeXeXeXeXeXeXeXeX",
"eXeXeXeXeXeXeXeXeXeXeXeXeXeXeXeXeXeXeXeXeXeXeXeXeXeXeXeXeXeXeXeXeXeXeXeXeXeXeXeXeXeXeX        o < d g g h v v v v v v v v v v v M v v v v v v v v v v v h g g g g g g g g g g g g g g h v v v v v v v v v v v v v v v v v v v v v v x , o         o 4 5 0 ! Q Q ! Q Q ! ! U Q U Q Q Y T U Q T ! ! T Q Q T T D > X t n. X&X*X*X*X*X*X*X*X*X*X*X*X*X*X*X*X*X*X*X*X*X*X*X*X*X*X*X*X*X*X*X*X*X*X*X*X*X*X*X*X*X*X*X*X*X*X*X*X*X*X*X*X*X&XS.8 $ H U Q ! ! Q U Q Q ! T ! T J #       < v v v v v x -     . Y 8.8.8.8.8.8.8.8.8.8.8.7.Y 4       eXeXeXeXeXeXeXeXeXeXeXeXeXeXeXeXeXeXeXeXeXeXeXeXeXeXeXeXeXeXeXeXeXeXeXeXeXeXeXeXeXeXeXeXeXeXeXeXeXeXeXeXeXeXeXeXeXeXeXeXeXeXeXeXeXeXeXeXeXeXeXeXeXeXeXeXeXeXeXeXeXeXeXeXeXeXeXeXeXeXeXeXeXeXeXeXeXeXeXeXeXeXeXeXeXeXeXeXeXeXeXeXeX",
"eXeXeXeXeXeXeXeXeXeXeXeXeXeXeXeXeXeXeXeXeXeXeXeXeXeXeXeXeXeXeXeXeXeXeXeXeXeXeXeXeXeX        o < g g g h v v v v v v v v v v v v v v v v v v v v v v v v x g g g g g g g g g g g g h x v v v v v v v v v v v v v v v v v v v v v v x : o         O 7 8 8 z Y U T Q Q U Q Q Q Q T ! U Q Y ! Q ! Q Q Q U ! T Q ! ! 8 @ # { D.+X*X*X*X*X*X*X*X*X*X*X*X*X*X*X*X*X*X*X*X*X*X*X*X*X*X*X*X*X*X*X*X*X*X*X*X*X*X*X*X*X*X*X*X*X*X*X*X*X*X*X&XG.q $ H Q U Q T Q Q Q Q ! U ! ! U ! 6       O h v v v v x :     . R 8.8.8.8.8.8.7.8.8.7.<.Y 3       eXeXeXeXeXeXeXeXeXeXeXeXeXeXeXeXeXeXeXeXeXeXeXeXeXeXeXeXeXeXeXeXeXeXeXeXeXeXeXeXeXeXeXeXeXeXeXeXeXeXeXeXeXeXeXeXeXeXeXeXeXeXeXeXeXeXeXeXeXeXeXeXeXeXeXeXeXeXeXeXeXeXeXeXeXeXeXeXeXeXeXeXeXeXeXeXeXeXeXeXeXeXeXeXeXeXeXeXeXeXeXeXeXeX",
"eXeXeXeXeXeXeXeXeXeXeXeXeXeXeXeXeXeXeXeXeXeXeXeXeXeXeXeXeXeXeXeXeXeXeXeXeXeXeXeXeX          < g g g g h v v v v v v v v v v v v v v v v v v v v v v v v v h g g g g g g g g g g g x v v v v v v v v v v v v v v v v v v v v v v x :           & 9 8 8 8 F R T T ! ! U Q Q ! U ! Q Q Q U U Q T Q Q U Q Q ! U U ! T J 4 + 9 s./.&X*X*X*X*X*X*X*X*X*X*X*X*X*X*X*X*X*X*X*X*X*X*X*X*X*X*X*X*X*X*X*X*X*X*X*X*X*X*X*X*X*X*X*X*X*X*X*X=XJ.6 $ J Q T ! Q U Q ! Q U T Q Q Q Q T H o       < v v v v x -     . Y 7.7.3.3.7.7.] T P F r @         eXeXeXeXeXeXeXeXeXeXeXeXeXeXeXeXeXeXeXeXeXeXeXeXeXeXeXeXeXeXeXeXeXeXeXeXeXeXeXeXeXeXeXeXeXeXeXeXeXeXeXeXeXeXeXeXeXeXeXeXeXeXeXeXeXeXeXeXeXeXeXeXeXeXeXeXeXeXeXeXeXeXeXeXeXeXeXeXeXeXeXeXeXeXeXeXeXeXeXeXeXeXeXeXeXeXeXeXeXeXeXeXeXeX",
"eXeXeXeXeXeXeXeXeXeXeXeXeXeXeXeXeXeXeXeXeXeXeXeXeXeXeXeXeXeXeXeXeXeXeXeXeXeXeXeXeX        < g g g g g b v v v v v v v v v v v v v v v v v v v v v v v v v x g g g g g g g g g g x v v v v v v v v v v v v v v v v v v v v v v x <           4 7 8 8 8 8 H U T U Q U Q ! Q Q ! Q Q Q Q U Q ! U ! Q Q Q H Q Q U Q U Q ! q @ # K C.XX*X*X*X*X*X*X*X*X*X*X*X*X*X*X*X*X*X*X*X*X*X*X*X*X*X*X*X*X*X*X*X*X*X*X*X*X*X*X*X*X*X*X*X*X*X&X/.0 $ H ! Q T ! U ! T Q U ! Q T ! ! Q Q U >       O v v v v x :       S P P S 8 & o + @ +             eXeXeXeXeXeXeXeXeXeXeXeXeXeXeXeXeXeXeXeXeXeXeXeXeXeXeXeXeXeXeXeXeXeXeXeXeXeXeXeXeXeXeXeXeXeXeXeXeXeXeXeXeXeXeXeXeXeXeXeXeXeXeXeXeXeXeXeXeXeXeXeXeXeXeXeXeXeXeXeXeXeXeXeXeXeXeXeXeXeXeXeXeXeXeXeXeXeXeXeXeXeXeXeXeXeXeXeXeXeXeXeXeXeXeX",
"eXeXeXeXeXeXeXeXeXeXeXeXeXeXeXeXeXeXeXeXeXeXeXeXeXeXeXeXeXeXeXeXeXeXeXeXeXeXeXeX        : g g g g g h v v v v v v v v v v v v v v v v v v v v v v v v v v v h g g g g g g g h h v v v v v v v v v v v v v v v v v v v v v v v p o         4 8 8 8 8 8 0 ! Q Q Q Q ! U T ! U U Q U ! H Q U Q Q Q U ! Q Q T Q ! Q ! T T Q H 8 @ @ } D.@X*X*X*X*X*X*X*X*X*X*X*X*X*X*X*X*X*X*X*X*X*X*X*X*X*X*X*X*X*X*X*X*X*X*X*X*X*X*X*X*X*X*X=X/.4 $ J Q Q U ! Q Q Q ! Q ! Q ! Q U Q T Y ! 8         d v v v v -       .                             eXeXeXeXeXeXeXeXeXeXeXeXeXeXeXeXeXeXeXeXeXeXeXeXeXeXeXeXeXeXeXeXeXeXeXeXeXeXeXeXeXeXeXeXeXeXeXeXeXeXeXeXeXeXeXeXeXeXeXeXeXeXeXeXeXeXeXeXeXeXeXeXeXeXeXeXeXeXeXeXeXeXeXeXeXeXeXeXeXeXeXeXeXeXeXeXeXeXeXeXeXeXeXeXeXeXeXeXeXeXeXeXeXeXeXeX",
"eXeXeXeXeXeXeXeXeXeXeXeXeXeXeXeXeXeXeXeXeXeXeXeXeXeXeXeXeXeXeXeXeXeXeXeXeXeXeX        O d g g g g g h v v v v v v M v v v v v v v M v v v v v v v v v v v v x g g g g g g g x v v v v v v v v v v v v v v v v v v v v v v v g O         $ 8 8 8 7 8 6 8 z H Y Y Q U ! ! Q Q U Q ! Q U Q ! ! T ! Q ! U ! U ! ! U Q ! ! Q ! U D 4 + t f.|.*X*X*X*X*X*X*X*X*X*X*X*X*X*X*X*X*X*X*X*X*X*X*X*X*X*X*X*X*X*X*X*X*X*X*X*X*X*X*X*X=X}.6 @ J T ! Q ! Q Q Q T ! Q Q Q U ! Q U ! ! J 8 +       , v v v x O                                   eXeXeXeXeXeXeXeXeXeXeXeXeXeXeXeXeXeXeXeXeXeXeXeXeXeXeXeXeXeXeXeXeXeXeXeXeXeXeXeXeXeXeXeXeXeXeXeXeXeXeXeXeXeXeXeXeXeXeXeXeXeXeXeXeXeXeXeXeXeXeXeXeXeXeXeXeXeXeXeXeXeXeXeXeXeXeXeXeXeXeXeXeXeXeXeXeXeXeXeXeXeXeXeXeXeXeXeXeXeXeXeXeXeXeXeXeX",
"eXeXeXeXeXeXeXeXeXeXeXeXeXeXeXeXeXeXeXeXeXeXeXeXeXeXeXeXeXeXeXeXeXeXeXeXeXeXeX        p g g g g g g x v v v v v v v v v v v v v v v v v v v v v v v v v v v x h g g g g g h v v v v v v v v v v v v v v v v v v v v v v v x O         o 7 8 8 8 8 8 8 8 8 8 r z H Q Q Q ! T ! Q Q T ! Q Q Q Q U ! U Q Q ! Q Q Q Q T U Q T Q T ! 8 & . U C.oX*X*X*X*X*X*X*X*X*X*X*X*X*X*X*X*X*X*X*X*X*X*X*X*X*X*X*X*X*X*X*X*X*X*X*X*X*X=X}.6 @ H Q T Q ! U Q ! U Q Q ! U Q U Y T ! J D 8 8 4       O x v v v -               .               eXeXeXeXeXeXeXeXeXeXeXeXeXeXeXeXeXeXeXeXeXeXeXeXeXeXeXeXeXeXeXeXeXeXeXeXeXeXeXeXeXeXeXeXeXeXeXeXeXeXeXeXeXeXeXeXeXeXeXeXeXeXeXeXeXeXeXeXeXeXeXeXeXeXeXeXeXeXeXeXeXeXeXeXeXeXeXeXeXeXeXeXeXeXeXeXeXeXeXeXeXeXeXeXeXeXeXeXeXeXeXeXeXeXeXeXeXeXeX",
"eXeXeXeXeXeXeXeXeXeXeXeXeXeXeXeXeXeXeXeXeXeXeXeXeXeXeXeXeXeXeXeXeXeXeXeXeXeX        : g g g g g g g v v v v v v v v v v v v v v v v v v v v v v v v v v v v v h g g g g h v v v v v v v v v v v v v v v v v v v v v v v v <           5 7 8 8 8 6 8 8 8 8 8 8 8 8 z J ! Q Q Y T Q Q Q Q Q Q Q T Q ! Q Q ! Q Q ! Q T Q U ! T Q U Q J 9 @ $ | S.&X*X*X*X*X*X*X*X*X*X*X*X*X*X*X*X*X*X*X*X*X*X*X*X*X*X*X*X*X*X*X*X*X*X*X=X|.= @ H ! Q Q T Q U Q U ! Q U ! ! U ! T H D z 8 7 8 7         g v v v O       4 8 S G Y R 4     eXeXeXeXeXeXeXeXeXeXeXeXeXeXeXeXeXeXeXeXeXeXeXeXeXeXeXeXeXeXeXeXeXeXeXeXeXeXeXeXeXeXeXeXeXeXeXeXeXeXeXeXeXeXeXeXeXeXeXeXeXeXeXeXeXeXeXeXeXeXeXeXeXeXeXeXeXeXeXeXeXeXeXeXeXeXeXeXeXeXeXeXeXeXeXeXeXeXeXeXeXeXeXeXeXeXeXeXeXeXeXeXeXeXeXeXeXeXeXeXeXeX",
"eXeXeXeXeXeXeXeXeXeXeXeXeXeXeXeXeXeXeXeXeXeXeXeXeXeXeXeXeXeXeXeXeXeXeXeXeXeX        d g g g g g g h v v v v v v v v v v v v v v v v v v v v v v v v v v v v v x g g g h x v v v v v v v v v v v v v v v v v v v v v v v h o         @ r 8 8 8 8 7 8 8 8 8 7 8 8 8 8 8 8 0 H U T ! ! U ! U ! U ! Q U T ! U Q ! U Q Q Q Q Q ! Q ! T Q ! D * o K #X*X*X*X*X*X*X*X*X*X*X*X*X*X*X*X*X*X*X*X*X*X*X*X*X*X*X*X*X*X*X*X*X*X*XXX4 @ H T ! Q U Q ! ! Q Q ! Q Q Q Q Q ! G t 7 9 8 6 8 7 X       p v v b O       R 8.e.e.e.4.@   eXeXeXeXeXeXeXeXeXeXeXeXeXeXeXeXeXeXeXeXeXeXeXeXeXeXeXeXeXeXeXeXeXeXeXeXeXeXeXeXeXeXeXeXeXeXeXeXeXeXeXeXeXeXeXeXeXeXeXeXeXeXeXeXeXeXeXeXeXeXeXeXeXeXeXeXeXeXeXeXeXeXeXeXeXeXeXeXeXeXeXeXeXeXeXeXeXeXeXeXeXeXeXeXeXeXeXeXeXeXeXeXeXeXeXeXeXeXeXeXeXeXeX",
"eXeXeXeXeXeXeXeXeXeXeXeXeXeXeXeXeXeXeXeXeXeXeXeXeXeXeXeXeXeXeXeXeXeXeXeXeX        , g g g g g g g h v v v v v v v v v v v v v v v v v v v M v v v v v v v v v v g g g x v v v v v v v v v v v v v v v v v v v v v v v v <           o @ 9 8 8 8 8 9 8 8 8 6 8 8 6 7 8 8 7 8 8 z H Q Q U ! Q Q Q U Q U Q Q Q Q Q U ! T ! T Q Q U U ! Q ! !   % @X*X*X*X*X*X*X*X*X*X*X*X*X*X*X*X*X*X*X*X*X*X*X*X*X*X*X*X*X*X*X*X*X*X*XA.  H T Q Q Q Q Q U T ! Q Q Y U T ! H z 6 8 8 8 8 8 8 8 @       : b v v o       4.e.e.e.e.<.    eXeXeXeXeXeXeXeXeXeXeXeXeXeXeXeXeXeXeXeXeXeXeXeXeXeXeXeXeXeXeXeXeXeXeXeXeXeXeXeXeXeXeXeXeXeXeXeXeXeXeXeXeXeXeXeXeXeXeXeXeXeXeXeXeXeXeXeXeXeXeXeXeXeXeXeXeXeXeXeXeXeXeXeXeXeXeXeXeXeXeXeXeXeXeXeXeXeXeXeXeXeXeXeXeXeXeXeXeXeXeXeXeXeXeXeXeXeXeXeXeXeXeX",
"eXeXeXeXeXeXeXeXeXeXeXeXeXeXeXeXeXeXeXeXeXeXeXeXeXeXeXeXeXeXeXeXeXeXeXeXeX        g g g g g g g g x v v v v v v v v v v v v v v v v v v v v v v v v v v v v v v h g h v v v v v v v v v v v v v v v v v v v v v v v v v o       f.V.{ @ o . & 7 8 8 8 8 8 8 8 8 7 8 9 8 8 8 7 8 7 0 D H Q ! ! U ! Q T ! U Q ! U ! Q Q U Q ! Q ! ! Q Q U !   K *X*X*X*X*X*X*X*X*X*X*X*X*X*X*X*X*X*X*X*X*X*X*X*X*X*X*X*X*X*X*X*X*X*X*X|.X T Q U ! U ! Q ! T Q ! U Q T J J 8 8 8 8 8 8 8 8 8 8 @       o v v v o       8.e.e.e.0.R     eXeXeXeXeXeXeXeXeXeXeXeXeXeXeXeXeXeXeXeXeXeXeXeXeXeXeXeXeXeXeXeXeXeXeXeXeXeXeXeXeXeXeXeXeXeXeXeXeXeXeXeXeXeXeXeXeXeXeXeXeXeXeXeXeXeXeXeXeXeXeXeXeXeXeXeXeXeXeXeXeXeXeXeXeXeXeXeXeXeXeXeXeXeXeXeXeXeXeXeXeXeXeXeXeXeXeXeXeXeXeXeXeXeXeXeXeXeXeXeXeXeXeX",
"eXeXeXeXeXeXeXeXeXeXeXeXeXeXeXeXeXeXeXeXeXeXeXeXeXeXeXeXeXeXeXeXeXeXeXeXeX      : g g g g g g g g x v v v v v v v v v v v v v v v v v v v v v v v v v v v v v v h h v v v v v v v v v v v v v v v v v v v v v v v v v p       0 oX&XOX/.h.I . . o 4 8 8 7 8 8 8 8 8 8 8 8 8 6 8 8 8 9 8 D J H Q Q Q T Q U ! Y ! T T ! U U Q U ! ! U ! Q J   i.=X*X*X*X*X*X*X*X*X*X*X*X*X*X*X*X*X*X*X*X*X*X*X*X*X*X*X*X*X*X*X*X*X*X*X@X# U Q Q U Q Q Q T ! U Q U T J r 8 8 7 8 8 8 8 6 8 4 $ 9         x v v         0.e.e.e.3.S     eXeXeXeXeXeXeXeXeXeXeXeXeXeXeXeXeXeXeXeXeXeXeXeXeXeXeXeXeXeXeXeXeXeXeXeXeXeXeXeXeXeXeXeXeXeXeXeXeXeXeXeXeXeXeXeXeXeXeXeXeXeXeXeXeXeXeXeXeXeXeXeXeXeXeXeXeXeXeXeXeXeXeXeXeXeXeXeXeXeXeXeXeXeXeXeXeXeXeXeXeXeXeXeXeXeXeXeXeXeXeXeXeXeXeXeXeXeXeXeXeXeXeX",
"eXeXeXeXeXeXeXeXeXeXeXeXeXeXeXeXeXeXeXeXeXeXeXeXeXeXeXeXeXeXeXeXeXeXeXeX        d g g g g g g g g x v v v v v v v v v v v v v v v v v v v v v v v v v v v v v v x x v v v v v v v v v v v v v v v v v v v v v v v v v O       f.=X*X*X*X%XOXG.s.0 o o # 6 8 8 7 8 8 8 8 8 8 8 8 8 8 8 8 8 8 8 D J J ! Q Q Q T T ! ! Q Q ! Q ! Q Q Q Q T 8   Z.=X*X*X*X*X*X*X*X*X*X*X*X*X*X*X*X*X*X*X*X*X*X*X*X*X*X*X*X*X*X*X*X-X*X*X*X6 J ! Q ! ! ! U Q Q Q ! J z 8 7 8 8 6 8 8 8 8 5 > 4 { i.        g v b         0.w.e.1.r .     eXeXeXeXeXeXeXeXeXeXeXeXeXeXeXeXeXeXeXeXeXeXeXeXeXeXeXeXeXeXeXeXeXeXeXeXeXeXeXeXeXeXeXeXeXeXeXeXeXeXeXeXeXeXeXeXeXeXeXeXeXeXeXeXeXeXeXeXeXeXeXeXeXeXeXeXeXeXeXeXeXeXeXeXeXeXeXeXeXeXeXeXeXeXeXeXeXeXeXeXeXeXeXeXeXeXeXeXeXeXeXeXeXeXeXeXeXeXeXeXeXeXeX",
"eXeXeXeXeXeXeXeXeXeXeXeXeXeXeXeXeXeXeXeXeXeXeXeXeXeXeXeXeXeXeXeXeXeXeXeX      o d g g g g g g g g x v v v v v v v v v v v v v v v v v v v v v v v v v v v v v v v v v v v v v v v v v v v v v v v v v v v v v v v v h o     #  X*X*X*X*X*X*X*X%XXXD.| * o   @ 8 8 6 8 8 8 7 8 8 8 8 8 9 1 8 8 8 8 q D H J U T Q Q U Q Q Q Q Q T ! Q ! T 3    X*X*X*X*X*X*X*X*X*X*X*X*X*X*X*X*X*X*X*X*X*X*X*X*X*X*X*X*X*X*X*X*X*X*X*X*X( z T ! Q Q U T U T P J s 9 8 8 8 8 8 8 8 7 4 + t g. XD.X       d v x       . 0.9.P 4       eXeXeXeXeXeXeXeXeXeXeXeXeXeXeXeXeXeXeXeXeXeXeXeXeXeXeXeXeXeXeXeXeXeXeXeXeXeXeXeXeXeXeXeXeXeXeXeXeXeXeXeXeXeXeXeXeXeXeXeXeXeXeXeXeXeXeXeXeXeXeXeXeXeXeXeXeXeXeXeXeXeXeXeXeXeXeXeXeXeXeXeXeXeXeXeXeXeXeXeXeXeXeXeXeXeXeXeXeXeXeXeXeXeXeXeXeXeXeXeXeXeXeXeX",
"eXeXeXeXeXeXeXeXeXeXeXeXeXeXeXeXeXeXeXeXeXeXeXeXeXeXeXeXeXeXeXeXeXeXeXeX      : g g g g g g g g g x v v v v v v v v v v v v v v v v v v v v v v v v v v v v v v v v v v v v v v v v v v v v v v v v v v v v v v v v d       I %X*X*X*X*X*X*X*X*X*X&X+X XC.( .     > 8 8 8 8 8 8 1 8 8 8 8 8 8 9 8 8 7 8 z F H H Q Q ! ! U ! U Q U Q T T + 6 #X*X*X*X*X*X*X*X*X*X*X*X*X*X*X*X*X-X*X*X*X*X*X*X*X*X*X*X*X*X*X*X*X*X*X*X*Xi.t Y H Q Q ! Y Y J z 8 7 8 8 8 9 8 8 8 4 4 6   K XX*XF.@       p x h o     @ E 8 o       eXeXeXeXeXeXeXeXeXeXeXeXeXeXeXeXeXeXeXeXeXeXeXeXeXeXeXeXeXeXeXeXeXeXeXeXeXeXeXeXeXeXeXeXeXeXeXeXeXeXeXeXeXeXeXeXeXeXeXeXeXeXeXeXeXeXeXeXeXeXeXeXeXeXeXeXeXeXeXeXeXeXeXeXeXeXeXeXeXeXeXeXeXeXeXeXeXeXeXeXeXeXeXeXeXeXeXeXeXeXeXeXeXeXeXeXeXeXeXeXeXeXeXeXeX",
"eXeXeXeXeXeXeXeXeXeXeXeXeXeXeXeXeXeXeXeXeXeXeXeXeXeXeXeXeXeXeXeXeXeXeX        d g g g g g g g g g x v v v v v v v v v v v v v v v v v v v v v v v v v v v v v v v v v v v v v v v v v v v v v M v v v v v v v v v v ,       g.&X*X*X*X*X*X*X*X*X*X*X*X*X%X@X|.h.t     X 6 8 8 8 8 8 6 8 8 8 8 8 8 8 8 8 7 6 8 z J J ! T Q Q ! Q ! Q ! P   { %X*X*X*X*X*X*X*X*X*X*X*X*X*X-X*X*X*X*X*X*X*X*X*X*X*X*X*X*X*X*X*X*X*X*X*X*XV.8 Y T Q Q ! ! t 8 8 8 8 9 8 8 8 8 5 4 4 2.R.2.# d.%XS.$       < x g       o +         eXeXeXeXeXeXeXeXeXeXeXeXeXeXeXeXeXeXeXeXeXeXeXeXeXeXeXeXeXeXeXeXeXeXeXeXeXeXeXeXeXeXeXeXeXeXeXeXeXeXeXeXeXeXeXeXeXeXeXeXeXeXeXeXeXeXeXeXeXeXeXeXeXeXeXeXeXeXeXeXeXeXeXeXeXeXeXeXeXeXeXeXeXeXeXeXeXeXeXeXeXeXeXeXeXeXeXeXeXeXeXeXeXeXeXeXeXeXeXeXeXeXeXeXeXeX",
"eXeXeXeXeXeXeXeXeXeXeXeXeXeXeXeXeXeXeXeXeXeXeXeXeXeXeXeXeXeXeXeXeXeXeX        d g g g g g g g g g h v v v v v v v v v v v v v v v v v v v v v v v v v v v v v M v v v v v v v v v v v v v v v v v v v v v v v v v v O       S.=X*X*X*X*X*X*X*X*X*X*X*X*X*X*X=XV.*   8 +     @ 7 8 7 7 8 8 8 8 8 8 8 8 7 8 8 8 8 7 q D J J U U Q U Q T z   h.&X*X*X*X*X*X*X*X*X*X*X*X*X*X*X*X*X*X*X*X*X*X*X*X*X*X*X*X*X*X*X*X*X*X*X*X*XS.0 H T U H J 8 8 8 8 8 8 8 8 8 9 4 > H x.>XqX].H $ A.D.$       , x d o       o       eXeXeXeXeXeXeXeXeXeXeXeXeXeXeXeXeXeXeXeXeXeXeXeXeXeXeXeXeXeXeXeXeXeXeXeXeXeXeXeXeXeXeXeXeXeXeXeXeXeXeXeXeXeXeXeXeXeXeXeXeXeXeXeXeXeXeXeXeXeXeXeXeXeXeXeXeXeXeXeXeXeXeXeXeXeXeXeXeXeXeXeXeXeXeXeXeXeXeXeXeXeXeXeXeXeXeXeXeXeXeXeXeXeXeXeXeXeXeXeXeXeXeXeXeXeXeX",
"eXeXeXeXeXeXeXeXeXeXeXeXeXeXeXeXeXeXeXeXeXeXeXeXeXeXeXeXeXeXeXeXeXeXeX      o d g g g g g g g g g x v v v v v v v v v v v v v v v v v v v v v v v v v v v v v v v v v v v v v v v v v v v v v v v v v v M v v v v x o       XX*X*X*X*X*X*X*X*X*X*X*X*X*X*X=Xi.* o R.6X7X).2.@ o o 4 8 8 8 7 8 9 8 8 8 6 7 8 8 8 8 8 8 8 z D J ! T T T 6   S.=X*X*X*X*X*X*X*X*X*X*X*X*X*X*X*X*X*X*X*X*X*X*X*X*X*X*X*X*X*X*X*X*X*X*X*X*X X8 H U H q 8 8 8 8 8 7 8 7 6 > 4 s 5.W.1XqX0X0XR.* K C.*       : b d       % ' i   eXeXeXeXeXeXeXeXeXeXeXeXeXeXeXeXeXeXeXeXeXeXeXeXeXeXeXeXeXeXeXeXeXeXeXeXeXeXeXeXeXeXeXeXeXeXeXeXeXeXeXeXeXeXeXeXeXeXeXeXeXeXeXeXeXeXeXeXeXeXeXeXeXeXeXeXeXeXeXeXeXeXeXeXeXeXeXeXeXeXeXeXeXeXeXeXeXeXeXeXeXeXeXeXeXeXeXeXeXeXeXeXeXeXeXeXeXeXeXeXeXeXeXeXeXeXeXeX",
"eXeXeXeXeXeXeXeXeXeXeXeXeXeXeXeXeXeXeXeXeXeXeXeXeXeXeXeXeXeXeXeXeXeXeX      O g g g g g g g g g g h v v v v v v v v v v v v v v v v v v v v v v v v v v v v v v v v v v v v v v v v v v v v v v v v v v v v v v v x o     * +X*X*X*X*X*X*X*X*X*X*X*X*X*X%Xi.* . Q.9X0X0XqX0X2XE.! @ # + 9 7 8 8 9 8 8 8 8 8 8 8 7 8 8 8 8 7 8 s G J H & X XX*X*X*X*X*X*X*X*X*X*X*X*X*X*X*X*X*X*X*X*X*X*X*X*X*X*X*X*X*X*X*X*X*X*X*X*X*X%Xt F z 8 8 8 8 8 8 8 8 7 7 4 > W W.6X^.M.`.8XqX6XW o | @       : x <        .L. .  eXeXeXeXeXeXeXeXeXeXeXeXeXeXeXeXeXeXeXeXeXeXeXeXeXeXeXeXeXeXeXeXeXeXeXeXeXeXeXeXeXeXeXeXeXeXeXeXeXeXeXeXeXeXeXeXeXeXeXeXeXeXeXeXeXeXeXeXeXeXeXeXeXeXeXeXeXeXeXeXeXeXeXeXeXeXeXeXeXeXeXeXeXeXeXeXeXeXeXeXeXeXeXeXeXeXeXeXeXeXeXeXeXeXeXeXeXeXeXeXeXeXeXeXeXeXeXeX",
"eXeXeXeXeXeXeXeXeXeXeXeXeXeXeXeXeXeXeXeXeXeXeXeXeXeXeXeXeXeXeXeXeXeXeX      , d g g g g g g g g g h v M v v v v M v v v v v v v v v v v v v v v v v v v v v v v v v v v v v v v v v v v v v v v v v v v v v v v v h o     t +X*X*X*X*X*X*X*X*X*X*X*X*X*Xd.*   R.7X0X0X0X0X0X0X0X0X:Xl.D X   $ 9 9 7 7 8 8 8 6 8 8 8 8 8 8 8 8 6 6 r r X K #X*X*X*X*X*X*X*X*X*X*X*X*X*X*X*X*X*X*X*X*X*X*X*X*X*X*X*X*X*X*X*X*X*X*X*X*X*X*XU 8 8 8 7 8 8 8 8 8 6 5 4 D k.>XqX0X`.` ) ~.8X0XR.4 0         : x <       X.B. .  eXeXeXeXeXeXeXeXeXeXeXeXeXeXeXeXeXeXeXeXeXeXeXeXeXeXeXeXeXeXeXeXeXeXeXeXeXeXeXeXeXeXeXeXeXeXeXeXeXeXeXeXeXeXeXeXeXeXeXeXeXeXeXeXeXeXeXeXeXeXeXeXeXeXeXeXeXeXeXeXeXeXeXeXeXeXeXeXeXeXeXeXeXeXeXeXeXeXeXeXeXeXeXeXeXeXeXeXeXeXeXeXeXeXeXeXeXeXeXeXeXeXeXeXeXeXeXeX",
"eXeXeXeXeXeXeXeXeXeXeXeXeXeXeXeXeXeXeXeXeXeXeXeXeXeXeXeXeXeXeXeXeXeX        < g g g g g g g g g g g x v v v v v v v v v v v v v v v v v v v v v v v v v v v v v v v v v v v v v v v v v v v v v v v v v v v v v v g o     u +X*X*X*X*X*X*X*X*X*X*X*X*XA.6   5.2X0X0X0X0X0X0X0X0X0X0X0X7Xv.q O o o > 5 6 8 7 7 8 9 8 8 8 8 8 8 7 8 8 8   | %X*X*X*X*X*X*X*X*X*X*X*X*X*X*X*X*X*X*X*X*X-X-X*X*X*X*X*X*X*X*X*X*X*X*X*X*X*X*X| D 8 7 8 8 8 7 7 9 > 7 6.).9X0X0X0X<Xu./ ) `.9X1XD #         : x :       K.L.i   eXeXeXeXeXeXeXeXeXeXeXeXeXeXeXeXeXeXeXeXeXeXeXeXeXeXeXeXeXeXeXeXeXeXeXeXeXeXeXeXeXeXeXeXeXeXeXeXeXeXeXeXeXeXeXeXeXeXeXeXeXeXeXeXeXeXeXeXeXeXeXeXeXeXeXeXeXeXeXeXeXeXeXeXeXeXeXeXeXeXeXeXeXeXeXeXeXeXeXeXeXeXeXeXeXeXeXeXeXeXeXeXeXeXeXeXeXeXeXeXeXeXeXeXeXeXeXeX",
"eXeXeXeXeXeXeXeXeXeXeXeXeXeXeXeXeXeXeXeXeXeXeXeXeXeXeXeXeXeXeXeXeXeX        < g g g g g g g g g g g x v v v v v v v v v v v v v v v v v v v v v v v v v v v v v v v v v v v v v v v v v v v v v v v v v v v v v v h o     y oX*X*X*X*X*X*X*X*X*X*X*XoXU   4 ].qX0X0X0X0X0X0X0X0X0X0X0X0X4Xu.~ w $ X o X 4 5 7 8 8 8 7 8 8 8 7 8 5 5 r . V.%X*X*X*X*X*X*X*X*X*X*X*X*X*X*X*X*X*X*X-X5X5XwX5X-X*X=X*X*X*X*X*X*X*X*X*X*X*X*Xg.y 7 8 7 8 8 5 9 4 H R.6X0X0X0X0X0X4Xu./ / p.4XqX6.o         : x O       B.L.;   eXeXeXeXeXeXeXeXeXeXeXeXeXeXeXeXeXeXeXeXeXeXeXeXeXeXeXeXeXeXeXeXeXeXeXeXeXeXeXeXeXeXeXeXeXeXeXeXeXeXeXeXeXeXeXeXeXeXeXeXeXeXeXeXeXeXeXeXeXeXeXeXeXeXeXeXeXeXeXeXeXeXeXeXeXeXeXeXeXeXeXeXeXeXeXeXeXeXeXeXeXeXeXeXeXeXeXeXeXeXeXeXeXeXeXeXeXeXeXeXeXeXeXeXeXeXeXeX",
"eXeXeXeXeXeXeXeXeXeXeXeXeXeXeXeXeXeXeXeXeXeXeXeXeXeXeXeXeXeXeXeXeXeX        < g g g g g g g g g g g x v v v v v v v v v v v v v v v v v v v v v v v v v v v v v v v v v M v v v v v v v v v v v v v v v v v v v v h O     6 XX*X*X*X*X*X*X*X*X*X*X*Xh.&   k.6X0X0X0X0X0X0X0X0X0X0X0X0X0X0Xp./ / / e w 8 8 & > > 4 9 6 8 8 8 8 8 r 5 & . G.=X*X*X*X*X*X*X*X*X*X*X*X*X*X*X*X*X-X-X5X5X3X{.(.(.(.}.+X*X*X*X*X*X*X*X*X*X*X*XZ.J 7 8 8 8 9 > 4 t.:XqX0X0X0X0X0X0X4Xu.^ / / `.9Xx.4         , x O     + L.B.    eXeXeXeXeXeXeXeXeXeXeXeXeXeXeXeXeXeXeXeXeXeXeXeXeXeXeXeXeXeXeXeXeXeXeXeXeXeXeXeXeXeXeXeXeXeXeXeXeXeXeXeXeXeXeXeXeXeXeXeXeXeXeXeXeXeXeXeXeXeXeXeXeXeXeXeXeXeXeXeXeXeXeXeXeXeXeXeXeXeXeXeXeXeXeXeXeXeXeXeXeXeXeXeXeXeXeXeXeXeXeXeXeXeXeXeXeXeXeXeXeXeXeXeXeXeXeXeX",
"eXeXeXeXeXeXeXeXeXeXeXeXeXeXeXeXeXeXeXeXeXeXeXeXeXeXeXeXeXeXeXeXeXeX        < g g g g g g g g g g g h v v v v v v v v v v v v v v v v v v v v v v v v v v v v v v v v v v v v v v v v v v v M v v v v v v v v v v v O     X |.*X*X*X*X*X*X*X*X*X*X+XI     '.qX0X0X0X0X0X0X0X0X0X0X0X0X0X0Xp.^ / / / / a.~.z.W > X @ 4 5 7 8 8 8 8 8 @ 9 |.*X*X*X*X*X*X*X*X*X*X*X*X*X*X*X*XoXD.v.6.Y J 0 6 5 4 * * I h.OX=X*X*X*X*X*X*X*X/.K 9 7 8 * & t l.6X0X0X0X0X0X0X0X0X:X_ e ^ / M.8XQ.8         < g O     = L.m.    eXeXeXeXeXeXeXeXeXeXeXeXeXeXeXeXeXeXeXeXeXeXeXeXeXeXeXeXeXeXeXeXeXeXeXeXeXeXeXeXeXeXeXeXeXeXeXeXeXeXeXeXeXeXeXeXeXeXeXeXeXeXeXeXeXeXeXeXeXeXeXeXeXeXeXeXeXeXeXeXeXeXeXeXeXeXeXeXeXeXeXeXeXeXeXeXeXeXeXeXeXeXeXeXeXeXeXeXeXeXeXeXeXeXeXeXeXeXeXeXeXeXeXeXeXeXeXeX",
"eXeXeXeXeXeXeXeXeXeXeXeXeXeXeXeXeXeXeXeXeXeXeXeXeXeXeXeXeXeXeXeXeXeX        < g g g g g g g g g g g g x v v v v v v v v v v v v v v v v v v v v v v v v v v v v v v v v v v v v v v v v v v v v v v v v v v v v v v O       S.=X*X*X*X*X*X*X*X*X*XZ.=   P 1X0X0X0X0X0X0X0X0X0X0X0X0X0X0X7Xy.w ~ ^ / / / `.9X2Xr.I K 9 @ 3 * 5 7 8 8   ( oX*X*X*X*X*X*X*X*X*X*X*X*X=XXXZ.i.U t * .                   . * i.XX*X*X*X*X*X*XXXK 4 5 & 6 f.n..X9X0X0X0X0X0X0X0X0X!._ w ~ / a.4X{.J         < d o     i P. .  eXeXeXeXeXeXeXeXeXeXeXeXeXeXeXeXeXeXeXeXeXeXeXeXeXeXeXeXeXeXeXeXeXeXeXeXeXeXeXeXeXeXeXeXeXeXeXeXeXeXeXeXeXeXeXeXeXeXeXeXeXeXeXeXeXeXeXeXeXeXeXeXeXeXeXeXeXeXeXeXeXeXeXeXeXeXeXeXeXeXeXeXeXeXeXeXeXeXeXeXeXeXeXeXeXeXeXeXeXeXeXeXeXeXeXeXeXeXeXeXeXeXeXeXeXeXeXeXeX",
"eXeXeXeXeXeXeXeXeXeXeXeXeXeXeXeXeXeXeXeXeXeXeXeXeXeXeXeXeXeXeXeXeXeX        < g g g g g g g g g g g g x v v v v v v v v v v v v v v v v v v v v v v v M v v v v v v v v v v v v v v v v v v v v v v v v v v v v v v ,       n.@X*X*X*X*X*X*X*X*X*Xy.X   r.4X0X0X0X0X0X0X0X0X0X0X0X0X0X0X[._ w w ~ ^ / / N.4X0X_.n.G.n.| K * & 3 4 5 # i.+X*X*X*X*X*X*X*X*X*X*X=X/.f.( 0 .                               o * V.@X*X*X*X*X&XU + 4 { P.=XV.,X0X0X0X0X0X0X0X0X9Xv.L w e ^ ` 3X:XH         d < o      .I.u   eXeXeXeXeXeXeXeXeXeXeXeXeXeXeXeXeXeXeXeXeXeXeXeXeXeXeXeXeXeXeXeXeXeXeXeXeXeXeXeXeXeXeXeXeXeXeXeXeXeXeXeXeXeXeXeXeXeXeXeXeXeXeXeXeXeXeXeXeXeXeXeXeXeXeXeXeXeXeXeXeXeXeXeXeXeXeXeXeXeXeXeXeXeXeXeXeXeXeXeXeXeXeXeXeXeXeXeXeXeXeXeXeXeXeXeXeXeXeXeXeXeXeXeXeXeXeXeXeX",
"eXeXeXeXeXeXeXeXeXeXeXeXeXeXeXeXeXeXeXeXeXeXeXeXeXeXeXeXeXeXeXeXeXeXeX      , d g g g g g g g g g g g g x v v v v v v v v M v v v v v v v v v v v v v v v v v v v v v v v v v v v v v v v v v v v v v v v v v v v v < o     { oX*X*X*X*X*X*X*X*X%XU     c.6X0X0X0X0X0X0X0X0X0X0X0X0X0X9Xv.e w w w ~ / / ` <X0X:Xj. X*X&XH.h.} u $ X o C.&X*X*X*X*X*X*X*X*X&XS.s.I *                 o O O : - O               } OX*X*X*X*Xy.K Z.%X-X*Xh.:X0X0X0XqX0X0X0XqX`._ w w e ^ ) <X>XT         g < o     X.L.%   eXeXeXeXeXeXeXeXeXeXeXeXeXeXeXeXeXeXeXeXeXeXeXeXeXeXeXeXeXeXeXeXeXeXeXeXeXeXeXeXeXeXeXeXeXeXeXeXeXeXeXeXeXeXeXeXeXeXeXeXeXeXeXeXeXeXeXeXeXeXeXeXeXeXeXeXeXeXeXeXeXeXeXeXeXeXeXeXeXeXeXeXeXeXeXeXeXeXeXeXeXeXeXeXeXeXeXeXeXeXeXeXeXeXeXeXeXeXeXeXeXeXeXeXeXeXeXeXeX",
"eXeXeXeXeXeXeXeXeXeXeXeXeXeXeXeXeXeXeXeXeXeXeXeXeXeXeXeXeXeXeXeXeXeXeX      : d g g g g g g g g g g g g x v v v v v v v v v v v v v v v v v v v v v v v v v v v v v v v v v v v v v v v v v v v v v v v v v v v v v g O     * H.*X*X*X*X*X*X*X*X|.K     E.7X0X0X0X0X0X0X0X0X0X0X0X0XqXQ._ w w w w ~ ^ / / <X0X1Xq.|.*X*X*X*X+XS.f.{ u H.=X*X*X*X*X*X*X&X/.s.K @             O , p g h h x x x x h p O           u H.=X*X*X|.+X*X*X*X*Xj.:XqX0X0X7X4X6X4X[.u.L w w e / ) <X>X!       o g :       m.B.0   eXeXeXeXeXeXeXeXeXeXeXeXeXeXeXeXeXeXeXeXeXeXeXeXeXeXeXeXeXeXeXeXeXeXeXeXeXeXeXeXeXeXeXeXeXeXeXeXeXeXeXeXeXeXeXeXeXeXeXeXeXeXeXeXeXeXeXeXeXeXeXeXeXeXeXeXeXeXeXeXeXeXeXeXeXeXeXeXeXeXeXeXeXeXeXeXeXeXeXeXeXeXeXeXeXeXeXeXeXeXeXeXeXeXeXeXeXeXeXeXeXeXeXeXeXeXeXeXeX",
"eXeXeXeXeXeXeXeXeXeXeXeXeXeXeXeXeXeXeXeXeXeXeXeXeXeXeXeXeXeXeXeXeXeXeX      O d g g g g g g g g g g g g h c v v v v v v v v v v v v v v v v v v v v v v v v v v v v v v v v v v v v v v v v v v v v v v v v v v v v x :       n.%X*X*X*X*X*X*X*XJ.K     E.7X0X0X0X0X0X9X0X0X0XqXqX7X~.^ w w w w w ~ ^ / / ,X0X1X2.H.*X*X*X*X*X*X&X XD.+X*X*X*X*X*X=X|.h.U +           O < d h x v v v v v v v v b v x p o         t D.&X*X*X*X*X*X*X*Xf.{.9X0X0X4XM.M.M.) e q w w ~ ^ a.<X:XT       O g O     # B.B.u     eXeXeXeXeXeXeXeXeXeXeXeXeXeXeXeXeXeXeXeXeXeXeXeXeXeXeXeXeXeXeXeXeXeXeXeXeXeXeXeXeXeXeXeXeXeXeXeXeXeXeXeXeXeXeXeXeXeXeXeXeXeXeXeXeXeXeXeXeXeXeXeXeXeXeXeXeXeXeXeXeXeXeXeXeXeXeXeXeXeXeXeXeXeXeXeXeXeXeXeXeXeXeXeXeXeXeXeXeXeXeXeXeXeXeXeXeXeXeXeXeXeXeXeXeXeXeXeX",
"eXeXeXeXeXeXeXeXeXeXeXeXeXeXeXeXeXeXeXeXeXeXeXeXeXeXeXeXeXeXeXeXeXeXeX        < g g g g g g g g g g g g g x v v v v v v v v v v v v v v v v v v v v v v v v v v v v v M v v v v v v v v v v v v v v v v v v v v v v v < o     K |.*X*X*X*X*X*X*XS.u     R.7X0X0X0X0X0X.X~.(..X.X^.,.w w w w w w e ~ / / ` <X0X>X_ G.*X*X*X*X*X*X*X*X*X*X*X*X*X*XoXZ.{ *           - p g x v v v v v v v v v v v v v M v h :         6 D.&X*X*X*X*X*X*Xh.).9X0X0X9XN./ / ~ e w w w ~ / p.3X_.H       , d O     u B.b.=     eXeXeXeXeXeXeXeXeXeXeXeXeXeXeXeXeXeXeXeXeXeXeXeXeXeXeXeXeXeXeXeXeXeXeXeXeXeXeXeXeXeXeXeXeXeXeXeXeXeXeXeXeXeXeXeXeXeXeXeXeXeXeXeXeXeXeXeXeXeXeXeXeXeXeXeXeXeXeXeXeXeXeXeXeXeXeXeXeXeXeXeXeXeXeXeXeXeXeXeXeXeXeXeXeXeXeXeXeXeXeXeXeXeXeXeXeXeXeXeXeXeXeXeXeXeXeXeX",
"eXeXeXeXeXeXeXeXeXeXeXeXeXeXeXeXeXeXeXeXeXeXeXeXeXeXeXeXeXeXeXeXeXeXeX        < g g g g g g g g g g g g g g x v v v v v v v v v v v v v v v v v v v v v v v v v v v v v v v v v v v v v v v v v v v v v v v v v v v v h O     o h.+X*X*X*X*X*X*XS.y     l.2X0X0X0X0X0X4Xp./ / / / ~ w w w w w w e ~ / ~ N.3X0X_.E G.*X*X*X*X*X*X*X*X*X*X*X*X&XJ.i.6           - p h x v v v v v v v v v v v v v v v v v v x 2         6 D.&X*X*X*X*X*XV.W.6X0X0X0X~.) / / ~ e e ^ u.) ~.8XQ.0       < < o     ' b.#       eXeXeXeXeXeXeXeXeXeXeXeXeXeXeXeXeXeXeXeXeXeXeXeXeXeXeXeXeXeXeXeXeXeXeXeXeXeXeXeXeXeXeXeXeXeXeXeXeXeXeXeXeXeXeXeXeXeXeXeXeXeXeXeXeXeXeXeXeXeXeXeXeXeXeXeXeXeXeXeXeXeXeXeXeXeXeXeXeXeXeXeXeXeXeXeXeXeXeXeXeXeXeXeXeXeXeXeXeXeXeXeXeXeXeXeXeXeXeXeXeXeXeXeXeXeXeXeX",
"eXeXeXeXeXeXeXeXeXeXeXeXeXeXeXeXeXeXeXeXeXeXeXeXeXeXeXeXeXeXeXeXeXeXeXeX      , d g g g g g g g g g g g g g h v v v v v v v v v v v v v v v v v v v v v v v v v v v v v v v v v v v M v v v v v v v v v v v v v v v v v , o     y G.=X*X*X*X*X*XH.I     1.1XqX0X0X0X0X0XM.) / / / / ~ w w w w e / ) / / ^.7X0XE.Y J.*X*X*X*X*X*X*X*X*X*X=XXXV.I +         O < g v v v v v v v v v v v v v v v v v v v v v v x <         t S.&X*X*X*X*XZ.x.1X0X0X0X.Xp./ / / ^ / N.`.N..X9Xl.@     o d ,       =           eXeXeXeXeXeXeXeXeXeXeXeXeXeXeXeXeXeXeXeXeXeXeXeXeXeXeXeXeXeXeXeXeXeXeXeXeXeXeXeXeXeXeXeXeXeXeXeXeXeXeXeXeXeXeXeXeXeXeXeXeXeXeXeXeXeXeXeXeXeXeXeXeXeXeXeXeXeXeXeXeXeXeXeXeXeXeXeXeXeXeXeXeXeXeXeXeXeXeXeXeXeXeXeXeXeXeXeXeXeXeXeXeXeXeXeXeXeXeXeXeXeXeXeXeXeXeXeX",
"eXeXeXeXeXeXeXeXeXeXeXeXeXeXeXeXeXeXeXeXeXeXeXeXeXeXeXeXeXeXeXeXeXeXeXeX      O p g g g g g g g g g g g g g g h v v v v v v M v v v v v M v v v v v v v v v v v v v v v v v v v v v v v v v v v v v v v v v v M v v v v h O     o | XX*X*X*X*X*X XU     s '.0X0X0X0X0X0X.Xp./ / / / / ^ ~ ~ ^ | N.M.a.p.<X0X9Xk.U |.*X*X*X*X*X*X*X*X*X&XJ.i.6         o < g v M M v v v v v v v v v v v v v v v v v v v v v v v < o       K G.=X*X*X*X/.y.'.0X0X0XwXM.) / / / ` .X0X3X8X8Xq.      : d -           O >       eXeXeXeXeXeXeXeXeXeXeXeXeXeXeXeXeXeXeXeXeXeXeXeXeXeXeXeXeXeXeXeXeXeXeXeXeXeXeXeXeXeXeXeXeXeXeXeXeXeXeXeXeXeXeXeXeXeXeXeXeXeXeXeXeXeXeXeXeXeXeXeXeXeXeXeXeXeXeXeXeXeXeXeXeXeXeXeXeXeXeXeXeXeXeXeXeXeXeXeXeXeXeXeXeXeXeXeXeXeXeXeXeXeXeXeXeXeXeXeXeXeXeXeXeXeXeX",
"eXeXeXeXeXeXeXeXeXeXeXeXeXeXeXeXeXeXeXeXeXeXeXeXeXeXeXeXeXeXeXeXeXeXeXeX        < g g g g g g g g g g g g g g g h v v v v v v v v v v v v v v v v v v v v v v v v v v v v v v v v v v v v v v v v v v v v v v v v v v v b < o     * h.#X*X*X*X*X&X{       V.7X0X0X0X0X0X0X^.) / / / / / / / | .X0X0X<X,XwX0X:XQ | XX*X*X*X*X*X*X*X*XoXV.I o       o : d x v v v v v v v v v v v v v v v v v v v v v v v v v v v v < o       ( }.=X*X*XXX{ Q.9X0X0X0X,XN.) / / a.<X0X0X0X'.T       < d O       O d k g O   eXeXeXeXeXeXeXeXeXeXeXeXeXeXeXeXeXeXeXeXeXeXeXeXeXeXeXeXeXeXeXeXeXeXeXeXeXeXeXeXeXeXeXeXeXeXeXeXeXeXeXeXeXeXeXeXeXeXeXeXeXeXeXeXeXeXeXeXeXeXeXeXeXeXeXeXeXeXeXeXeXeXeXeXeXeXeXeXeXeXeXeXeXeXeXeXeXeXeXeXeXeXeXeXeXeXeXeXeXeXeXeXeXeXeXeXeXeXeXeXeXeXeXeXeXeXeXeX",
"eXeXeXeXeXeXeXeXeXeXeXeXeXeXeXeXeXeXeXeXeXeXeXeXeXeXeXeXeXeXeXeXeXeXeXeXeX      : d g g g g g g g g g g g g g g h x v v v v v v v v v v v v v v v v v v v v v v v v v v v v v v v v v v v v v v v v v v v v v v v v v v v h :       r Z.%X*X*X*X*Xg.$     Q ].0X0X0X0X0X0X9X^.` / / / / / / M.4X0X0X0X0X0X9Xc.4 n.@X*X*X*X*X*X*X&XH.s.6         O < h b v v v v v v v v v v v v v v v v v v v v v v v v v v v v v x , o       } |.*X*X=Xi.q.>X0X0X0X0X.XN.` ) a.,X0X0XqXc.@     o d < o     O j v v c o   eXeXeXeXeXeXeXeXeXeXeXeXeXeXeXeXeXeXeXeXeXeXeXeXeXeXeXeXeXeXeXeXeXeXeXeXeXeXeXeXeXeXeXeXeXeXeXeXeXeXeXeXeXeXeXeXeXeXeXeXeXeXeXeXeXeXeXeXeXeXeXeXeXeXeXeXeXeXeXeXeXeXeXeXeXeXeXeXeXeXeXeXeXeXeXeXeXeXeXeXeXeXeXeXeXeXeXeXeXeXeXeXeXeXeXeXeXeXeXeXeXeXeXeXeXeXeXeX",
"eXeXeXeXeXeXeXeXeXeXeXeXeXeXeXeXeXeXeXeXeXeXeXeXeXeXeXeXeXeXeXeXeXeXeXeXeX      o < g g g g g g g g g g g g g g g g x v v v v v v v v v v v v v v v v v v v v v v v v v v v v v v v v v v v v v v v v v v v v v v v v v v v d O       u D.&X*X*X*XS.K     o x.6X0X0X0X0X0X0XqX`.a.) / / / / M.4X0X0X0X0X0X].E 6 S.*X*X*X*X*X*XoXZ.( X       o : d x v v v v v v v v v v v v v v v v v v v v v v v v v v v v v v v v b ,         i.XX*X*XC.P Q.qX0X0X0X0X3X`.~.^.4X0X0X>X{       - g ,       < x v v k     eXeXeXeXeXeXeXeXeXeXeXeXeXeXeXeXeXeXeXeXeXeXeXeXeXeXeXeXeXeXeXeXeXeXeXeXeXeXeXeXeXeXeXeXeXeXeXeXeXeXeXeXeXeXeXeXeXeXeXeXeXeXeXeXeXeXeXeXeXeXeXeXeXeXeXeXeXeXeXeXeXeXeXeXeXeXeXeXeXeXeXeXeXeXeXeXeXeXeXeXeXeXeXeXeXeXeXeXeXeXeXeXeXeXeXeXeXeXeXeXeXeXeXeXeXeXeXeX",
"eXeXeXeXeXeXeXeXeXeXeXeXeXeXeXeXeXeXeXeXeXeXeXeXeXeXeXeXeXeXeXeXeXeXeXeXeX        : d g g g g g g g g g g g g g g g g x v v v v v v v v v v v v v v v v v v v v v v v v v v v v v v v v v v v v v v v v v v v v v v v v v v v d O       K A.&X*X*X@X|       6 ).qX0X0X0X0X0X0X0X8X`.N.u.` a.M.3X0X0X0X0X2Xr.+ | XX*X*X*X*X&X|.f.t         O < h v v v v v v v v v v v v v v v v v v v v v v v v v v v v v v v v v v v h ,       X f.+X*X|.{ 6.:XqX0X0X0X0X0X0X0X0X0X7Xx.4       p d O     o d v v v d       eXeXeXeXeXeXeXeXeXeXeXeXeXeXeXeXeXeXeXeXeXeXeXeXeXeXeXeXeXeXeXeXeXeXeXeXeXeXeXeXeXeXeXeXeXeXeXeXeXeXeXeXeXeXeXeXeXeXeXeXeXeXeXeXeXeXeXeXeXeXeXeXeXeXeXeXeXeXeXeXeXeXeXeXeXeXeXeXeXeXeXeXeXeXeXeXeXeXeXeXeXeXeXeXeXeXeXeXeXeXeXeXeXeXeXeXeXeXeXeXeXeXeXeXeXeXeX",
"eXeXeXeXeXeXeXeXeXeXeXeXeXeXeXeXeXeXeXeXeXeXeXeXeXeXeXeXeXeXeXeXeXeXeXeXeXeX      o < g g g g g g g g g g g g g g g g g x v v v v v v v v v v v v v v v v v v v v v v v v M v v v v v v v v v v v v v v v v v v v v v v v v v v < o       y Z.%X*X*XA.y       P _.0X0X0X0X0X0X0X0X0X0X0X0X0XqX0X0X0X0X6Xx.4 9 Z.=X*X*X*X#XD.{ @         : d x v v v v v v v v v v v v v v v v v v v v v v v v v v v v v v v v v v v v v h O       * n.#X&Xf.* l.2X0X0X0X0X0X0X0X0XqX).P       - g < o     O h v v b ,     eXeXeXeXeXeXeXeXeXeXeXeXeXeXeXeXeXeXeXeXeXeXeXeXeXeXeXeXeXeXeXeXeXeXeXeXeXeXeXeXeXeXeXeXeXeXeXeXeXeXeXeXeXeXeXeXeXeXeXeXeXeXeXeXeXeXeXeXeXeXeXeXeXeXeXeXeXeXeXeXeXeXeXeXeXeXeXeXeXeXeXeXeXeXeXeXeXeXeXeXeXeXeXeXeXeXeXeXeXeXeXeXeXeXeXeXeXeXeXeXeXeXeXeXeXeXeXeX",
"eXeXeXeXeXeXeXeXeXeXeXeXeXeXeXeXeXeXeXeXeXeXeXeXeXeXeXeXeXeXeXeXeXeXeXeXeXeX        : d g g g g g g g g g g g g g g g g g h x v v v v v v v v v v v v v v v v v v v v v v v v v v v v v v v v v v v v v v v v v v v v v v v v v h < o       6 f.oX*X@Xs.X       T _.qX0X0X0X0X0X0X0X0X0X0X0X0X0X0XqX2Xx.5 X i.oX=X*X&X Xh.t         O < h v v v v v v v v v v v v v v v v v v v v v v v v v v v M v v v v v v v v v v v v g O       6 C.%X/.U 6 c.2XqX0X0X0X0X0X7X_.,.        < h ,       , x v v b O     eXeXeXeXeXeXeXeXeXeXeXeXeXeXeXeXeXeXeXeXeXeXeXeXeXeXeXeXeXeXeXeXeXeXeXeXeXeXeXeXeXeXeXeXeXeXeXeXeXeXeXeXeXeXeXeXeXeXeXeXeXeXeXeXeXeXeXeXeXeXeXeXeXeXeXeXeXeXeXeXeXeXeXeXeXeXeXeXeXeXeXeXeXeXeXeXeXeXeXeXeXeXeXeXeXeXeXeXeXeXeXeXeXeXeXeXeXeXeXeXeXeXeXeXeXeXeXeX",
"eXeXeXeXeXeXeXeXeXeXeXeXeXeXeXeXeXeXeXeXeXeXeXeXeXeXeXeXeXeXeXeXeXeXeXeXeXeXeX      o , g g g g g g g g g g g g g g g g g g g x v v v v v v v v v v v v v v v v v v v v v v v v v v v v v v v v v v v v v v v v v v v v v v v v v x < o       * { J.&X|.{         8 R.7X0X0X0X0X0X0X0X0X0X0X0X0X7X:Xr.4   ( J.*X=X+XD.{ @         : d x v v v v v v v v v v v v v v v v v v v v v v v v v v v v v v v v v v v v v v v v v v d O       t C.+Xn.* $ k.].2X9X9X7X1XQ.W         - g d O     o d v v v k     eXeXeXeXeXeXeXeXeXeXeXeXeXeXeXeXeXeXeXeXeXeXeXeXeXeXeXeXeXeXeXeXeXeXeXeXeXeXeXeXeXeXeXeXeXeXeXeXeXeXeXeXeXeXeXeXeXeXeXeXeXeXeXeXeXeXeXeXeXeXeXeXeXeXeXeXeXeXeXeXeXeXeXeXeXeXeXeXeXeXeXeXeXeXeXeXeXeXeXeXeXeXeXeXeXeXeXeXeXeXeXeXeXeXeXeXeXeXeXeXeXeXeXeXeXeXeXeXeX",
"eXeXeXeXeXeXeXeXeXeXeXeXeXeXeXeXeXeXeXeXeXeXeXeXeXeXeXeXeXeXeXeXeXeXeXeXeXeXeX        O < g g g g g g g g g g g g g g g g g g g g v v v v v v v v v v v v v v v M v v v v v v v v v v v v v v v v v v v v v v v v v v v v v v v v v h < o       X t f.XXS.I         @ W ).9X0X0X0X0X0X0X0X9X7X1XR.H     K A.&X%X|.g.t         O , g v v v v v v v v v v v v v v v v v v v v v v v v v v v v v v v v v v v v v v v v v v v v v p o       t C.}.| X   H l.Q.Q.c.5.5         o p x <       : k v v x <     eXeXeXeXeXeXeXeXeXeXeXeXeXeXeXeXeXeXeXeXeXeXeXeXeXeXeXeXeXeXeXeXeXeXeXeXeXeXeXeXeXeXeXeXeXeXeXeXeXeXeXeXeXeXeXeXeXeXeXeXeXeXeXeXeXeXeXeXeXeXeXeXeXeXeXeXeXeXeXeXeXeXeXeXeXeXeXeXeXeXeXeXeXeXeXeXeXeXeXeXeXeXeXeXeXeXeXeXeXeXeXeXeXeXeXeXeXeXeXeXeXeXeXeXeXeXeXeXeX",
"eXeXeXeXeXeXeXeXeXeXeXeXeXeXeXeXeXeXeXeXeXeXeXeXeXeXeXeXeXeXeXeXeXeXeXeXeXeXeXeX        - d g g g g g g g g g g g g g g g g g g g g h x v v v v v v v v v v v v v v v v v v v v v v v v v v v v v v v v v v v v v v v v v v v v v v v x d O         $ K g.n.I           o D l._.1X7X7X6X:X!.r.8     # u Z.#XXXC.I o         O p x v v v v v v v v v v v v v v v v v v v v v v v v v v v v v v v v v v v v v v v v v v v v v v v < O       t C.D.( X                       , h g O     o f v v v g O     eXeXeXeXeXeXeXeXeXeXeXeXeXeXeXeXeXeXeXeXeXeXeXeXeXeXeXeXeXeXeXeXeXeXeXeXeXeXeXeXeXeXeXeXeXeXeXeXeXeXeXeXeXeXeXeXeXeXeXeXeXeXeXeXeXeXeXeXeXeXeXeXeXeXeXeXeXeXeXeXeXeXeXeXeXeXeXeXeXeXeXeXeXeXeXeXeXeXeXeXeXeXeXeXeXeXeXeXeXeXeXeXeXeXeXeXeXeXeXeXeXeXeXeXeXeXeXeXeX",
"eXeXeXeXeXeXeXeXeXeXeXeXeXeXeXeXeXeXeXeXeXeXeXeXeXeXeXeXeXeXeXeXeXeXeXeXeXeXeXeXeX        : d g g g g g g g g g g g g g g g g g g g g g h h v v v v v v v v v v v v v v v v x v v v v v v v v v v v v v v v v v v v v v v v v v v v v v v g : o         @ y ( y                                   @ I Z. XD.} $         o , h v v v v v v v v v v v v v v v v v v v v v v v v v v v v v v v v v v v v v v v v v v v v v v v v v x < o       t h.C.( $                   : g x < o     - g v v v :     eXeXeXeXeXeXeXeXeXeXeXeXeXeXeXeXeXeXeXeXeXeXeXeXeXeXeXeXeXeXeXeXeXeXeXeXeXeXeXeXeXeXeXeXeXeXeXeXeXeXeXeXeXeXeXeXeXeXeXeXeXeXeXeXeXeXeXeXeXeXeXeXeXeXeXeXeXeXeXeXeXeXeXeXeXeXeXeXeXeXeXeXeXeXeXeXeXeXeXeXeXeXeXeXeXeXeXeXeXeXeXeXeXeXeXeXeXeXeXeXeXeXeXeXeXeXeXeXeXeX",
"eXeXeXeXeXeXeXeXeXeXeXeXeXeXeXeXeXeXeXeXeXeXeXeXeXeXeXeXeXeXeXeXeXeXeXeXeXeXeXeXeX        o , g g g g g g g g g g g g g g g g g g g g g g g g g x x x v v b b v v v x x x h x x v v v v v v v v v v v v v v v v v v v v v v v v v v v v v v h p O           # X @ X                           # 9 { A.A.} @         o O d h v v v v v v v v v v v v v v v v v v v v v v v v v v v v v v v v v v v v v v v v v v v v v v v v v v v x < O       @ } f.U *               - d x d -       < x v v b       eXeXeXeXeXeXeXeXeXeXeXeXeXeXeXeXeXeXeXeXeXeXeXeXeXeXeXeXeXeXeXeXeXeXeXeXeXeXeXeXeXeXeXeXeXeXeXeXeXeXeXeXeXeXeXeXeXeXeXeXeXeXeXeXeXeXeXeXeXeXeXeXeXeXeXeXeXeXeXeXeXeXeXeXeXeXeXeXeXeXeXeXeXeXeXeXeXeXeXeXeXeXeXeXeXeXeXeXeXeXeXeXeXeXeXeXeXeXeXeXeXeXeXeXeXeXeXeXeXeX",
"eXeXeXeXeXeXeXeXeXeXeXeXeXeXeXeXeXeXeXeXeXeXeXeXeXeXeXeXeXeXeXeXeXeXeXeXeXeXeXeXeXeX          , d g g g g g g g g g g g g g g g g g g g g g g g g g g g g g g g h h g g g g g h x v v v v v v v v v v v v v v v v v v v v v v v v v v v v v v x h < o                                       X K s.s.K             O , h v v v v v v v v v v v v v v v v v v v v v v v v v v v v v v v v v v v v v v v v v v v v v v v v v v v v v v b < o         * y 0 X           O d h g <       O g v v b g       eXeXeXeXeXeXeXeXeXeXeXeXeXeXeXeXeXeXeXeXeXeXeXeXeXeXeXeXeXeXeXeXeXeXeXeXeXeXeXeXeXeXeXeXeXeXeXeXeXeXeXeXeXeXeXeXeXeXeXeXeXeXeXeXeXeXeXeXeXeXeXeXeXeXeXeXeXeXeXeXeXeXeXeXeXeXeXeXeXeXeXeXeXeXeXeXeXeXeXeXeXeXeXeXeXeXeXeXeXeXeXeXeXeXeXeXeXeXeXeXeXeXeXeXeXeXeXeXeXeX",
"eXeXeXeXeXeXeXeXeXeXeXeXeXeXeXeXeXeXeXeXeXeXeXeXeXeXeXeXeXeXeXeXeXeXeXeXeXeXeXeXeXeXeX        o : d g g g g g g g g g g g g g g g g g g g g g g g g g g g g g g g g g g g g g g h x x v v v v v v v v v v v v v v v v v v v v v v v v v v v v v v x g < o                               * t t *               O , d v v v v v v v v v v v v v v v v v v v v v v v v v v v v v v v v v v v v v v v v v v v v v v v v v v v v v v v v v x d O                     o , d h g p O     o f m n h p O   o eXeXeXeXeXeXeXeXeXeXeXeXeXeXeXeXeXeXeXeXeXeXeXeXeXeXeXeXeXeXeXeXeXeXeXeXeXeXeXeXeXeXeXeXeXeXeXeXeXeXeXeXeXeXeXeXeXeXeXeXeXeXeXeXeXeXeXeXeXeXeXeXeXeXeXeXeXeXeXeXeXeXeXeXeXeXeXeXeXeXeXeXeXeXeXeXeXeXeXeXeXeXeXeXeXeXeXeXeXeXeXeXeXeXeXeXeXeXeXeXeXeXeXeXeXeXeXeXeXeXeX",
"eXeXeXeXeXeXeXeXeXeXeXeXeXeXeXeXeXeXeXeXeXeXeXeXeXeXeXeXeXeXeXeXeXeXeXeXeXeXeXeXeXeXeXeX          > d g g g g g g g g g g g g g g g g g g g g g g g g g g g g g g g g g g g g g g g h x x v v v v v v v v v v v v v v v v v v v v v v v v v v v v v v x h p O                                             o : d h v v v v v v v v v v v v v v v v v v v v v v v v v v v v v v v v v v v v v v v v v v v v v v v v v v v v v v v v v v v v d : o             o O < g h h d :       : c n p >       O eXeXeXeXeXeXeXeXeXeXeXeXeXeXeXeXeXeXeXeXeXeXeXeXeXeXeXeXeXeXeXeXeXeXeXeXeXeXeXeXeXeXeXeXeXeXeXeXeXeXeXeXeXeXeXeXeXeXeXeXeXeXeXeXeXeXeXeXeXeXeXeXeXeXeXeXeXeXeXeXeXeXeXeXeXeXeXeXeXeXeXeXeXeXeXeXeXeXeXeXeXeXeXeXeXeXeXeXeXeXeXeXeXeXeXeXeXeXeXeXeXeXeXeXeXeXeXeXeXeXeX",
"eXeXeXeXeXeXeXeXeXeXeXeXeXeXeXeXeXeXeXeXeXeXeXeXeXeXeXeXeXeXeXeXeXeXeXeXeXeXeXeXeXeXeXeXeX        o O < g g g g g g g g g g g g g g g g g g g g g g g g g g g g g g g g g g g g g g g g h x x x v v v v v v v v v v v v v v v v v v v v v v v v v v v v v v x g < O o                                 O : d v v v v v v v v v v v v v v v v v v v v v v v v v v v v v v v v v v v v v v v v v v v v v v v v v v v v v v v v v v v v v v v v x d : O O O O : < g h g g g , o     o 2 d o o     o , O eXeXeXeXeXeXeXeXeXeXeXeXeXeXeXeXeXeXeXeXeXeXeXeXeXeXeXeXeXeXeXeXeXeXeXeXeXeXeXeXeXeXeXeXeXeXeXeXeXeXeXeXeXeXeXeXeXeXeXeXeXeXeXeXeXeXeXeXeXeXeXeXeXeXeXeXeXeXeXeXeXeXeXeXeXeXeXeXeXeXeXeXeXeXeXeXeXeXeXeXeXeXeXeXeXeXeXeXeXeXeXeXeXeXeXeXeXeXeXeXeXeXeXeXeXeXeXeXeXeXeX",
"eXeXeXeXeXeXeXeXeXeXeXeXeXeXeXeXeXeXeXeXeXeXeXeXeXeXeXeXeXeXeXeXeXeXeXeXeXeXeXeXeXeXeXeXeXeX          o : d g g g g g g g g g g g g g g g g g g g g g g g g g g g g g g g g g g g g g g g g h h x x v v v v v v v v v v v v v v v v v v v v v v v v v v v v v v b x x d < : o       o   o   o o O , d h v v v v v v v v v v v v v v v v v v v v v v v v v v v v v v v v v v v v v v v v v v v v v v v v v v v v v v v v v v v v v v v v v v v v x x g g h x x h g g g d O       o o       o O p d < eXeXeXeXeXeXeXeXeXeXeXeXeXeXeXeXeXeXeXeXeXeXeXeXeXeXeXeXeXeXeXeXeXeXeXeXeXeXeXeXeXeXeXeXeXeXeXeXeXeXeXeXeXeXeXeXeXeXeXeXeXeXeXeXeXeXeXeXeXeXeXeXeXeXeXeXeXeXeXeXeXeXeXeXeXeXeXeXeXeXeXeXeXeXeXeXeXeXeXeXeXeXeXeXeXeXeXeXeXeXeXeXeXeXeXeXeXeXeXeXeXeXeXeXeXeXeXeXeXeXeX",
"eXeXeXeXeXeXeXeXeXeXeXeXeXeXeXeXeXeXeXeXeXeXeXeXeXeXeXeXeXeXeXeXeXeXeXeXeXeXeXeXeXeXeXeXeXeXeX            O < d g g g g g g g g g g g g g g g g g g g g g g g g g g g g g g g g g g g g g g g g g h h h h v x v v v v v v v v v v v v v v v v v v v v v v v v v v v v v x v v v x h d d d g g x b v v v v v v v v v v v v v b v v v v v v v v v v v v v v v v v v v v v v v v v v v v v v v v v v v v v v v v v v v v v v v v v v v v v v v v v M v v x x x g g g g d O               O : < d g g O eXeXeXeXeXeXeXeXeXeXeXeXeXeXeXeXeXeXeXeXeXeXeXeXeXeXeXeXeXeXeXeXeXeXeXeXeXeXeXeXeXeXeXeXeXeXeXeXeXeXeXeXeXeXeXeXeXeXeXeXeXeXeXeXeXeXeXeXeXeXeXeXeXeXeXeXeXeXeXeXeXeXeXeXeXeXeXeXeXeXeXeXeXeXeXeXeXeXeXeXeXeXeXeXeXeXeXeXeXeXeXeXeXeXeXeXeXeXeXeXeXeXeXeXeXeXeXeXeXeXeX",
"eXeXeXeXeXeXeXeXeXeXeXeXeXeXeXeXeXeXeXeXeXeXeXeXeXeXeXeXeXeXeXeXeXeXeXeXeXeXeXeXeXeXeXeXeXeXeXeXeX          o O < d g g g g g g g g g g g g g g g g g g g g g g g g g g g g g g g g g g g g g g g g g g g h g x x x x v v v v v v v v v v v v v v v v v v v v v v v v v v v v v v v v v v v v v v v v v v v v v v v v v v v v v v v v v v v v v v v v v v v v v v v v v v v v v v v v v v v v v v v v v v v v v v v v v v v v v v v v v v v v v v x x h g g g g g d O           O : p d d g g g d O eXeXeXeXeXeXeXeXeXeXeXeXeXeXeXeXeXeXeXeXeXeXeXeXeXeXeXeXeXeXeXeXeXeXeXeXeXeXeXeXeXeXeXeXeXeXeXeXeXeXeXeXeXeXeXeXeXeXeXeXeXeXeXeXeXeXeXeXeXeXeXeXeXeXeXeXeXeXeXeXeXeXeXeXeXeXeXeXeXeXeXeXeXeXeXeXeXeXeXeXeXeXeXeXeXeXeXeXeXeXeXeXeXeXeXeXeXeXeXeXeXeXeXeXeXeXeXeXeXeXeX",
"eXeXeXeXeXeXeXeXeXeXeXeXeXeXeXeXeXeXeXeXeXeXeXeXeXeXeXeXeXeXeXeXeXeXeXeXeXeXeXeXeXeXeXeXeXeXeXeXeXeX              O : d g g g g g g g g g g g g g g g g g g g g g g g g g g g g g g g g g g g g g g g g g g g g g g h h h x x v x v v M v v v v v v v v v v v v v v v v v v v v v v v v v v v v v v v v v v v v v v v v v v v v v v v v v v v v v v v v v v v v v v v v v v v v v v v v v v v v v v v v v v v v v v v v v v v v v v v v v v x x x h g g g g g g d :       o : d h x h g g g g g p O eXeXeXeXeXeXeXeXeXeXeXeXeXeXeXeXeXeXeXeXeXeXeXeXeXeXeXeXeXeXeXeXeXeXeXeXeXeXeXeXeXeXeXeXeXeXeXeXeXeXeXeXeXeXeXeXeXeXeXeXeXeXeXeXeXeXeXeXeXeXeXeXeXeXeXeXeXeXeXeXeXeXeXeXeXeXeXeXeXeXeXeXeXeXeXeXeXeXeXeXeXeXeXeXeXeXeXeXeXeXeXeXeXeXeXeXeXeXeXeXeXeXeXeXeXeXeXeXeXeXeX",
"eXeXeXeXeXeXeXeXeXeXeXeXeXeXeXeXeXeXeXeXeXeXeXeXeXeXeXeXeXeXeXeXeXeXeXeXeXeXeXeXeXeXeXeXeXeXeXeXeXeXeXeX                o O < g d g g g g g g d g d p < < p g g g g g g g g g g g g g g g g g g g g g g g g g g g g g g g g g g h h h h x x x x v v v v v v v v v v v M v v v v v v v v v v v v v v v v v v v v v v v v v v v v v v v v v v v v v v v v v v v v v v v v v v v v v v v v v v v v v v v v v v v v v v v v v v v v v x v x x h h g g g g g g g g d :         , h b x x g g g g g g p   eXeXeXeXeXeXeXeXeXeXeXeXeXeXeXeXeXeXeXeXeXeXeXeXeXeXeXeXeXeXeXeXeXeXeXeXeXeXeXeXeXeXeXeXeXeXeXeXeXeXeXeXeXeXeXeXeXeXeXeXeXeXeXeXeXeXeXeXeXeXeXeXeXeXeXeXeXeXeXeXeXeXeXeXeXeXeXeXeXeXeXeXeXeXeXeXeXeXeXeXeXeXeXeXeXeXeXeXeXeXeXeXeXeXeXeXeXeXeXeXeXeXeXeXeXeXeXeXeXeXeX",
"eXeXeXeXeXeXeXeXeXeXeXeXeXeXeXeXeXeXeXeXeXeXeXeXeXeXeXeXeXeXeXeXeXeXeXeXeXeXeXeXeXeXeXeXeXeXeXeXeXeXeXeXeXeX                          o O O o             O p g g g g g g d g g g g g g g g g g g g g g g g g g g g g g g g g g g g g g g g g h h g h h h h h x x x v x v v v v v v v v v v v v v v v v v v v v v v v v v v v v v v v v v v v v v v v v v v v v v v v v v v v v v v v v v v v x v x v v v v M x v v v x v v x x x h g g g g g g g g g g g g p -       o : h v v x g g g g g g g O eXeXeXeXeXeXeXeXeXeXeXeXeXeXeXeXeXeXeXeXeXeXeXeXeXeXeXeXeXeXeXeXeXeXeXeXeXeXeXeXeXeXeXeXeXeXeXeXeXeXeXeXeXeXeXeXeXeXeXeXeXeXeXeXeXeXeXeXeXeXeXeXeXeXeXeXeXeXeXeXeXeXeXeXeXeXeXeXeXeXeXeXeXeXeXeXeXeXeXeXeXeXeXeXeXeXeXeXeXeXeXeXeXeXeXeXeXeXeXeXeXeXeXeXeXeXeXeXeXeXeXeX",
"eXeXeXeXeXeXeXeXeXeXeXeXeXeXeXeXeXeXeXeXeXeXeXeXeXeXeXeXeXeXeXeXeXeXeXeXeXeXeXeXeXeXeXeXeXeXeXeXeXeXeXeXeXeXeXeX                                              , d d g g g g g g g g g g g g g g g g g g g g g g g g g g g g g g g g g g g g g g g g g g g g g g g g g g g g g h h h h h h h x h h x x x x x x v x x b x v x x v x b x x x v x x x x x v x x x x v x x x v x x x x x x x x x x x x x x x x h x x h x h h g g g g g g g g g g g g g g g g g < O         : h v v h g g g g g g g <   eXeXeXeXeXeXeXeXeXeXeXeXeXeXeXeXeXeXeXeXeXeXeXeXeXeXeXeXeXeXeXeXeXeXeXeXeXeXeXeXeXeXeXeXeXeXeXeXeXeXeXeXeXeXeXeXeXeXeXeXeXeXeXeXeXeXeXeXeXeXeXeXeXeXeXeXeXeXeXeXeXeXeXeXeXeXeXeXeXeXeXeXeXeXeXeXeXeXeXeXeXeXeXeXeXeXeXeXeXeXeXeXeXeXeXeXeXeXeXeXeXeXeXeXeXeXeXeXeXeXeXeX",
"eXeXeXeXeXeXeXeXeXeXeXeXeXeXeXeXeXeXeXeXeXeXeXeXeXeXeXeXeXeXeXeXeXeXeXeXeXeXeXeXeXeXeXeXeXeXeXeXeXeXeXeXeXeXeXeXeXeXeX                                          o < p d g g g g g g g g g g g g g g g g g g g g g g g g g g g g g g g g g g g g g g g g g g g g g g g g g g g g g g g g g g g g g g g g g g g g g g h g g g h g h h g h g h h g g h g h h g h g h g h g h g h g g h g g g h g g h g g g g g g g g g g g g g g g g g g g g g g g g g g d , o         , h v x h h g g g g g g d :   eXeXeXeXeXeXeXeXeXeXeXeXeXeXeXeXeXeXeXeXeXeXeXeXeXeXeXeXeXeXeXeXeXeXeXeXeXeXeXeXeXeXeXeXeXeXeXeXeXeXeXeXeXeXeXeXeXeXeXeXeXeXeXeXeXeXeXeXeXeXeXeXeXeXeXeXeXeXeXeXeXeXeXeXeXeXeXeXeXeXeXeXeXeXeXeXeXeXeXeXeXeXeXeXeXeXeXeXeXeXeXeXeXeXeXeXeXeXeXeXeXeXeXeXeXeXeXeXeXeXeXeX",
"eXeXeXeXeXeXeXeXeXeXeXeXeXeXeXeXeXeXeXeXeXeXeXeXeXeXeXeXeXeXeXeXeXeXeXeXeXeXeXeXeXeXeXeXeXeXeXeXeXeXeXeXeXeXeXeXeXeXeXeXeXeXeX                                      o , p d g g g g g g g g g g g g g g g g g g g g g g g g g g g g g g g g g g g g g g g g g g g g g g g g g g g g g g g g g g g g g g g g g g g g g g g g g g g g g g g g g g g g g g g g g g g g g g g g g g g g g g g g g g g g g g g g g g g g g g g g g g g g g g g g g j g d < :         o < h x h h g g g g g g g g <   eXeXeXeXeXeXeXeXeXeXeXeXeXeXeXeXeXeXeXeXeXeXeXeXeXeXeXeXeXeXeXeXeXeXeXeXeXeXeXeXeXeXeXeXeXeXeXeXeXeXeXeXeXeXeXeXeXeXeXeXeXeXeXeXeXeXeXeXeXeXeXeXeXeXeXeXeXeXeXeXeXeXeXeXeXeXeXeXeXeXeXeXeXeXeXeXeXeXeXeXeXeXeXeXeXeXeXeXeXeXeXeXeXeXeXeXeXeXeXeXeXeXeXeXeXeXeXeXeXeXeXeXeX",
"eXeXeXeXeXeXeXeXeXeXeXeXeXeXeXeXeXeXeXeXeXeXeXeXeXeXeXeXeXeXeXeXeXeXeXeXeXeXeXeXeXeXeXeXeXeXeXeXeXeXeXeXeXeXeXeXeXeXeXeXeXeXeXeXeXeXeXeXeXeXeXeXeXeXeXeXeX              o O < < d g g g g g g g g g g g g g g g g g g g g g g g g g g g g g g g g h g g g g g g g g g g g g g g g g g g g g g g g g g g g g g g g g g g g g g g g g g g g g g g g g g g g g g g g g g g g g g g g g g g g g g g g g g g g g g g g g g g g g g g g g g g g g g d p , o         o < h h h g g g g g g g g g < O   eXeXeXeXeXeXeXeXeXeXeXeXeXeXeXeXeXeXeXeXeXeXeXeXeXeXeXeXeXeXeXeXeXeXeXeXeXeXeXeXeXeXeXeXeXeXeXeXeXeXeXeXeXeXeXeXeXeXeXeXeXeXeXeXeXeXeXeXeXeXeXeXeXeXeXeXeXeXeXeXeXeXeXeXeXeXeXeXeXeXeXeXeXeXeXeXeXeXeXeXeXeXeXeXeXeXeXeXeXeXeXeXeXeXeXeXeXeXeXeXeXeXeXeXeXeXeXeXeXeXeXeXeX",
"eXeXeXeXeXeXeXeXeXeXeXeXeXeXeXeXeXeXeXeXeXeXeXeXeXeXeXeXeXeXeXeXeXeXeXeXeXeXeXeXeXeXeXeXeXeXeXeXeXeXeXeXeXeXeXeXeXeXeXeXeXeXeXeXeXeXeXeXeXeXeXeXeXeXeXeXeXeXeX                  O , < < d g g g g g g g g g g g g g g g g g g g g g g g g g g g g g g g g g g g g g g g g g g g g g g g g g g g g g g g g g g g g g g g g g g g g g g g g g g g g g g g g g g g g g g g g g g g g g g g g g g g g g g g g g g g g g g g g g g g g g g g g d p < o               , g g g g g g g g g g g < O   eXeXeXeXeXeXeXeXeXeXeXeXeXeXeXeXeXeXeXeXeXeXeXeXeXeXeXeXeXeXeXeXeXeXeXeXeXeXeXeXeXeXeXeXeXeXeXeXeXeXeXeXeXeXeXeXeXeXeXeXeXeXeXeXeXeXeXeXeXeXeXeXeXeXeXeXeXeXeXeXeXeXeXeXeXeXeXeXeXeXeXeXeXeXeXeXeXeXeXeXeXeXeXeXeXeXeXeXeXeXeXeXeXeXeXeXeXeXeXeXeXeXeXeXeXeXeXeXeXeXeXeXeXeX",
"eXeXeXeXeXeXeXeXeXeXeXeXeXeXeXeXeXeXeXeXeXeXeXeXeXeXeXeXeXeXeXeXeXeXeXeXeXeXeXeXeXeXeXeXeXeXeXeXeXeXeXeXeXeXeXeXeXeXeXeXeXeXeXeXeXeXeXeXeXeXeXeXeXeXeXeXeXeXeXeXeX                    o - , , < < d g g g g g g g g g g g g g g g g g g g g g g g g g g g g g g g g g g g g g g g g g g g g g g g g g g g g g g g g g g g g g g g g g g g g g g g g g g g g g g g g g g g g g g g g g g g g g g g g g g g g g g g g g g g g g g g g g d < , o           @ @       : g g g g g g g g g d :   o eXeXeXeXeXeXeXeXeXeXeXeXeXeXeXeXeXeXeXeXeXeXeXeXeXeXeXeXeXeXeXeXeXeXeXeXeXeXeXeXeXeXeXeXeXeXeXeXeXeXeXeXeXeXeXeXeXeXeXeXeXeXeXeXeXeXeXeXeXeXeXeXeXeXeXeXeXeXeXeXeXeXeXeXeXeXeXeXeXeXeXeXeXeXeXeXeXeXeXeXeXeXeXeXeXeXeXeXeXeXeXeXeXeXeXeXeXeXeXeXeXeXeXeXeXeXeXeXeXeXeXeXeXeX",
"eXeXeXeXeXeXeXeXeXeXeXeXeXeXeXeXeXeXeXeXeXeXeXeXeXeXeXeXeXeXeXeXeXeXeXeXeXeXeXeXeXeXeXeXeXeXeXeXeXeXeXeXeXeXeXeXeXeXeXeXeXeXeXeXeXeXeXeXeXeXeXeXeXeXeXeXeXeXeXeXeXeXeX                          O : : : , < d d d g g g g g g g g g g g g g g g g g g g g g g g g g g g g g j g g g g g g g g g g g g g g g g g g g g g g g g g g g g g g g g g g g g g g g g g g g g g g g g g g g g g g g g g g g g g g g g g g g g g g d g d d p < O             @ 8 T 3.7       : d g g g g d d : o O < d d g g d d eXeXeXeXeXeXeXeXeXeXeXeXeXeXeXeXeXeXeXeXeXeXeXeXeXeXeXeXeXeXeXeXeXeXeXeXeXeXeXeXeXeXeXeXeXeXeXeXeXeXeXeXeXeXeXeXeXeXeXeXeXeXeXeXeXeXeXeXeXeXeXeXeXeXeXeXeXeXeXeXeXeXeXeXeXeXeXeXeXeXeXeXeXeXeXeXeXeXeXeXeXeXeXeXeXeXeXeXeXeXeXeXeXeXeXeXeXeXeXeXeXeXeXeXeXeXeXeXeX",
"eXeXeXeXeXeXeXeXeXeXeXeXeXeXeXeXeXeXeXeXeXeXeXeXeXeXeXeXeXeXeXeXeXeXeXeXeXeXeXeXeXeXeXeXeXeXeXeXeXeXeXeXeXeXeXeXeXeXeXeXeXeXeXeXeXeXeXeXeXeXeXeXeXeXeXeXeXeXeXeXeXeXeXeXeXeX                              O O O : : : , < p d g g g g g g g g g g g g g g g g g g g g g g g g g g g g g g g g g g g g g g g g g g g g g g g g g g g g g g g g g g g g g g g g g g g g g g g g g g g g g g g g g g g g g g g g g g g d g d d p < O               + 7 Y 3.7.8.7.r       : g g d < O O : d x x v v h h g g g g d < eXeXeXeXeXeXeXeXeXeXeXeXeXeXeXeXeXeXeXeXeXeXeXeXeXeXeXeXeXeXeXeXeXeXeXeXeXeXeXeXeXeXeXeXeXeXeXeXeXeXeXeXeXeXeXeXeXeXeXeXeXeXeXeXeXeXeXeXeXeXeXeXeXeXeXeXeXeXeXeXeXeXeXeXeXeXeXeXeXeXeXeXeXeXeXeXeXeXeXeXeXeXeXeXeXeXeXeXeXeXeXeXeXeXeXeXeXeXeXeXeXeXeXeXeX",
"eXeXeXeXeXeXeXeXeXeXeXeXeXeXeXeXeXeXeXeXeXeXeXeXeXeXeXeXeXeXeXeXeXeXeXeXeXeXeXeXeXeXeXeXeXeXeXeXeXeXeXeXeXeXeXeXeXeXeXeXeXeXeXeXeXeXeXeXeXeXeXeXeXeXeXeXeXeXeXeXeXeXeXeXeXeXeXeXeXeX                                    o O O O O O O O : < < < d d g g g g g g g g g g g g g g g g g g g g g g g g g g g g g g g g g g g g g g g g g g g g g g g g g g g g g g g g g g g g g g g g g g g g g g g g g g g g g g d d < : o                   @ 7 Y 3.8.8.8.8.8.8.r o     O < O   O d h v v v v v v x h g g g g d ,   eXeXeXeXeXeXeXeXeXeXeXeXeXeXeXeXeXeXeXeXeXeXeXeXeXeXeXeXeXeXeXeXeXeXeXeXeXeXeXeXeXeXeXeXeXeXeXeXeXeXeXeXeXeXeXeXeXeXeXeXeXeXeXeXeXeXeXeXeXeXeXeXeXeXeXeXeXeXeXeXeXeXeXeXeXeXeXeXeXeXeXeXeXeXeXeXeXeXeXeXeXeXeXeXeXeXeXeXeXeXeXeXeXeXeXeXeXeXeXeXeXeXeX",
"eXeXeXeXeXeXeXeXeXeXeXeXeXeXeXeXeXeXeXeXeXeXeXeXeXeXeXeXeXeXeXeXeXeXeXeXeXeXeXeXeXeXeXeXeXeXeXeXeXeXeXeXeXeXeXeXeXeXeXeXeXeXeXeXeXeXeXeXeXeXeXeXeXeXeXeXeXeXeXeXeXeXeXeXeXeXeXeXeXeXeXeXeXeX                                              o o o o o o o   o o + O - , , < < p p p f d d d d d p p p p p p d < d < d p p d p d d p d d d p d p d d d p d d p p d p p p p p < d < < p < < < < < < < , , - O o                           o & r E 7.8.8.8.8.8.8.8.8.8.S .         O h v v v v v v v M x x h d d d g d p O   eXeXeXeXeXeXeXeXeXeXeXeXeXeXeXeXeXeXeXeXeXeXeXeXeXeXeXeXeXeXeXeXeXeXeXeXeXeXeXeXeXeXeXeXeXeXeXeXeXeXeXeXeXeXeXeXeXeXeXeXeXeXeXeXeXeXeXeXeXeXeXeXeXeXeXeXeXeXeXeXeXeXeXeXeXeXeXeXeXeXeXeXeXeXeXeXeXeXeXeXeXeXeXeXeXeXeXeXeXeXeXeXeXeXeXeXeXeXeXeXeX",
"eXeXeXeXeXeXeXeXeXeXeXeXeXeXeXeXeXeXeXeXeXeXeXeXeXeXeXeXeXeXeXeXeXeXeXeXeXeXeXeXeXeXeXeXeXeXeXeXeXeXeXeXeXeXeXeXeXeXeXeXeXeXeXeXeXeXeXeXeXeXeXeXeXeXeXeXeXeXeXeXeXeXeXeXeXeXeXeXeXeXeXeXeXeXeXeXeXeXeXeX                                                                                                  o o o O O O O O O O O O O O O O - O O O O O O O O O O O O o O O o o O o o o o   o o                                 o + @ 5 D ] 7.8.8.8.8.8.8.8.8.8.8.8.8.r       : h v v v v v v v h < < : O - o O O : , , o   eXeXeXeXeXeXeXeXeXeXeXeXeXeXeXeXeXeXeXeXeXeXeXeXeXeXeXeXeXeXeXeXeXeXeXeXeXeXeXeXeXeXeXeXeXeXeXeXeXeXeXeXeXeXeXeXeXeXeXeXeXeXeXeXeXeXeXeXeXeXeXeXeXeXeXeXeXeXeXeXeXeXeXeXeXeXeXeXeXeXeXeXeXeXeXeXeXeXeXeXeXeXeXeXeXeXeXeXeXeXeXeXeXeXeXeXeXeXeXeX",
"eXeXeXeXeXeXeXeXeXeXeXeXeXeXeXeXeXeXeXeXeXeXeXeXeXeXeXeXeXeXeXeXeXeXeXeXeXeXeXeXeXeXeXeXeXeXeXeXeXeXeXeXeXeXeXeXeXeXeXeXeXeXeXeXeXeXeXeXeXeXeXeXeXeXeXeXeXeXeXeXeXeXeXeXeXeXeXeXeXeXeXeXeXeXeXeXeXeXeXeXeXeXeXeXeXeXeX        o @ .                                                                                                                                                                                       @ r F Y Y T ] 1.8.8.8.8.8.8.8.8.8.8.8.7.1.r     O d v v v v v x h d < d p < d < < : O o o   o     eXeXeXeXeXeXeXeXeXeXeXeXeXeXeXeXeXeXeXeXeXeXeXeXeXeXeXeXeXeXeXeXeXeXeXeXeXeXeXeXeXeXeXeXeXeXeXeXeXeXeXeXeXeXeXeXeXeXeXeXeXeXeXeXeXeXeXeXeXeXeXeXeXeXeXeXeXeXeXeXeXeXeXeXeXeXeXeXeXeXeXeXeXeXeXeXeXeXeXeXeXeXeXeXeXeXeXeXeXeXeXeXeXeXeXeXeXeXeX",
"eXeXeXeXeXeXeXeXeXeXeXeXeXeXeXeXeXeXeXeXeXeXeXeXeXeXeXeXeXeXeXeXeXeXeXeXeXeXeXeXeXeXeXeXeXeXeXeXeXeXeXeXeXeXeXeXeXeXeXeXeXeXeXeXeXeXeXeXeXeXeXeXeXeXeXeXeXeXeXeXeXeXeXeXeXeXeXeXeXeXeXeXeXeXeXeXeXeXeXeXeXeXeXeXeXeXeXeX        3 R R Y P H F S 8 5 3 & . o                                                                                                                                                   + 4 S P R 1.7.] R R Y E <.8.8.8.8.8.8.8.8.8.8.8.8.7.F .   o d v v v v v v v h h v v v v v M x v x h < : O o       eXeXeXeXeXeXeXeXeXeXeXeXeXeXeXeXeXeXeXeXeXeXeXeXeXeXeXeXeXeXeXeXeXeXeXeXeXeXeXeXeXeXeXeXeXeXeXeXeXeXeXeXeXeXeXeXeXeXeXeXeXeXeXeXeXeXeXeXeXeXeXeXeXeXeXeXeXeXeXeXeXeXeXeXeXeXeXeXeXeXeXeXeXeXeXeXeXeXeXeXeXeXeXeXeXeXeXeXeXeXeXeXeXeXeXeXeX",
"eXeXeXeXeXeXeXeXeXeXeXeXeXeXeXeXeXeXeXeXeXeXeXeXeXeXeXeXeXeXeXeXeXeXeXeXeXeXeXeXeXeXeXeXeXeXeXeXeXeXeXeXeXeXeXeXeXeXeXeXeXeXeXeXeXeXeXeXeXeXeXeXeXeXeXeXeXeXeXeXeXeXeXeXeXeXeXeXeXeXeXeXeXeXeXeXeXeXeXeXeXeXeXeXeXeXeXeXeX        4 1.4.7.4.3.3.3.1.1.1.<.1.1.<.<.2.] E R Y P H G D r 7 5 4 4 4 4 3 & & @       O O O O           + 4 7 5 5 5 4 3 3 4 3 4 4 4 4 4 4 & & o     3 & & @ 3 3 3 5 r D G T E <.3.7.8.8.7.8.7.] [ T T T ] 1.8.8.8.8.8.8.8.8.8.8.8.8.8.[ #     , v v v v v v v v v v v v v v v v v v v v v x g ,         eXeXeXeXeXeXeXeXeXeXeXeXeXeXeXeXeXeXeXeXeXeXeXeXeXeXeXeXeXeXeXeXeXeXeXeXeXeXeXeXeXeXeXeXeXeXeXeXeXeXeXeXeXeXeXeXeXeXeXeXeXeXeXeXeXeXeXeXeXeXeXeXeXeXeXeXeXeXeXeXeXeXeXeXeXeXeXeXeXeXeXeXeXeXeXeXeXeXeXeXeXeXeXeXeXeXeXeXeXeXeXeXeXeXeXeX",
"eXeXeXeXeXeXeXeXeXeXeXeXeXeXeXeXeXeXeXeXeXeXeXeXeXeXeXeXeXeXeXeXeXeXeXeXeXeXeXeXeXeXeXeXeXeXeXeXeXeXeXeXeXeXeXeXeXeXeXeXeXeXeXeXeXeXeXeXeXeXeXeXeXeXeXeXeXeXeXeXeXeXeXeXeXeXeXeXeXeXeXeXeXeXeXeXeXeXeXeXeXeXeXeXeXeXeXeXeXeXeX      & <.7.8.8.8.8.8.8.8.8.8.8.8.8.0.e.e.e.e.e.e.e.e.e.e.9.9.7.7.7.8.7.7.] 5     < g g O         4 Y Y Y Y P D Y R R R T T R Y R Y Y R R F o   3 T T T T T T T <.4.7.8.8.8.8.8.8.8.7.1.[ R R T [ <.7.7.8.8.8.8.8.8.8.8.8.8.8.8.8.r     O g v v v v v v v v v v v v v v v v v v v v v v v x d - o     eXeXeXeXeXeXeXeXeXeXeXeXeXeXeXeXeXeXeXeXeXeXeXeXeXeXeXeXeXeXeXeXeXeXeXeXeXeXeXeXeXeXeXeXeXeXeXeXeXeXeXeXeXeXeXeXeXeXeXeXeXeXeXeXeXeXeXeXeXeXeXeXeXeXeXeXeXeXeXeXeXeXeXeXeXeXeXeXeXeXeXeXeXeXeXeXeXeXeXeXeXeXeXeXeXeXeXeXeXeXeXeXeXeXeX",
"eXeXeXeXeXeXeXeXeXeXeXeXeXeXeXeXeXeXeXeXeXeXeXeXeXeXeXeXeXeXeXeXeXeXeXeXeXeXeXeXeXeXeXeXeXeXeXeXeXeXeXeXeXeXeXeXeXeXeXeXeXeXeXeXeXeXeXeXeXeXeXeXeXeXeXeXeXeXeXeXeXeXeXeXeXeXeXeXeXeXeXeXeXeXeXeXeXeXeXeXeXeXeXeXeXeXeXeXeXeXeXeX      @ [ 7.8.8.8.8.8.8.8.8.8.8.8.8.0.e.e.e.e.e.e.e.e.e.e.0.9.7.7.8.8.8.4.D     < v ,         5 1.7.7.7.7.E R T T Y R T T T Y R R R R R [ S     & P E Y R T T T ] 4.8.8.8.8.8.7.1.] R T R R <.7.8.8.8.8.8.8.8.8.8.8.8.8.8.8.8.r &     2 x v v v v v v v v v v v v v v v v v v v v v v v v v h <       eXeXeXeXeXeXeXeXeXeXeXeXeXeXeXeXeXeXeXeXeXeXeXeXeXeXeXeXeXeXeXeXeXeXeXeXeXeXeXeXeXeXeXeXeXeXeXeXeXeXeXeXeXeXeXeXeXeXeXeXeXeXeXeXeXeXeXeXeXeXeXeXeXeXeXeXeXeXeXeXeXeXeXeXeXeXeXeXeXeXeXeXeXeXeXeXeXeXeXeXeXeXeXeXeXeXeXeXeXeXeXeXeXeX",
"eXeXeXeXeXeXeXeXeXeXeXeXeXeXeXeXeXeXeXeXeXeXeXeXeXeXeXeXeXeXeXeXeXeXeXeXeXeXeXeXeXeXeXeXeXeXeXeXeXeXeXeXeXeXeXeXeXeXeXeXeXeXeXeXeXeXeXeXeXeXeXeXeXeXeXeXeXeXeXeXeXeXeXeXeXeXeXeXeXeXeXeXeXeXeXeXeXeXeXeXeXeXeXeXeXeXeXeXeXeXeXeXeX      . E 7.8.8.8.8.8.8.8.8.8.8.8.8.0.e.e.e.e.e.e.e.e.e.e.0.9.8.8.8.8.7.r     < :         4 <.7.7.7.7.] R Y R R T T T R T R R R Y Y 1.8.R &     @ P T R T T T T ] 4.8.8.8.4.<.R R T E <.1.7.7.8.8.8.8.8.8.8.8.8.8.8.8.8.8.8.5       h b v v v v v v v v v v v v v v v v v v v v v v v v v v h , o       eXeXeXeXeXeXeXeXeXeXeXeXeXeXeXeXeXeXeXeXeXeXeXeXeXeXeXeXeXeXeXeXeXeXeXeXeXeXeXeXeXeXeXeXeXeXeXeXeXeXeXeXeXeXeXeXeXeXeXeXeXeXeXeXeXeXeXeXeXeXeXeXeXeXeXeXeXeXeXeXeXeXeXeXeXeXeXeXeXeXeXeXeXeXeXeXeXeXeXeXeXeXeXeXeXeXeXeXeXeXeXeX",
"eXeXeXeXeXeXeXeXeXeXeXeXeXeXeXeXeXeXeXeXeXeXeXeXeXeXeXeXeXeXeXeXeXeXeXeXeXeXeXeXeXeXeXeXeXeXeXeXeXeXeXeXeXeXeXeXeXeXeXeXeXeXeXeXeXeXeXeXeXeXeXeXeXeXeXeXeXeXeXeXeXeXeXeXeXeXeXeXeXeXeXeXeXeXeXeXeXeXeXeXeXeXeXeXeXeXeXeXeXeXeXeXeXeX        E 7.8.8.8.8.8.8.8.8.8.8.8.9.0.e.e.e.e.e.e.e.e.e.e.9.8.8.8.8.4.8     o         3 <.7.7.8.7.] Y R T T R T R T T R R T T T 1.1.0.9.R + o   . P R T T T T T <.1.8.1.[ T Y E [ 1.8.8.8.8.8.8.8.8.8.8.8.8.8.8.8.8.8.8.8.3     O x v v v v v v v v v v v v v v v M v v v v v v v v v v v v x ,       eXeXeXeXeXeXeXeXeXeXeXeXeXeXeXeXeXeXeXeXeXeXeXeXeXeXeXeXeXeXeXeXeXeXeXeXeXeXeXeXeXeXeXeXeXeXeXeXeXeXeXeXeXeXeXeXeXeXeXeXeXeXeXeXeXeXeXeXeXeXeXeXeXeXeXeXeXeXeXeXeXeXeXeXeXeXeXeXeXeXeXeXeXeXeXeXeXeXeXeXeXeXeXeXeXeXeXeXeXeXeXeX",
"eXeXeXeXeXeXeXeXeXeXeXeXeXeXeXeXeXeXeXeXeXeXeXeXeXeXeXeXeXeXeXeXeXeXeXeXeXeXeXeXeXeXeXeXeXeXeXeXeXeXeXeXeXeXeXeXeXeXeXeXeXeXeXeXeXeXeXeXeXeXeXeXeXeXeXeXeXeXeXeXeXeXeXeXeXeXeXeXeXeXeXeXeXeXeXeXeXeXeXeXeXeXeXeXeXeXeXeXeXeXeXeXeXeXeX        Y 7.7.8.8.8.8.8.8.8.8.8.8.8.0.e.e.e.e.e.e.e.e.e.0.8.8.8.8.E o             & ] 4.8.8.7.] R E Y T T Y R T T R Y Y R T 1.1.9.0.1.1.G o       G R T T T T Y [ <.Y T R <.1.1.9.8.8.8.8.8.8.8.8.8.8.8.8.8.8.8.8.8.8.7.&     < v v v v v v v v v v v v v v v v v v v v v v v v v v v v v v h :       eXeXeXeXeXeXeXeXeXeXeXeXeXeXeXeXeXeXeXeXeXeXeXeXeXeXeXeXeXeXeXeXeXeXeXeXeXeXeXeXeXeXeXeXeXeXeXeXeXeXeXeXeXeXeXeXeXeXeXeXeXeXeXeXeXeXeXeXeXeXeXeXeXeXeXeXeXeXeXeXeXeXeXeXeXeXeXeXeXeXeXeXeXeXeXeXeXeXeXeXeXeXeXeXeXeXeXeXeXeXeX",
"eXeXeXeXeXeXeXeXeXeXeXeXeXeXeXeXeXeXeXeXeXeXeXeXeXeXeXeXeXeXeXeXeXeXeXeXeXeXeXeXeXeXeXeXeXeXeXeXeXeXeXeXeXeXeXeXeXeXeXeXeXeXeXeXeXeXeXeXeXeXeXeXeXeXeXeXeXeXeXeXeXeXeXeXeXeXeXeXeXeXeXeXeXeXeXeXeXeXeXeXeXeXeXeXeXeXeXeXeXeXeXeXeXeXeXeX        Y 7.7.7.8.8.8.8.8.8.8.8.8.8.9.e.e.e.e.e.e.e.e.0.8.8.8.<.r .           + [ 4.8.8.7.<.T T T R Y Y R T R R T T R R 1.9.8.8.9.0.1.<.F         F Y R T T T T R E [ <.8.8.8.8.8.8.8.8.8.8.8.8.8.8.8.8.8.8.8.8.8.8.7 &     h v v v v v v v v v v v v v v v v v v v v v v v v v v v v v v v h         eXeXeXeXeXeXeXeXeXeXeXeXeXeXeXeXeXeXeXeXeXeXeXeXeXeXeXeXeXeXeXeXeXeXeXeXeXeXeXeXeXeXeXeXeXeXeXeXeXeXeXeXeXeXeXeXeXeXeXeXeXeXeXeXeXeXeXeXeXeXeXeXeXeXeXeXeXeXeXeXeXeXeXeXeXeXeXeXeXeXeXeXeXeXeXeXeXeXeXeXeXeXeXeXeXeXeXeXeXeX",
"eXeXeXeXeXeXeXeXeXeXeXeXeXeXeXeXeXeXeXeXeXeXeXeXeXeXeXeXeXeXeXeXeXeXeXeXeXeXeXeXeXeXeXeXeXeXeXeXeXeXeXeXeXeXeXeXeXeXeXeXeXeXeXeXeXeXeXeXeXeXeXeXeXeXeXeXeXeXeXeXeXeXeXeXeXeXeXeXeXeXeXeXeXeXeXeXeXeXeXeXeXeXeXeXeXeXeXeXeXeXeXeXeXeXeX            G 7.7.8.8.7.8.8.8.8.8.8.8.8.9.e.e.e.e.e.e.e.9.8.7.3.G @           o E 4.8.8.7.<.T T T R Y E E R T Y R R R Y <.1.8.8.8.1.1.<.E Y G .       F R T T R T R E 1.7.8.8.8.8.8.8.8.8.8.8.8.8.8.8.8.8.8.8.8.8.8.8.S +   O v v v v v v v v v v v v v v v v v v v v v v v v v v v v v v v v v ,         eXeXeXeXeXeXeXeXeXeXeXeXeXeXeXeXeXeXeXeXeXeXeXeXeXeXeXeXeXeXeXeXeXeXeXeXeXeXeXeXeXeXeXeXeXeXeXeXeXeXeXeXeXeXeXeXeXeXeXeXeXeXeXeXeXeXeXeXeXeXeXeXeXeXeXeXeXeXeXeXeXeXeXeXeXeXeXeXeXeXeXeXeXeXeXeXeXeXeXeXeXeXeXeXeXeXeXeXeX",
"eXeXeXeXeXeXeXeXeXeXeXeXeXeXeXeXeXeXeXeXeXeXeXeXeXeXeXeXeXeXeXeXeXeXeXeXeXeXeXeXeXeXeXeXeXeXeXeXeXeXeXeXeXeXeXeXeXeXeXeXeXeXeXeXeXeXeXeXeXeXeXeXeXeXeXeXeXeXeXeXeXeXeXeXeXeXeXeXeXeXeXeXeXeXeXeXeXeXeXeXeXeXeXeXeXeXeXeXeXeXeXeXeXeXeX              F 7.8.8.8.8.8.8.8.8.8.8.8.8.8.e.e.e.e.e.0.9.8.3.P @             R 3.8.8.7.<.Y T Y E Y R T T Y R T T R Y <.1.8.8.8.9.1.<.Y R R R G .       S T T T T Y R E 1.8.9.8.8.8.8.8.8.8.8.8.8.8.8.8.8.8.8.8.8.8.8.F     : b v v v v v v v v v v v v v v v v v v v v v v v v v v v v v v v v h               eXeXeXeXeXeXeXeXeXeXeXeXeXeXeXeXeXeXeXeXeXeXeXeXeXeXeXeXeXeXeXeXeXeXeXeXeXeXeXeXeXeXeXeXeXeXeXeXeXeXeXeXeXeXeXeXeXeXeXeXeXeXeXeXeXeXeXeXeXeXeXeXeXeXeXeXeXeXeXeXeXeXeXeXeXeXeXeXeXeXeXeXeXeXeXeXeXeXeXeXeXeXeXeXeXeX",
"eXeXeXeXeXeXeXeXeXeXeXeXeXeXeXeXeXeXeXeXeXeXeXeXeXeXeXeXeXeXeXeXeXeXeXeXeXeXeXeXeXeXeXeXeXeXeXeXeXeXeXeXeXeXeXeXeXeXeXeXeXeXeXeXeXeXeXeXeXeXeXeXeXeXeXeXeXeXeXeXeXeXeXeXeXeXeXeXeXeXeXeXeXeXeXeXeXeXeXeXeXeXeXeXeXeXeXeXeXeXeXeXeXeX        @ @       F 4.7.8.8.8.8.8.8.8.8.8.8.8.9.0.0.w.9.8.8.3.H &             Y 4.8.8.8.<.Y T T R T T T Y E R R R R Y <.1.9.8.8.8.1.<.T T R T T Y P @       S T T T R R R E 1.1.8.8.8.8.8.8.8.8.8.8.8.8.8.8.8.8.8.8.8.8.S     p v v v v v v v v v v v v v v v v v v v v v v v v v v v v v v v v v v :               eXeXeXeXeXeXeXeXeXeXeXeXeXeXeXeXeXeXeXeXeXeXeXeXeXeXeXeXeXeXeXeXeXeXeXeXeXeXeXeXeXeXeXeXeXeXeXeXeXeXeXeXeXeXeXeXeXeXeXeXeXeXeXeXeXeXeXeXeXeXeXeXeXeXeXeXeXeXeXeXeXeXeXeXeXeXeXeXeXeXeXeXeXeXeXeXeXeXeXeXeXeXeXeXeX",
"eXeXeXeXeXeXeXeXeXeXeXeXeXeXeXeXeXeXeXeXeXeXeXeXeXeXeXeXeXeXeXeXeXeXeXeXeXeXeXeXeXeXeXeXeXeXeXeXeXeXeXeXeXeXeXeXeXeXeXeXeXeXeXeXeXeXeXeXeXeXeXeXeXeXeXeXeXeXeXeXeXeXeXeXeXeXeXeXeXeXeXeXeXeXeXeXeXeXeXeXeXeXeXeXeXeXeXeXeXeXeXeXeXeX      o Y 4.5       r P 1.1.8.8.8.8.8.8.8.8.8.8.8.8.7.7.8.7.P 4             P 4.8.8.7.<.R R T R T T R Y R Y R R R Y <.1.0.9.8.8.1.<.R Y R Y T T R R P &       r R R R Y Y R [ <.8.9.8.8.8.8.8.8.8.8.8.8.8.8.8.8.8.8.8.R 7   o g v v v v v v v v v v v v v v v v v v v v v v v v v v v v v v v v v v g               eXeXeXeXeXeXeXeXeXeXeXeXeXeXeXeXeXeXeXeXeXeXeXeXeXeXeXeXeXeXeXeXeXeXeXeXeXeXeXeXeXeXeXeXeXeXeXeXeXeXeXeXeXeXeXeXeXeXeXeXeXeXeXeXeXeXeXeXeXeXeXeXeXeXeXeXeXeXeXeXeXeXeXeXeXeXeXeXeXeXeXeXeXeXeXeXeXeXeXeXeXeXeXeXeX",
"eXeXeXeXeXeXeXeXeXeXeXeXeXeXeXeXeXeXeXeXeXeXeXeXeXeXeXeXeXeXeXeXeXeXeXeXeXeXeXeXeXeXeXeXeXeXeXeXeXeXeXeXeXeXeXeXeXeXeXeXeXeXeXeXeXeXeXeXeXeXeXeXeXeXeXeXeXeXeXeXeXeXeXeXeXeXeXeXeXeXeXeXeXeXeXeXeXeXeXeXeXeXeXeXeXeXeXeXeXeXeXeXeX        4 ] 7.8.7       @ & G P E <.3.7.7.7.7.8.8.8.8.7.7.7.P 4     D       F 3.8.8.8.1.R R R T T T R Y E Y E R Y R [ 9.9.9.1.8.1.<.Y R R R Y R T T T T Y &       7 T R R T R Y [ <.1.8.8.8.8.8.8.8.8.8.8.8.8.8.8.8.8.7.] &   o x v v v v v v v v v v v v v v v v v v v v v v v v v v v v v v v v v x p       & 5       eXeXeXeXeXeXeXeXeXeXeXeXeXeXeXeXeXeXeXeXeXeXeXeXeXeXeXeXeXeXeXeXeXeXeXeXeXeXeXeXeXeXeXeXeXeXeXeXeXeXeXeXeXeXeXeXeXeXeXeXeXeXeXeXeXeXeXeXeXeXeXeXeXeXeXeXeXeXeXeXeXeXeXeXeXeXeXeXeXeXeXeXeXeXeXeXeXeXeXeXeXeXeXeX",
"eXeXeXeXeXeXeXeXeXeXeXeXeXeXeXeXeXeXeXeXeXeXeXeXeXeXeXeXeXeXeXeXeXeXeXeXeXeXeXeXeXeXeXeXeXeXeXeXeXeXeXeXeXeXeXeXeXeXeXeXeXeXeXeXeXeXeXeXeXeXeXeXeXeXeXeXeXeXeXeXeXeXeXeXeXeXeXeXeXeXeXeXeXeXeXeXeXeXeXeXeXeXeXeXeXeXeXeXeXeXeXeXeX        P 7.8.7.7.r @         o @ . 5 r G Y Y R [ R Y Y G 7 &     W k.H     S 8.8.8.1.R T T T T R T T R R R R R Y <.1.9.8.8.8.1.<.R T T R R R R Y R R R T Y 3       7 T T T T T R E 1.1.9.8.8.8.8.8.8.8.8.8.8.8.8.8.8.8.<.    : x v v v v v v v v v v v v v v v v v v v v v v v v v v v v v v v v v d O       Y 7.@     eXeXeXeXeXeXeXeXeXeXeXeXeXeXeXeXeXeXeXeXeXeXeXeXeXeXeXeXeXeXeXeXeXeXeXeXeXeXeXeXeXeXeXeXeXeXeXeXeXeXeXeXeXeXeXeXeXeXeXeXeXeXeXeXeXeXeXeXeXeXeXeXeXeXeXeXeXeXeXeXeXeXeXeXeXeXeXeXeXeXeXeXeXeXeXeXeXeXeXeXeXeXeXeX",
"eXeXeXeXeXeXeXeXeXeXeXeXeXeXeXeXeXeXeXeXeXeXeXeXeXeXeXeXeXeXeXeXeXeXeXeXeXeXeXeXeXeXeXeXeXeXeXeXeXeXeXeXeXeXeXeXeXeXeXeXeXeXeXeXeXeXeXeXeXeXeXeXeXeXeXeXeXeXeXeXeXeXeXeXeXeXeXeXeXeXeXeXeXeXeXeXeXeXeXeXeXeXeXeXeXeXeXeXeXeXeXeX        5 1.8.8.8.8.8.Y S o .                   . . . o   .       W E.6X5.    8 1.8.1.E T T T T T T T T Y Y Y Y R E 1.8.8.8.9.1.<.R T R R R Y R R R T Y Y R R <.r       4 R T T T T T T <.1.8.8.8.8.8.8.8.8.8.8.8.8.8.8.8.R     : b v v v v v v v v v v v v v v v v v v v v v v v v v v v v v v v g :       r 4.e.0.P       eXeXeXeXeXeXeXeXeXeXeXeXeXeXeXeXeXeXeXeXeXeXeXeXeXeXeXeXeXeXeXeXeXeXeXeXeXeXeXeXeXeXeXeXeXeXeXeXeXeXeXeXeXeXeXeXeXeXeXeXeXeXeXeXeXeXeXeXeXeXeXeXeXeXeXeXeXeXeXeXeXeXeXeXeXeXeXeXeXeXeXeXeXeXeXeXeXeXeXeXeXeXeX",
"eXeXeXeXeXeXeXeXeXeXeXeXeXeXeXeXeXeXeXeXeXeXeXeXeXeXeXeXeXeXeXeXeXeXeXeXeXeXeXeXeXeXeXeXeXeXeXeXeXeXeXeXeXeXeXeXeXeXeXeXeXeXeXeXeXeXeXeXeXeXeXeXeXeXeXeXeXeXeXeXeXeXeXeXeXeXeXeXeXeXeXeXeXeXeXeXeXeXeXeXeXeXeXeXeXeXeXeXeXeXeXeX      + P 4.8.8.8.8.8.8.3.<.Y S 7 @ @                       . 4 r.!.6X2Xr.    @ <.1.E Y R Y T T T T D 8 5 4 4 r S <.1.9.8.9.8.<.T T R T R R R R T T T R R R <.4.8.r       4 Y R R R T T E <.1.8.8.8.8.8.8.8.8.8.8.8.8.8.8.G     < v v v v v v v v v v v v v v v v v v v v v v v v v v v v v v x d -     o F 4.w.w.0.<..     eXeXeXeXeXeXeXeXeXeXeXeXeXeXeXeXeXeXeXeXeXeXeXeXeXeXeXeXeXeXeXeXeXeXeXeXeXeXeXeXeXeXeXeXeXeXeXeXeXeXeXeXeXeXeXeXeXeXeXeXeXeXeXeXeXeXeXeXeXeXeXeXeXeXeXeXeXeXeXeXeXeXeXeXeXeXeXeXeXeXeXeXeXeXeXeXeXeXeXeXeXeXeX",
"eXeXeXeXeXeXeXeXeXeXeXeXeXeXeXeXeXeXeXeXeXeXeXeXeXeXeXeXeXeXeXeXeXeXeXeXeXeXeXeXeXeXeXeXeXeXeXeXeXeXeXeXeXeXeXeXeXeXeXeXeXeXeXeXeXeXeXeXeXeXeXeXeXeXeXeXeXeXeXeXeXeXeXeXeXeXeXeXeXeXeXeXeXeXeXeXeXeXeXeXeXeXeXeXeXeXeXeXeXeXeX        @ <.8.8.8.8.8.8.8.8.8.7.7.1.] [ P F .     5 F 2.W 6.r.R.!.1X6X6X6X!.+   + [ [ T T R R T Y G 3 +           . S T 1.8.1.<.E Y R R T R Y Y R T R R Y R <.7.8.8.7.F o     3 R Y Y R T Y E 1.1.8.8.8.8.8.8.8.8.8.8.8.8.8.4     < v v v v v v v v v v v v v v v v v v v v v v v v v v v v v v p O       F 8.e.w.0.8.7.F       eXeXeXeXeXeXeXeXeXeXeXeXeXeXeXeXeXeXeXeXeXeXeXeXeXeXeXeXeXeXeXeXeXeXeXeXeXeXeXeXeXeXeXeXeXeXeXeXeXeXeXeXeXeXeXeXeXeXeXeXeXeXeXeXeXeXeXeXeXeXeXeXeXeXeXeXeXeXeXeXeXeXeXeXeXeXeXeXeXeXeXeXeXeXeXeXeXeXeXeXeXeX",
"eXeXeXeXeXeXeXeXeXeXeXeXeXeXeXeXeXeXeXeXeXeXeXeXeXeXeXeXeXeXeXeXeXeXeXeXeXeXeXeXeXeXeXeXeXeXeXeXeXeXeXeXeXeXeXeXeXeXeXeXeXeXeXeXeXeXeXeXeXeXeXeXeXeXeXeXeXeXeXeXeXeXeXeXeXeXeXeXeXeXeXeXeXeXeXeXeXeXeXeXeXeXeXeXeXeXeXeXeXeXeX        Y 7.7.8.8.8.8.8.8.8.8.8.8.8.8.8.8.E o     Y :X:X>X6X1X2X7X6X6X6X6X!.4     S Y R T T T Y r @           .       & F 1.1.R R R R Y Y Y R T T T T T E @.4.8.8.8.8.4.r       @ Y R R T T R T <.1.9.8.8.8.8.8.8.8.8.9.9.[ +     p v v v v v v v v v v v v v v v v v v v v v v v v v v v v g -       r 3.e.e.w.0.7.8.8.3.      eXeXeXeXeXeXeXeXeXeXeXeXeXeXeXeXeXeXeXeXeXeXeXeXeXeXeXeXeXeXeXeXeXeXeXeXeXeXeXeXeXeXeXeXeXeXeXeXeXeXeXeXeXeXeXeXeXeXeXeXeXeXeXeXeXeXeXeXeXeXeXeXeXeXeXeXeXeXeXeXeXeXeXeXeXeXeXeXeXeXeXeXeXeXeXeXeXeXeXeXeXeX",
"eXeXeXeXeXeXeXeXeXeXeXeXeXeXeXeXeXeXeXeXeXeXeXeXeXeXeXeXeXeXeXeXeXeXeXeXeXeXeXeXeXeXeXeXeXeXeXeXeXeXeXeXeXeXeXeXeXeXeXeXeXeXeXeXeXeXeXeXeXeXeXeXeXeXeXeXeXeXeXeXeXeXeXeXeXeXeXeXeXeXeXeXeXeXeXeXeXeXeXeXeXeXeXeXeXeXeXeXeXeX        7 ] 8.8.8.8.8.8.8.8.8.8.8.8.8.8.8.3.4     . _.6X6X6X6X6X6X6X7X6X6X6X:XW     5 T T R R Y r @       7 r P P r 3     @ r P R Y R Y R R T R R R T T R E 4.8.8.8.8.3.] R r       @ P T T T T R R <.1.9.9.8.8.8.8.8.8.1.<.r o   o d v v v v v v v v M v v v v v v v v v v v v v v v v v g < O     . S 1.w.e.0.8.8.7.8.8.8.F o     eXeXeXeXeXeXeXeXeXeXeXeXeXeXeXeXeXeXeXeXeXeXeXeXeXeXeXeXeXeXeXeXeXeXeXeXeXeXeXeXeXeXeXeXeXeXeXeXeXeXeXeXeXeXeXeXeXeXeXeXeXeXeXeXeXeXeXeXeXeXeXeXeXeXeXeXeXeXeXeXeXeXeXeXeXeXeXeXeXeXeXeXeXeXeXeXeXeXeXeXeX",
"eXeXeXeXeXeXeXeXeXeXeXeXeXeXeXeXeXeXeXeXeXeXeXeXeXeXeXeXeXeXeXeXeXeXeXeXeXeXeXeXeXeXeXeXeXeXeXeXeXeXeXeXeXeXeXeXeXeXeXeXeXeXeXeXeXeXeXeXeXeXeXeXeXeXeXeXeXeXeXeXeXeXeXeXeXeXeXeXeXeXeXeXeXeXeXeXeXeXeXeXeXeXeXeXeXeXeXeXeXeX        G 8.8.8.8.8.8.8.8.8.8.8.8.8.8.8.7.P @     x.1X8X6X6X6X6X6X6X6X6X6X6X2X6.    3 P T R Y r @     & G 1.7.7.7.8.R F     + 4 G R R R R Y T R T T T T E 1.8.8.8.8.7.<.R R R S       @ P T R R Y Y T <.1.1.8.9.1.8.8.8.<.S       + d v v v v v v v v v v v v v v v v v v v v v v v v v g , o       G 0.e.w.0.8.8.8.8.8.8.8.<.&     eXeXeXeXeXeXeXeXeXeXeXeXeXeXeXeXeXeXeXeXeXeXeXeXeXeXeXeXeXeXeXeXeXeXeXeXeXeXeXeXeXeXeXeXeXeXeXeXeXeXeXeXeXeXeXeXeXeXeXeXeXeXeXeXeXeXeXeXeXeXeXeXeXeXeXeXeXeXeXeXeXeXeXeXeXeXeXeXeXeXeXeXeXeXeXeXeXeXeXeXeX",
"eXeXeXeXeXeXeXeXeXeXeXeXeXeXeXeXeXeXeXeXeXeXeXeXeXeXeXeXeXeXeXeXeXeXeXeXeXeXeXeXeXeXeXeXeXeXeXeXeXeXeXeXeXeXeXeXeXeXeXeXeXeXeXeXeXeXeXeXeXeXeXeXeXeXeXeXeXeXeXeXeXeXeXeXeXeXeXeXeXeXeXeXeXeXeXeXeXeXeXeXeXeXeXeXeXeXeXeXeX        4 7.8.8.8.8.8.8.8.8.8.8.8.8.8.8.8.3.r     D !.6X6X6X6X6X6X6X6X6X6X6X6X2Xk.+   . G R Y S &     @ P 8.8.8.8.8.8.8.] G o   + 3 G R Y R R R R T T T <.1.9.8.8.8.1.] R R Y T T D         G T T R R R T <.<.1.0.0.8.8.<.S +         c v v v v v v v v v v v v v v v v v v v v v v v v < o     + F 9.e.e.e.9.8.8.8.8.8.8.8.8.8.G +     eXeXeXeXeXeXeXeXeXeXeXeXeXeXeXeXeXeXeXeXeXeXeXeXeXeXeXeXeXeXeXeXeXeXeXeXeXeXeXeXeXeXeXeXeXeXeXeXeXeXeXeXeXeXeXeXeXeXeXeXeXeXeXeXeXeXeXeXeXeXeXeXeXeXeXeXeXeXeXeXeXeXeXeXeXeXeXeXeXeXeXeXeXeXeXeXeXeXeXeX",
"eXeXeXeXeXeXeXeXeXeXeXeXeXeXeXeXeXeXeXeXeXeXeXeXeXeXeXeXeXeXeXeXeXeXeXeXeXeXeXeXeXeXeXeXeXeXeXeXeXeXeXeXeXeXeXeXeXeXeXeXeXeXeXeXeXeXeXeXeXeXeXeXeXeXeXeXeXeXeXeXeXeXeXeXeXeXeXeXeXeXeXeXeXeXeXeXeXeXeXeXeXeXeXeXeXeXeXeXeX      + P 4.8.8.8.7.9.8.8.8.8.8.8.8.8.8.8.P       2.>X2X6X6X6X6X6X6X6X6X6X6X6X6XQ.@   o F R S &     @ G 8.8.8.8.8.8.8.8.8.1.P .   . 3 G R T T R R T R E 1.8.8.8.8.4.<.E T Y R T T T F         F T R Y T R T ] 1.8.8.8.<.F @           f v v v v v v v v v v v v v v v v v v v v v x < O     o 7 [ 8.e.e.9.8.8.8.8.8.8.8.8.8.8.8.<.5     eXeXeXeXeXeXeXeXeXeXeXeXeXeXeXeXeXeXeXeXeXeXeXeXeXeXeXeXeXeXeXeXeXeXeXeXeXeXeXeXeXeXeXeXeXeXeXeXeXeXeXeXeXeXeXeXeXeXeXeXeXeXeXeXeXeXeXeXeXeXeXeXeXeXeXeXeXeXeXeXeXeXeXeXeXeXeXeXeXeXeXeXeXeXeXeXeXeXeXeX",
"eXeXeXeXeXeXeXeXeXeXeXeXeXeXeXeXeXeXeXeXeXeXeXeXeXeXeXeXeXeXeXeXeXeXeXeXeXeXeXeXeXeXeXeXeXeXeXeXeXeXeXeXeXeXeXeXeXeXeXeXeXeXeXeXeXeXeXeXeXeXeXeXeXeXeXeXeXeXeXeXeXeXeXeXeXeXeXeXeXeXeXeXeXeXeXeXeXeXeXeXeXeXeXeXeXeXeXeX        @ <.8.8.8.8.7.7.8.8.8.8.8.8.8.8.8.] 4     D Q.:X>X1X1X2X6X6X6X6X6X6X6X6X6X).5     8 D &     @ F 8.8.8.8.8.8.8.8.8.8.8.] P .     & F T T T T T [ 1.8.8.8.8.7.<.E Y R R R T T T T G o       D R R T T T T ] 3.7.1.G @     X     @ d x v v v v v v v v v v v v v v v v v v x p - o     o 7 ] e.e.0.0.9.8.7.8.8.8.8.8.8.8.8.8.8.P @     eXeXeXeXeXeXeXeXeXeXeXeXeXeXeXeXeXeXeXeXeXeXeXeXeXeXeXeXeXeXeXeXeXeXeXeXeXeXeXeXeXeXeXeXeXeXeXeXeXeXeXeXeXeXeXeXeXeXeXeXeXeXeXeXeXeXeXeXeXeXeXeXeXeXeXeXeXeXeXeXeXeXeXeXeXeXeXeXeXeXeXeXeXeXeXeXeXeXeX",
"eXeXeXeXeXeXeXeXeXeXeXeXeXeXeXeXeXeXeXeXeXeXeXeXeXeXeXeXeXeXeXeXeXeXeXeXeXeXeXeXeXeXeXeXeXeXeXeXeXeXeXeXeXeXeXeXeXeXeXeXeXeXeXeXeXeXeXeXeXeXeXeXeXeXeXeXeXeXeXeXeXeXeXeXeXeXeXeXeXeXeXeXeXeXeXeXeXeXeXeXeXeXeXeXeXeXeXeX        Y 7.8.8.8.8.7.7.8.8.8.8.8.8.8.8.7.Y .   o 2.'.>X>X>X>X>X1X2X6X6X6X6X6X6X6X>X2.    & 3     + D 7.8.8.8.8.8.8.8.8.8.8.8.8.1.Y &     3 F T T T E 1.8.8.8.8.7.<.E T R T R Y T T T T R G .       S R R Y T R T ] 3.G @     @ ;     D l v v v v v v v v v v v v v v v v v h d : O       @ R e.e.e.0.8.8.8.8.8.8.8.8.8.8.8.8.8.8.8.<.S       eXeXeXeXeXeXeXeXeXeXeXeXeXeXeXeXeXeXeXeXeXeXeXeXeXeXeXeXeXeXeXeXeXeXeXeXeXeXeXeXeXeXeXeXeXeXeXeXeXeXeXeXeXeXeXeXeXeXeXeXeXeXeXeXeXeXeXeXeXeXeXeXeXeXeXeXeXeXeXeXeXeXeXeXeXeXeXeXeXeXeXeXeXeXeXeXeXeX",
"eXeXeXeXeXeXeXeXeXeXeXeXeXeXeXeXeXeXeXeXeXeXeXeXeXeXeXeXeXeXeXeXeXeXeXeXeXeXeXeXeXeXeXeXeXeXeXeXeXeXeXeXeXeXeXeXeXeXeXeXeXeXeXeXeXeXeXeXeXeXeXeXeXeXeXeXeXeXeXeXeXeXeXeXeXeXeXeXeXeXeXeXeXeXeXeXeXeXeXeXeXeXeXeXeXeXeX        & E 7.8.8.8.8.9.7.8.8.8.8.8.8.8.8.7.&     . Q.>X>X>X>X>X>X>X1X1X1X6X6X6X6X6X6X2.          @ S 7.7.8.8.8.8.8.8.8.8.8.8.8.8.8.1.Y &     & S T E 1.8.8.8.8.7.<.E T T Y R T T R T T T R R P @       r R R T T T T r &     + r &     Q : b v v v v v v v v v v v v v v h p , O       4 R w.e.e.w.0.8.8.8.8.8.8.8.8.8.8.8.8.8.8.7.7.7.Y @     eXeXeXeXeXeXeXeXeXeXeXeXeXeXeXeXeXeXeXeXeXeXeXeXeXeXeXeXeXeXeXeXeXeXeXeXeXeXeXeXeXeXeXeXeXeXeXeXeXeXeXeXeXeXeXeXeXeXeXeXeXeXeXeXeXeXeXeXeXeXeXeXeXeXeXeXeXeXeXeXeXeXeXeXeXeXeXeXeXeXeXeXeXeXeXeXeXeX",
"eXeXeXeXeXeXeXeXeXeXeXeXeXeXeXeXeXeXeXeXeXeXeXeXeXeXeXeXeXeXeXeXeXeXeXeXeXeXeXeXeXeXeXeXeXeXeXeXeXeXeXeXeXeXeXeXeXeXeXeXeXeXeXeXeXeXeXeXeXeXeXeXeXeXeXeXeXeXeXeXeXeXeXeXeXeXeXeXeXeXeXeXeXeXeXeXeXeXeXeXeXeXeXeXeXeXeX        o @ D H <.<.4.9.7.8.7.7.8.8.8.8.8.F       r.].>X>X>X>X>X>X>X>X>X>X>X1X2X6X6X2Xl.@       + r 4.7.8.8.8.8.8.8.8.8.8.8.8.8.8.8.8.1.R &     & S 1.8.8.8.8.8.1.[ T Y R E T T R R R R R Y R ] ] 5 .     r T T T Y 7 @     + S Y +     H 1 h v v v v v v v v v v v v h p , O       4 R 8.w.e.w.0.8.8.8.8.8.8.8.8.8.8.8.8.8.8.8.8.8.8.8.<.S       eXeXeXeXeXeXeXeXeXeXeXeXeXeXeXeXeXeXeXeXeXeXeXeXeXeXeXeXeXeXeXeXeXeXeXeXeXeXeXeXeXeXeXeXeXeXeXeXeXeXeXeXeXeXeXeXeXeXeXeXeXeXeXeXeXeXeXeXeXeXeXeXeXeXeXeXeXeXeXeXeXeXeXeXeXeXeXeXeXeXeXeXeXeXeXeXeX",
"eXeXeXeXeXeXeXeXeXeXeXeXeXeXeXeXeXeXeXeXeXeXeXeXeXeXeXeXeXeXeXeXeXeXeXeXeXeXeXeXeXeXeXeXeXeXeXeXeXeXeXeXeXeXeXeXeXeXeXeXeXeXeXeXeXeXeXeXeXeXeXeXeXeXeXeXeXeXeXeXeXeXeXeXeXeXeXeXeXeXeXeXeXeXeXeXeXeXeXeXeXeXeXeXeXeX                    @ 8 F ] 7.7.8.8.8.8.8.] 5     H E.>X>X>X>X>X>X>X>X>X>X>X>X>X1X1X2X2Xc.o     + 8 1.7.8.8.8.8.8.8.8.8.8.8.8.8.8.8.8.8.8.3.E 4     3 P 8.8.8.7.<.E Y R R R Y R E Y Y R Y R R ] 1.8.1.S @     7 G P 5 @     & S Y H       T O d v v v v v v v v v v g < : o       7 T 4.0.e.e.0.9.8.8.8.8.8.8.8.8.8.8.8.8.8.8.8.8.8.8.8.8.8.E @     eXeXeXeXeXeXeXeXeXeXeXeXeXeXeXeXeXeXeXeXeXeXeXeXeXeXeXeXeXeXeXeXeXeXeXeXeXeXeXeXeXeXeXeXeXeXeXeXeXeXeXeXeXeXeXeXeXeXeXeXeXeXeXeXeXeXeXeXeXeXeXeXeXeXeXeXeXeXeXeXeXeXeXeXeXeXeXeXeXeXeXeXeXeXeXeXeX",
"eXeXeXeXeXeXeXeXeXeXeXeXeXeXeXeXeXeXeXeXeXeXeXeXeXeXeXeXeXeXeXeXeXeXeXeXeXeXeXeXeXeXeXeXeXeXeXeXeXeXeXeXeXeXeXeXeXeXeXeXeXeXeXeXeXeXeXeXeXeXeXeXeXeXeXeXeXeXeXeXeXeXeXeXeXeXeXeXeXeXeXeXeXeXeXeXeXeXeXeXeXeXeXeXeXeX                          + 5 Y <.8.8.8.7.P     o 8.>X>X>X>X>X>X>X>X>X>X>X>X>X>X>X>X1X!.@.+   o 5 <.8.8.8.8.8.8.8.8.8.8.8.8.8.8.8.8.8.8.8.8.3.E 5     4 G 8.8.1.[ Y T T R Y E Y Y R Y R Y R ] 1.8.8.9.1.S 3     . . + o   7 D T R S     ; !   < x v v v v v b x d , O o       8 T 3.9.e.e.w.8.8.8.8.8.8.8.8.8.8.8.8.7.8.8.8.8.8.8.8.8.8.8.8.1.F       eXeXeXeXeXeXeXeXeXeXeXeXeXeXeXeXeXeXeXeXeXeXeXeXeXeXeXeXeXeXeXeXeXeXeXeXeXeXeXeXeXeXeXeXeXeXeXeXeXeXeXeXeXeXeXeXeXeXeXeXeXeXeXeXeXeXeXeXeXeXeXeXeXeXeXeXeXeXeXeXeXeXeXeXeXeXeXeXeXeXeXeXeXeXeXeX",
"eXeXeXeXeXeXeXeXeXeXeXeXeXeXeXeXeXeXeXeXeXeXeXeXeXeXeXeXeXeXeXeXeXeXeXeXeXeXeXeXeXeXeXeXeXeXeXeXeXeXeXeXeXeXeXeXeXeXeXeXeXeXeXeXeXeXeXeXeXeXeXeXeXeXeXeXeXeXeXeXeXeXeXeXeXeXeXeXeXeXeXeXeXeXeXeXeXeXeXeXeXeXeX                  - O 1 a 1 a > o + . & [ <.7.[ o     t '.>X>X>X>X>X>X>X>X>X>X>X>X>X>X>X>XQ.T @   . 5 <.8.8.8.8.8.8.8.8.8.8.8.8.8.8.8.8.8.8.8.8.8.7.] R 7     3 G 1.[ R R T R T R Y E Y T R R R ] 1.8.8.8.0.1.1.P S 7 3 3 3 8 D Y R R R 7     r W   O g v v v v h < O O       o r E 3.9.e.e.w.9.8.8.8.8.8.8.8.8.8.8.8.8.8.8.8.8.8.8.8.8.8.8.8.8.8.7.<.+     eXeXeXeXeXeXeXeXeXeXeXeXeXeXeXeXeXeXeXeXeXeXeXeXeXeXeXeXeXeXeXeXeXeXeXeXeXeXeXeXeXeXeXeXeXeXeXeXeXeXeXeXeXeXeXeXeXeXeXeXeXeXeXeXeXeXeXeXeXeXeXeXeXeXeXeXeXeXeXeXeXeXeXeXeXeXeXeXeXeXeXeXeXeXeXeX",
"eXeXeXeXeXeXeXeXeXeXeXeXeXeXeXeXeXeXeXeXeXeXeXeXeXeXeXeXeXeXeXeXeXeXeXeXeXeXeXeXeXeXeXeXeXeXeXeXeXeXeXeXeXeXeXeXeXeXeXeXeXeXeXeXeXeXeXeXeXeXeXeXeXeXeXeXeXeXeXeXeXeXeXeXeXeXeXeXeXeXeXeXeXeXeXeXeXeXeXeXeXeX            # 1 k B +.*.&.*.*.#.O.b g : O # 8 W S .   @ l.[.>X>X>X>X>X>X>X>X>X>X>X>X>X>X>XQ.r @     3 ] 8.8.8.8.8.8.8.8.8.7.7.7.7.8.8.8.8.8.8.8.8.8.3.R R R 7     & r Y R Y R R T R T E T R T T [ <.8.8.8.8.8.<.R T R Y Y Y Y T T T R T R 3     H :X:X# < g g p :           @ G <.4.0.e.e.e.0.8.8.8.8.8.8.8.8.8.8.8.8.8.8.8.8.8.8.8.8.8.8.8.8.8.8.8.7.3.D       eXeXeXeXeXeXeXeXeXeXeXeXeXeXeXeXeXeXeXeXeXeXeXeXeXeXeXeXeXeXeXeXeXeXeXeXeXeXeXeXeXeXeXeXeXeXeXeXeXeXeXeXeXeXeXeXeXeXeXeXeXeXeXeXeXeXeXeXeXeXeXeXeXeXeXeXeXeXeXeXeXeXeXeXeXeXeXeXeXeXeXeXeXeXeX",
"eXeXeXeXeXeXeXeXeXeXeXeXeXeXeXeXeXeXeXeXeXeXeXeXeXeXeXeXeXeXeXeXeXeXeXeXeXeXeXeXeXeXeXeXeXeXeXeXeXeXeXeXeXeXeXeXeXeXeXeXeXeXeXeXeXeXeXeXeXeXeXeXeXeXeXeXeXeXeXeXeXeXeXeXeXeXeXeXeXeXeXeXeXeXeXeXeXeXeXeXeX          O N V =.*.=.=.=.&.O.C n v n v v g , O X @     D Q.>X>X>X>X>X>X>X>X>X>X>X>X>X>X'.R..     . 4 E 8.8.8.8.8.8.8.8.8.8.7.T P P <.4.8.8.8.8.8.8.4.] R R <.] r     . 7 Y R Y T R Y Y Y T R T [ 1.8.8.8.8.8.<.[ R Y T R T R R R R T R Y Y &     S 7X2XW   O O           4 Y 4.9.e.e.e.0.8.8.8.8.8.8.8.8.8.8.8.8.8.8.8.8.8.8.8.8.8.8.8.8.8.8.8.8.8.8.4.] Y       eXeXeXeXeXeXeXeXeXeXeXeXeXeXeXeXeXeXeXeXeXeXeXeXeXeXeXeXeXeXeXeXeXeXeXeXeXeXeXeXeXeXeXeXeXeXeXeXeXeXeXeXeXeXeXeXeXeXeXeXeXeXeXeXeXeXeXeXeXeXeXeXeXeXeXeXeXeXeXeXeXeXeXeXeXeXeXeXeXeXeXeXeXeXeX",
"eXeXeXeXeXeXeXeXeXeXeXeXeXeXeXeXeXeXeXeXeXeXeXeXeXeXeXeXeXeXeXeXeXeXeXeXeXeXeXeXeXeXeXeXeXeXeXeXeXeXeXeXeXeXeXeXeXeXeXeXeXeXeXeXeXeXeXeXeXeXeXeXeXeXeXeXeXeXeXeXeXeXeXeXeXeXeXeXeXeXeXeXeXeXeXeXeXeXeXeX        1 j *.*.=.=.=.*.O.O.v M v v v v v v v v p O       z.>X>X>X>X>X>X>X>X>X>X>X>X>X>X!.k.X       4 R 8.8.8.8.8.8.8.8.8.8.7.P     . & Y 1.8.8.8.8.8.1.R R ] 7.7.] S     + 5 P T T T R E T T Y [ <.8.8.8.8.1.<.E T T R T T T T R Y Y R R T Y 4     Q l.5 5         @ o 8 ] 0.w.e.e.e.0.8.8.8.8.8.8.8.8.8.8.8.8.8.8.8.8.8.8.8.8.8.8.8.8.8.8.8.8.8.8.7.3.E S o       eXeXeXeXeXeXeXeXeXeXeXeXeXeXeXeXeXeXeXeXeXeXeXeXeXeXeXeXeXeXeXeXeXeXeXeXeXeXeXeXeXeXeXeXeXeXeXeXeXeXeXeXeXeXeXeXeXeXeXeXeXeXeXeXeXeXeXeXeXeXeXeXeXeXeXeXeXeXeXeXeXeXeXeXeXeXeXeXeXeXeXeXeXeXeX",
"eXeXeXeXeXeXeXeXeXeXeXeXeXeXeXeXeXeXeXeXeXeXeXeXeXeXeXeXeXeXeXeXeXeXeXeXeXeXeXeXeXeXeXeXeXeXeXeXeXeXeXeXeXeXeXeXeXeXeXeXeXeXeXeXeXeXeXeXeXeXeXeXeXeXeXeXeXeXeXeXeXeXeXeXeXeXeXeXeXeXeXeXeXeXeXeXeXeX        O B #.-.=.=.=.&.#.M n v v v v v v v v v v v x g -   Q _.>X>X>X>X>X>X>X>X>X>X>X>X>XW.W +       4 Y 8.8.8.8.8.8.8.8.8.8.8.] @         . Y 7.8.8.8.8.E R E 3.7.8.8.] D     + 4 P R T T Y R T [ <.8.8.8.8.9.1.[ Y R R R T T R T R R T R R ] Y 3     { 5       + r P R 4.e.e.e.w.0.9.9.8.8.8.8.8.8.8.8.8.8.8.8.8.8.8.8.8.8.8.8.8.8.8.8.8.8.8.8.8.8.7.3.E P &       eXeXeXeXeXeXeXeXeXeXeXeXeXeXeXeXeXeXeXeXeXeXeXeXeXeXeXeXeXeXeXeXeXeXeXeXeXeXeXeXeXeXeXeXeXeXeXeXeXeXeXeXeXeXeXeXeXeXeXeXeXeXeXeXeXeXeXeXeXeXeXeXeXeXeXeXeXeXeXeXeXeXeXeXeXeXeXeXeXeXeXeXeXeXeXeX",
"eXeXeXeXeXeXeXeXeXeXeXeXeXeXeXeXeXeXeXeXeXeXeXeXeXeXeXeXeXeXeXeXeXeXeXeXeXeXeXeXeXeXeXeXeXeXeXeXeXeXeXeXeXeXeXeXeXeXeXeXeXeXeXeXeXeXeXeXeXeXeXeXeXeXeXeXeXeXeXeXeXeXeXeXeXeXeXeXeXeXeXeXeXeXeXeXeX        > $.*.-.-.-.*.O.m v v v v v v v v v v v v v v v x h O T :X>X>X>X>X>X>X>X>X>X>X>X'.x.4 X       & Y 8.8.8.8.8.8.8.8.8.8.8.8.<.@           + <.7.8.8.1.E R E 4.8.8.8.8.<.F     . 4 H Y T T Y [ <.1.8.8.8.8.1.[ T Y E Y R T Y E Y Y T T R ] 6.Y +     k.r.    8 4.8.w.e.e.w.9.9.9.8.8.8.8.8.8.8.8.8.8.8.8.8.8.8.8.8.8.8.8.8.8.8.8.8.8.8.8.8.8.8.8.4.<.Y S .       eXeXeXeXeXeXeXeXeXeXeXeXeXeXeXeXeXeXeXeXeXeXeXeXeXeXeXeXeXeXeXeXeXeXeXeXeXeXeXeXeXeXeXeXeXeXeXeXeXeXeXeXeXeXeXeXeXeXeXeXeXeXeXeXeXeXeXeXeXeXeXeXeXeXeXeXeXeXeXeXeXeXeXeXeXeXeXeXeXeXeXeXeXeXeXeXeX",
"eXeXeXeXeXeXeXeXeXeXeXeXeXeXeXeXeXeXeXeXeXeXeXeXeXeXeXeXeXeXeXeXeXeXeXeXeXeXeXeXeXeXeXeXeXeXeXeXeXeXeXeXeXeXeXeXeXeXeXeXeXeXeXeXeXeXeXeXeXeXeXeXeXeXeXeXeXeXeXeXeXeXeXeXeXeXeXeXeXeXeXeXeXeXeXeXeX      1 -.*.=.=.*.&.n M v v v v v v v v v v v v v v v v v v g o R.:X>X>X>X>X>X>X>X>X>X!.r.          @ P 8.8.8.8.8.8.8.8.8.8.8.8.8.<.r           + Y 4.8.7.<.Y R 1.8.8.8.8.8.8.<.G     . 3 P T T E <.8.9.8.8.8.<.[ Y T T Y E T T E Y Y R R T [ 3.7.P       ]._.@   r 4.w.w.9.1.E <.9.8.8.8.8.8.8.8.8.8.8.8.8.8.8.8.8.8.8.8.8.8.8.8.8.8.8.8.8.8.8.8.7.1.] R S +       eXeXeXeXeXeXeXeXeXeXeXeXeXeXeXeXeXeXeXeXeXeXeXeXeXeXeXeXeXeXeXeXeXeXeXeXeXeXeXeXeXeXeXeXeXeXeXeXeXeXeXeXeXeXeXeXeXeXeXeXeXeXeXeXeXeXeXeXeXeXeXeXeXeXeXeXeXeXeXeXeXeXeXeXeXeXeXeXeXeXeXeXeXeXeXeXeXeX",
"eXeXeXeXeXeXeXeXeXeXeXeXeXeXeXeXeXeXeXeXeXeXeXeXeXeXeXeXeXeXeXeXeXeXeXeXeXeXeXeXeXeXeXeXeXeXeXeXeXeXeXeXeXeXeXeXeXeXeXeXeXeXeXeXeXeXeXeXeXeXeXeXeXeXeXeXeXeXeXeXeXeXeXeXeXeXeXeXeXeXeXeXeXeXeXeX      j -.-.-.-.*.#.v v v v M v v v v v v v v v v v v v v v v v < @ l.).>X>X>X>X>X>X>Xc.@.          . G 8.8.8.8.8.8.8.8.8.8.8.8.8.8.8.P           o F 7.8.1.T T ] 7.7.8.8.8.8.8.7.<.H .   o & G E <.1.9.8.8.8.1.[ T R Y T R T T E Y T E T T [ 1.7.3.G     r :X:Xk.  @ H 3.W Y T R R 3.8.8.8.8.8.8.8.8.8.8.8.8.8.8.8.8.8.8.8.8.8.8.8.8.8.8.8.8.8.8.4.1.E R 8 +       eXeXeXeXeXeXeXeXeXeXeXeXeXeXeXeXeXeXeXeXeXeXeXeXeXeXeXeXeXeXeXeXeXeXeXeXeXeXeXeXeXeXeXeXeXeXeXeXeXeXeXeXeXeXeXeXeXeXeXeXeXeXeXeXeXeXeXeXeXeXeXeXeXeXeXeXeXeXeXeXeXeXeXeXeXeXeXeXeXeXeXeXeXeXeXeXeXeXeX",
"eXeXeXeXeXeXeXeXeXeXeXeXeXeXeXeXeXeXeXeXeXeXeXeXeXeXeXeXeXeXeXeXeXeXeXeXeXeXeXeXeXeXeXeXeXeXeXeXeXeXeXeXeXeXeXeXeXeXeXeXeXeXeXeXeXeXeXeXeXeXeXeXeXeXeXeXeXeXeXeXeXeXeXeXeXeXeXeXeXeXeXeXeXeXeX      l *.-.-.-.&.o.v v v v v v v v v v v v v v v v v v v v v v v h , 4 ! V.'.>X>X>X].z.7 o           5 3.1.8.8.8.8.8.8.8.8.8.8.8.8.8.8.8.G         + ] 9.1.<.R R 1.8.8.8.8.8.8.8.8.8.<.P +     3 P 1.8.8.8.9.1.[ R T R R T T R Y E Y T T T [ 1.8.8.3.r     W :X0X:X    @ H T R R T R E 8.8.8.8.7.8.8.8.8.8.8.8.8.8.8.8.8.8.8.8.8.8.8.8.8.8.8.8.7.4.] T H &           eXeXeXeXeXeXeXeXeXeXeXeXeXeXeXeXeXeXeXeXeXeXeXeXeXeXeXeXeXeXeXeXeXeXeXeXeXeXeXeXeXeXeXeXeXeXeXeXeXeXeXeXeXeXeXeXeXeXeXeXeXeXeXeXeXeXeXeXeXeXeXeXeXeXeXeXeXeXeXeXeXeXeXeXeXeXeXeXeXeXeXeXeXeXeXeXeXeXeX",
"eXeXeXeXeXeXeXeXeXeXeXeXeXeXeXeXeXeXeXeXeXeXeXeXeXeXeXeXeXeXeXeXeXeXeXeXeXeXeXeXeXeXeXeXeXeXeXeXeXeXeXeXeXeXeXeXeXeXeXeXeXeXeXeXeXeXeXeXeXeXeXeXeXeXeXeXeXeXeXeXeXeXeXeXeXeXeXeXeXeXeXeXeXeXeX    j &.-.=.=.&.m v v v v v v v v v v v v v v v v v v v v v v v v v d O o   5.x.:XQ.q.              5 R R E <.7.8.8.8.8.8.8.8.8.8.8.8.8.8.7.Y r 3 5 T 1.8.1.E R <.7.8.8.8.8.8.8.8.8.8.8.1.P &     5 R 8.8.7.4.[ R T T R Y R R R T R R R R E 3.7.8.8.3.4     H Q.6X2Xk.  o 4 Y T R T T T 1.8.8.8.8.8.8.8.8.8.8.8.8.8.8.8.8.8.8.8.8.8.8.8.8.8.8.4.] R R Y 7             eXeXeXeXeXeXeXeXeXeXeXeXeXeXeXeXeXeXeXeXeXeXeXeXeXeXeXeXeXeXeXeXeXeXeXeXeXeXeXeXeXeXeXeXeXeXeXeXeXeXeXeXeXeXeXeXeXeXeXeXeXeXeXeXeXeXeXeXeXeXeXeXeXeXeXeXeXeXeXeXeXeXeXeXeXeXeXeXeXeXeXeXeXeXeXeXeXeXeX",
"eXeXeXeXeXeXeXeXeXeXeXeXeXeXeXeXeXeXeXeXeXeXeXeXeXeXeXeXeXeXeXeXeXeXeXeXeXeXeXeXeXeXeXeXeXeXeXeXeXeXeXeXeXeXeXeXeXeXeXeXeXeXeXeXeXeXeXeXeXeXeXeXeXeXeXeXeXeXeXeXeXeXeXeXeXeXeXeXeXeXeXeXeXeX    O C -.-.=.*.m v v v v v v v v v v v v v v v v v v M v v v v v v v b :       7 D Q       @ 4 E & @ R R T R R [ 8.8.8.8.8.8.8.8.8.8.8.8.8.8.8.1.7.1.7.7.7.E T E 1.8.8.8.8.8.8.8.8.8.8.8.8.1.R &   o 5 R 8.4.E R T T T T T R Y Y R Y T Y E 3.4.8.8.8.4.          > 6.l.      H R R R T T [ 8.8.8.8.8.8.8.8.8.8.8.8.8.8.8.8.8.8.8.8.8.8.8.8.4.<.[ R Y r o     @ F o       eXeXeXeXeXeXeXeXeXeXeXeXeXeXeXeXeXeXeXeXeXeXeXeXeXeXeXeXeXeXeXeXeXeXeXeXeXeXeXeXeXeXeXeXeXeXeXeXeXeXeXeXeXeXeXeXeXeXeXeXeXeXeXeXeXeXeXeXeXeXeXeXeXeXeXeXeXeXeXeXeXeXeXeXeXeXeXeXeXeXeXeXeXeXeXeXeXeX",
"eXeXeXeXeXeXeXeXeXeXeXeXeXeXeXeXeXeXeXeXeXeXeXeXeXeXeXeXeXeXeXeXeXeXeXeXeXeXeXeXeXeXeXeXeXeXeXeXeXeXeXeXeXeXeXeXeXeXeXeXeXeXeXeXeXeXeXeXeXeXeXeXeXeXeXeXeXeXeXeXeXeXeXeXeXeXeXeXeXeXeXeXeXeX    l -.-.-.*.M v v v v v v v v v v v v v v v v v v v v v v v v v v v v g O               & F ] <.@ 3 P T T R Y R [ 8.8.8.8.8.8.8.8.8.8.8.8.8.8.8.8.7.4.[ E T R ] 7.8.8.8.8.8.8.8.8.8.8.8.8.8.1.R &     r R [ R R R T T R R R R R R R R E <.4.8.8.8.8.]       O O o           4 T Y Y E T T 1.7.8.8.8.8.8.8.8.8.8.8.8.8.8.8.8.8.8.8.7.7.4.<.] E Y G 7     . 7 E @.s       eXeXeXeXeXeXeXeXeXeXeXeXeXeXeXeXeXeXeXeXeXeXeXeXeXeXeXeXeXeXeXeXeXeXeXeXeXeXeXeXeXeXeXeXeXeXeXeXeXeXeXeXeXeXeXeXeXeXeXeXeXeXeXeXeXeXeXeXeXeXeXeXeXeXeXeXeXeXeXeXeXeXeXeXeXeXeXeXeXeXeXeXeXeXeXeXeXeX",
"eXeXeXeXeXeXeXeXeXeXeXeXeXeXeXeXeXeXeXeXeXeXeXeXeXeXeXeXeXeXeXeXeXeXeXeXeXeXeXeXeXeXeXeXeXeXeXeXeXeXeXeXeXeXeXeXeXeXeXeXeXeXeXeXeXeXeXeXeXeXeXeXeXeXeXeXeXeXeXeXeXeXeXeXeXeXeXeXeXeXeXeXeX    1 $.-.-.*.m M v v v v v v v v v v v v v v v v v v v v v v v v v v v v x d O           & R 1.8.<.4 . S T T T T R T [ 7.8.8.8.8.8.8.8.8.8.8.8.8.8.4.1.R E T T [ 1.8.8.8.8.8.8.8.8.8.8.8.8.8.8.8.1.[ 4     S R R Y R T T T T Y R Y T R R <.7.8.8.8.8.8.Y     o < v h d , o       Y R E Y T T [ 4.8.8.8.8.8.8.8.8.8.8.8.8.8.8.8.8.8.7.4.1.] E T T Y 5 .     5 R 9.4.!       eXeXeXeXeXeXeXeXeXeXeXeXeXeXeXeXeXeXeXeXeXeXeXeXeXeXeXeXeXeXeXeXeXeXeXeXeXeXeXeXeXeXeXeXeXeXeXeXeXeXeXeXeXeXeXeXeXeXeXeXeXeXeXeXeXeXeXeXeXeXeXeXeXeXeXeXeXeXeXeXeXeXeXeXeXeXeXeXeXeXeXeXeXeXeXeXeXeX",
"eXeXeXeXeXeXeXeXeXeXeXeXeXeXeXeXeXeXeXeXeXeXeXeXeXeXeXeXeXeXeXeXeXeXeXeXeXeXeXeXeXeXeXeXeXeXeXeXeXeXeXeXeXeXeXeXeXeXeXeXeXeXeXeXeXeXeXeXeXeXeXeXeXeXeXeXeXeXeXeXeXeXeXeXeXeXeXeXeXeXeXeXeX    l -.-.*.#.M v v v v v M v v v v v v v v v v v v v v v v v v v v v v v h d h :         r <.8.8.8.F   3 F Y R T T R T ] 7.7.8.8.8.8.8.8.8.8.8.7.1.] R T T T 1.1.8.8.8.8.8.8.8.8.8.8.8.8.8.8.8.8.8.3.P @   . G R R Y Y R Y R R T R Y R <.7.8.8.8.8.8.8.4     o p v v v v v :     7 R Y Y R T T 1.7.8.8.8.8.8.8.8.8.8.8.8.8.7.8.8.3.<.] R T T Y 8       @ P 8.8.8.8.W 4       eXeXeXeXeXeXeXeXeXeXeXeXeXeXeXeXeXeXeXeXeXeXeXeXeXeXeXeXeXeXeXeXeXeXeXeXeXeXeXeXeXeXeXeXeXeXeXeXeXeXeXeXeXeXeXeXeXeXeXeXeXeXeXeXeXeXeXeXeXeXeXeXeXeXeXeXeXeXeXeXeXeXeXeXeXeXeXeXeXeXeXeXeXeXeXeXeX",
"eXeXeXeXeXeXeXeXeXeXeXeXeXeXeXeXeXeXeXeXeXeXeXeXeXeXeXeXeXeXeXeXeXeXeXeXeXeXeXeXeXeXeXeXeXeXeXeXeXeXeXeXeXeXeXeXeXeXeXeXeXeXeXeXeXeXeXeXeXeXeXeXeXeXeXeXeXeXeXeXeXeXeXeXeXeXeXeXeXeXeX      > O.-.-.*.n v v v v v v v v v v v v v v v v v v v v v v v v v v v v v v x g h h :       & ] 8.8.7.R @   4 P T T T R T T [ 7.8.8.8.8.8.8.8.8.1.<.T T T E <.4.8.8.8.8.8.8.8.8.8.8.8.8.8.8.8.8.8.8.8.8.1.&   . F Y R R E Y E T R T Y E ] 7.8.8.8.8.8.7.S         h v v v v v g O     Y Y E Y R T [ 1.8.8.8.8.8.8.8.8.7.8.8.8.4.<.] [ R T R P 7       @ r R 3.8.8.8.8.1.z       eXeXeXeXeXeXeXeXeXeXeXeXeXeXeXeXeXeXeXeXeXeXeXeXeXeXeXeXeXeXeXeXeXeXeXeXeXeXeXeXeXeXeXeXeXeXeXeXeXeXeXeXeXeXeXeXeXeXeXeXeXeXeXeXeXeXeXeXeXeXeXeXeXeXeXeXeXeXeXeXeXeXeXeXeXeXeXeXeXeXeXeXeXeXeXeXeX",
"eXeXeXeXeXeXeXeXeXeXeXeXeXeXeXeXeXeXeXeXeXeXeXeXeXeXeXeXeXeXeXeXeXeXeXeXeXeXeXeXeXeXeXeXeXeXeXeXeXeXeXeXeXeXeXeXeXeXeXeXeXeXeXeXeXeXeXeXeXeXeXeXeXeXeXeXeXeXeXeXeXeXeXeXeXeXeXeX            : *.-.*.m v v v v v v v v v v v v v v v v v v v v v v v v v v v v v v v h g h h g O       7 7.8.7.7.8     7 P Y T T T T T [ 7.8.8.8.7.7.7.1.] T T E ] 1.7.8.8.8.8.8.8.8.8.8.8.8.8.8.8.8.8.8.8.8.8.8.7.S     5 Y R Y Y E R T T T R 1.4.8.8.8.8.8.7.F .         h v v v v v v < o   7 Y E E Y T T 1.8.8.8.8.8.8.7.8.7.7.3.] [ E Y R R Y S 4       @ S ] 8.8.8.8.8.8.8.G .     eXeXeXeXeXeXeXeXeXeXeXeXeXeXeXeXeXeXeXeXeXeXeXeXeXeXeXeXeXeXeXeXeXeXeXeXeXeXeXeXeXeXeXeXeXeXeXeXeXeXeXeXeXeXeXeXeXeXeXeXeXeXeXeXeXeXeXeXeXeXeXeXeXeXeXeXeXeXeXeXeXeXeXeXeXeXeXeXeXeXeXeXeXeXeXeXeX",
"eXeXeXeXeXeXeXeXeXeXeXeXeXeXeXeXeXeXeXeXeXeXeXeXeXeXeXeXeXeXeXeXeXeXeXeXeXeXeXeXeXeXeXeXeXeXeXeXeXeXeXeXeXeXeXeXeXeXeXeXeXeXeXeXeXeXeXeXeXeXeXeXeXeXeXeXeXeXeXeXeXeXeXeXeXeX          O > a B *.-.&.n v v v v v v v v v v v v v v v v v v v v v v v v v v v v v v v g g h h h < o     @ Y 7.8.7.3.5     7 P T T R Y T R E 1.7.8.7.1.] T T T ] 1.7.7.8.8.8.8.8.8.8.8.8.8.8.8.8.8.8.8.8.8.8.8.8.8.7.P     4 Y R R T Y T R Y T 1.1.8.8.8.8.8.8.G .         o p v v v v v v g -   . Y Y T R T Y [ 1.8.8.8.8.7.4.1.1.E R R R R R P G 8 @       5 E 8.8.8.8.8.8.8.8.8.R o     eXeXeXeXeXeXeXeXeXeXeXeXeXeXeXeXeXeXeXeXeXeXeXeXeXeXeXeXeXeXeXeXeXeXeXeXeXeXeXeXeXeXeXeXeXeXeXeXeXeXeXeXeXeXeXeXeXeXeXeXeXeXeXeXeXeXeXeXeXeXeXeXeXeXeXeXeXeXeXeXeXeXeXeXeXeXeXeXeXeXeXeXeXeXeXeXeX",
"eXeXeXeXeXeXeXeXeXeXeXeXeXeXeXeXeXeXeXeXeXeXeXeXeXeXeXeXeXeXeXeXeXeXeXeXeXeXeXeXeXeXeXeXeXeXeXeXeXeXeXeXeXeXeXeXeXeXeXeXeXeXeXeXeXeXeXeXeXeXeXeXeXeX              eXeXeXeX        f j %.$.-.=.-.=.o.M v v v v v v v v v v v v v v v v v v v M v v v v v v v v v v h g g g h h h O       S 7.8.8.4.[ 4     5 P T R T Y R R E 1.1.[ E T Y ] <.7.7.8.8.8.8.8.8.8.8.8.8.8.8.8.8.8.8.8.8.8.8.8.8.8.8.7.F     3 Y T T T R Y T R <.1.8.8.8.8.8.8.P .       o : o < v v v v v v v < o   8 Y T T T T T [ 1.4.3.] [ E R Y T T Y R Y G S &       4 Y 7.8.8.8.8.8.8.8.8.8.8.6.@     eXeXeXeXeXeXeXeXeXeXeXeXeXeXeXeXeXeXeXeXeXeXeXeXeXeXeXeXeXeXeXeXeXeXeXeXeXeXeXeXeXeXeXeXeXeXeXeXeXeXeXeXeXeXeXeXeXeXeXeXeXeXeXeXeXeXeXeXeXeXeXeXeXeXeXeXeXeXeXeXeXeXeXeXeXeXeXeXeXeXeXeXeXeXeXeXeX",
"eXeXeXeXeXeXeXeXeXeXeXeXeXeXeXeXeXeXeXeXeXeXeXeXeXeXeXeXeXeXeXeXeXeXeXeXeXeXeXeXeXeXeXeXeXeXeXeXeXeXeXeXeXeXeXeXeXeXeXeXeXeXeXeXeXeXeXeXeXeXeXeX                              O V $.*.-.=.-.=.*.*.m v v v v v v v v v v v v v v v v v v v v v v v v v v v v v v v h g g g v h v p o     @ E 8.8.8.4.E 5     5 G T T R T T T T <.R Y E 1.4.8.8.8.8.8.8.8.8.8.8.8.8.8.8.8.8.8.8.8.8.8.8.8.8.8.8.8.7.r     S Y T T E Y E Y <.1.8.8.8.8.8.8.P @         g h : : x v v v v v v h :   o G T T T R R R [ E R T R R R R T T P G 8 @       4 P <.7.8.8.8.8.8.8.8.8.8.8.8.@.7     eXeXeXeXeXeXeXeXeXeXeXeXeXeXeXeXeXeXeXeXeXeXeXeXeXeXeXeXeXeXeXeXeXeXeXeXeXeXeXeXeXeXeXeXeXeXeXeXeXeXeXeXeXeXeXeXeXeXeXeXeXeXeXeXeXeXeXeXeXeXeXeXeXeXeXeXeXeXeXeXeXeXeXeXeXeXeXeXeXeXeXeXeXeXeXeXeX",
"eXeXeXeXeXeXeXeXeXeXeXeXeXeXeXeXeXeXeXeXeXeXeXeXeXeXeXeXeXeXeXeXeXeXeXeXeXeXeXeXeXeXeXeXeXeXeXeXeXeXeXeXeXeXeXeXeXeXeXeXeXeXeXeXeXeXeXeXeX          o : j < , O             1 +.*.*.&.#.%.O.O.o.n v v v v v v v v v v v v v v v v v v v v v v v v v v v v v v v v g g g h x x h d O       Y 7.8.8.8.4.E 7     5 G E R T R T T T R 1.3.8.8.8.8.8.8.8.8.8.8.8.8.8.8.8.8.8.8.8.8.8.8.8.8.8.8.8.8.8.Y @   o r Y T T Y T Y <.1.8.8.8.8.8.8.Y .         d x v g O h v v v v v v v d o   7 P R T T R R T T T T R Y R Y G S 5 .       4 G ] 4.8.8.8.7.8.8.8.8.8.8.8.7.7.6.o   eXeXeXeXeXeXeXeXeXeXeXeXeXeXeXeXeXeXeXeXeXeXeXeXeXeXeXeXeXeXeXeXeXeXeXeXeXeXeXeXeXeXeXeXeXeXeXeXeXeXeXeXeXeXeXeXeXeXeXeXeXeXeXeXeXeXeXeXeXeXeXeXeXeXeXeXeXeXeXeXeXeXeXeXeXeXeXeXeXeXeXeXeXeXeXeXeXeX",
"eXeXeXeXeXeXeXeXeXeXeXeXeXeXeXeXeXeXeXeXeXeXeXeXeXeXeXeXeXeXeXeXeXeXeXeXeXeXeXeXeXeXeXeXeXeXeXeXeXeXeXeXeXeXeXeXeXeXeXeXeXeXeXeXeXeXeXeX        O a d v v v v c d p O o     O 2 b b n M b M v v v v v v v v v v v v v v v v v v v v v v v v v v v v v v v v v x g g g g h h x x h <       r 4.7.8.8.7.7.[ r     4 S Y R R T R T R <.8.8.8.8.8.8.8.8.8.8.8.8.8.8.8.8.8.8.8.8.8.8.8.8.8.8.8.8.8.[ r     @ P T T T E Y <.1.9.8.8.8.8.8.R +         p x v v v x d x v v v v v v h :   + S Y R T Y R T T T T R P 7 3 &       o 5 P E 4.8.7.8.8.8.8.8.8.8.8.8.8.8.9.7.@.;   eXeXeXeXeXeXeXeXeXeXeXeXeXeXeXeXeXeXeXeXeXeXeXeXeXeXeXeXeXeXeXeXeXeXeXeXeXeXeXeXeXeXeXeXeXeXeXeXeXeXeXeXeXeXeXeXeXeXeXeXeXeXeXeXeXeXeXeXeXeXeXeXeXeXeXeXeXeXeXeXeXeXeXeXeXeXeXeXeXeXeXeXeXeXeXeXeXeX",
"eXeXeXeXeXeXeXeXeXeXeXeXeXeXeXeXeXeXeXeXeXeXeXeXeXeXeXeXeXeXeXeXeXeXeXeXeXeXeXeXeXeXeXeXeXeXeXeXeXeXeXeXeXeXeXeXeXeXeXeXeXeXeXeXeXeXeX        , b x v v v v n O.O.m b d > o     O d x v v v v v v v v v v v v v v v v v v v v v v v v v v v v v v v v v v v v x g g g g h x x x h < o     4 4.8.8.8.8.8.8.[ r     3 G R Y T R R R R <.8.8.8.8.8.8.8.8.8.8.8.8.8.8.8.8.8.8.8.8.8.8.8.8.8.8.8.] S .   . 7 Y T R R Y <.1.7.8.8.8.8.8.E .         p x v v v v v x x v v v v v v v g     4 G T T R R T P P F 3           @ r P [ 4.8.8.8.8.8.7.9.8.8.8.8.8.8.8.8.8.8.E o eXeXeXeXeXeXeXeXeXeXeXeXeXeXeXeXeXeXeXeXeXeXeXeXeXeXeXeXeXeXeXeXeXeXeXeXeXeXeXeXeXeXeXeXeXeXeXeXeXeXeXeXeXeXeXeXeXeXeXeXeXeXeXeXeXeXeXeXeXeXeXeXeXeXeXeXeXeXeXeXeXeXeXeXeXeXeXeXeXeXeXeXeXeXeXeXeXeXeX",
"eXeXeXeXeXeXeXeXeXeXeXeXeXeXeXeXeXeXeXeXeXeXeXeXeXeXeXeXeXeXeXeXeXeXeXeXeXeXeXeXeXeXeXeXeXeXeXeXeXeXeXeXeXeXeXeXeXeXeXeXeXeXeXeXeXeX        < M v v v v v v v m &.=.*.O.n j o o   O , x v v v v v v v v v v v v v v v v v v v v v v v v v v v v v v v v v v x g g g g g g x x h b d o     & <.8.8.8.8.8.8.8.] S     & S Y R T Y Y R R <.7.8.8.8.8.8.8.8.8.8.8.8.8.8.8.8.8.8.8.8.8.8.8.8.8.] F .     & P T R Y R ] 1.8.8.8.8.8.8.] +         < x v v v v M v v x x v v v v v v x 2   o 7 P Y Y 8 3 5 @           & r R <.7.8.8.8.8.8.8.8.7.7.8.8.8.8.8.8.8.8.8.8.F       eXeXeXeXeXeXeXeXeXeXeXeXeXeXeXeXeXeXeXeXeXeXeXeXeXeXeXeXeXeXeXeXeXeXeXeXeXeXeXeXeXeXeXeXeXeXeXeXeXeXeXeXeXeXeXeXeXeXeXeXeXeXeXeXeXeXeXeXeXeXeXeXeXeXeXeXeXeXeXeXeXeXeXeXeXeXeXeXeXeXeXeXeXeXeXeXeX",
"eXeXeXeXeXeXeXeXeXeXeXeXeXeXeXeXeXeXeXeXeXeXeXeXeXeXeXeXeXeXeXeXeXeXeXeXeXeXeXeXeXeXeXeXeXeXeXeXeXeXeXeXeXeXeXeXeXeXeXeXeXeXeXeX      o - h v v v v M n m M v v O.&.-.-.-.*.V 1     o : v v v v v v v v v v v v v v v v v v v v v v v v v v v v v v v v v x h g g g g p , g x h h h O       E 8.8.8.8.8.8.8.8.] G     & S Y R R Y R R R ] 8.8.8.8.8.8.8.8.8.8.8.8.8.8.8.8.8.8.8.8.8.8.8.<.F @   o @ G R T T R E 1.7.8.8.8.8.8.<.+         < x v v v v v v v v v v x v v v v v v h     o 4 3             . . 4 F P Y ] 7.8.8.8.8.8.8.8.8.8.8.8.8.8.8.8.8.8.8.8.@.>           eXeXeXeXeXeXeXeXeXeXeXeXeXeXeXeXeXeXeXeXeXeXeXeXeXeXeXeXeXeXeXeXeXeXeXeXeXeXeXeXeXeXeXeXeXeXeXeXeXeXeXeXeXeXeXeXeXeXeXeXeXeXeXeXeXeXeXeXeXeXeXeXeXeXeXeXeXeXeXeXeXeXeXeXeXeXeXeXeXeXeXeXeXeXeX",
"eXeXeXeXeXeXeXeXeXeXeXeXeXeXeXeXeXeXeXeXeXeXeXeXeXeXeXeXeXeXeXeXeXeXeXeXeXeXeXeXeXeXeXeXeXeXeXeXeXeXeXeXeXeXeXeXeXeXeXeXeXeXeXeX      : x v v v v v b m *.#.#.O.n O.*.-.-.;.-.+.l       , h v v v v v M v v v v v v v M v v v v v v v v v v v v v v v v x h g g g g g ,   , g x x g O     . E 8.8.8.8.7.8.8.8.8.] F o o & S P R R R Y R R ] 7.8.8.8.8.8.8.8.8.8.8.8.8.8.8.8.8.8.8.8.8.<.G @     & F Y R R T E 1.7.8.8.8.8.7.1.@         , x v v v v v v v v v v x h x x v v v v c ,                   3 S P Y R R Y R <.7.8.8.8.8.8.8.8.8.8.8.8.8.8.8.8.8.7.6.T S 3 o           eXeXeXeXeXeXeXeXeXeXeXeXeXeXeXeXeXeXeXeXeXeXeXeXeXeXeXeXeXeXeXeXeXeXeXeXeXeXeXeXeXeXeXeXeXeXeXeXeXeXeXeXeXeXeXeXeXeXeXeXeXeXeXeXeXeXeXeXeXeXeXeXeXeXeXeXeXeXeXeXeXeXeXeXeXeXeXeXeXeXeXeXeX",
"eXeXeXeXeXeXeXeXeXeXeXeXeXeXeXeXeXeXeXeXeXeXeXeXeXeXeXeXeXeXeXeXeXeXeXeXeXeXeXeXeXeXeXeXeXeXeXeXeXeXeXeXeXeXeXeXeXeXeXeXeXeXeX      2 v v v v v v v v v m &.-.*.*.&.*.-.-.;.;.=.=.k O     < h v v v v v v v v v v v v v v v v v v v v v v v v v v v x x x g g g g g d o     : g h g :     . [ 7.7.8.8.8.8.8.8.8.1.1.P + o + S Y R R R Y R Y <.8.9.8.8.8.8.8.8.8.8.8.8.8.8.8.8.8.8.8.3.P &     & F Y T R Y E 1.7.8.8.8.8.7.3.@         , x v v v v v v v v v v b h g g h v v v v v h o o   O : : O     @ R T T T T T R E 1.8.8.8.8.8.8.8.8.8.8.8.7.9.7.9.7.4.,.8.9.7.Y 7               eXeXeXeXeXeXeXeXeXeXeXeXeXeXeXeXeXeXeXeXeXeXeXeXeXeXeXeXeXeXeXeXeXeXeXeXeXeXeXeXeXeXeXeXeXeXeXeXeXeXeXeXeXeXeXeXeXeXeXeXeXeXeXeXeXeXeXeXeXeXeXeXeXeXeXeXeXeXeXeXeXeXeXeXeXeXeXeXeXeX",
"eXeXeXeXeXeXeXeXeXeXeXeXeXeXeXeXeXeXeXeXeXeXeXeXeXeXeXeXeXeXeXeXeXeXeXeXeXeXeXeXeXeXeXeXeXeXeXeXeXeXeXeXeXeXeXeXeXeXeXeXeXeX      , v v v v v v v v v v v m %.;.-.-.=.=.=.=.:.;.=.=.z >     d v v v v v v v v v v v v v v v v v v v v v v v v v v v x h g g g g g g <         : d h O     o P 1.7.8.8.8.8.8.8.8.0.w.1.P +   @ r P Y R R T T Y [ 8.8.8.8.8.8.8.8.8.8.8.8.8.8.8.8.8.3.P &     @ S T R T T [ 1.7.7.8.8.8.7.3.3         , x v v v v v v v v v v v g h g g g h h v v v v d < h h x x p       D T T R R T T T R 1.8.9.8.8.8.8.8.8.8.8.7.9.7.7.4.9.e.e.e.e.e.0.1.P 7 .         eXeXeXeXeXeXeXeXeXeXeXeXeXeXeXeXeXeXeXeXeXeXeXeXeXeXeXeXeXeXeXeXeXeXeXeXeXeXeXeXeXeXeXeXeXeXeXeXeXeXeXeXeXeXeXeXeXeXeXeXeXeXeXeXeXeXeXeXeXeXeXeXeXeXeXeXeXeXeXeXeXeXeXeXeXeXeXeXeX",
"eXeXeXeXeXeXeXeXeXeXeXeXeXeXeXeXeXeXeXeXeXeXeXeXeXeXeXeXeXeXeXeXeXeXeXeXeXeXeXeXeXeXeXeXeXeXeXeXeXeXeXeXeXeXeXeXeXeXeXeXeXeX      # , p h b v b v v v v v v n %.=.-.-.-.-.-.-.:.;.;.*.j #   O h v v v v v v v v v v v v v v v v v v v v v v v M x x g g g g g g g d eX          - d O     @ G E <.7.7.8.8.8.8.8.w.1.0.1.Y @   . r P Y R T R T R [ 8.8.8.8.8.8.8.8.8.8.8.8.8.8.8.4.P &     @ S T T T T T 1.7.7.7.7.8.7.3.4         : v v v v v v v v v v v v g g g g g g g g h h b v v v v v v v x :     @ D T Y T T T R R E <.1.8.9.8.8.8.8.8.8.4.7.3.<.@.e.e.e.e.e.e.e.e.0.7.S             eXeXeXeXeXeXeXeXeXeXeXeXeXeXeXeXeXeXeXeXeXeXeXeXeXeXeXeXeXeXeXeXeXeXeXeXeXeXeXeXeXeXeXeXeXeXeXeXeXeXeXeXeXeXeXeXeXeXeXeXeXeXeXeXeXeXeXeXeXeXeXeXeXeXeXeXeXeXeXeXeXeXeXeXeXeXeX",
"eXeXeXeXeXeXeXeXeXeXeXeXeXeXeXeXeXeXeXeXeXeXeXeXeXeXeXeXeXeXeXeXeXeXeXeXeXeXeXeXeXeXeXeXeXeXeXeXeXeXeXeXeXeXeXeXeXeXeXeXeX            o o O f h v v v v v v v M %.=.-.-.-.-.-.;.:.:.;.$.1 o   : v v v v v v v v v v v v v v v v v v v v v v v x h g g g g g g g g eXeXeX          O       3 Y E R <.4.7.8.8.8.8.1.0.1.1.1.Y &     r P R T R T T Y [ 7.8.8.8.8.8.8.8.8.8.8.8.8.8.P 4     + S T T T T E 1.4.8.8.8.7.4.<.4         : v v v v v v v v v v v v h g g g g g g g g g g h h h x v x v x x g o     @ G R T T T Y R T T E 1.1.8.7.8.8.1.1.<.W E 8.9.9.w.w.e.e.e.e.e.e.e.e.0.R &           eXeXeXeXeXeXeXeXeXeXeXeXeXeXeXeXeXeXeXeXeXeXeXeXeXeXeXeXeXeXeXeXeXeXeXeXeXeXeXeXeXeXeXeXeXeXeXeXeXeXeXeXeXeXeXeXeXeXeXeXeXeXeXeXeXeXeXeXeXeXeXeXeXeXeXeXeXeXeXeXeXeXeXeXeX",
"eXeXeXeXeXeXeXeXeXeXeXeXeXeXeXeXeXeXeXeXeXeXeXeXeXeXeXeXeXeXeXeXeXeXeXeXeXeXeXeXeXeXeXeXeXeXeXeXeXeXeXeXeXeXeXeXeXeXeXeXeX      u 0 % #       o < g v v v v v v v #.*.=.-.-.-.-.;.>.>.:.A $     p v v v v v v v v v v v v v v v v v v v x x h g g g g g g g g d < eXeXeXeX                3 Y T T R <.7.8.8.8.8.0.1.w.0.9.1.R &     r P Y R T T R T E 7.8.8.8.8.8.8.8.8.8.8.8.Y 5     + 8 R T R T T <.7.7.8.8.8.7.] 5         - v v v v v v v v v v v v h g g g g g g g g g g g g g g g d p , < < p , o     ; P R R Y Q R T R Y T @.R <.<.E @.R R 8.8.8.8.8.9.9.0.e.e.e.e.e.e.e.e.w.<.F &         eXeXeXeXeXeXeXeXeXeXeXeXeXeXeXeXeXeXeXeXeXeXeXeXeXeXeXeXeXeXeXeXeXeXeXeXeXeXeXeXeXeXeXeXeXeXeXeXeXeXeXeXeXeXeXeXeXeXeXeXeXeXeXeXeXeXeXeXeXeXeXeXeXeXeXeXeXeXeXeXeXeXeXeX",
"eXeXeXeXeXeXeXeXeXeXeXeXeXeXeXeXeXeXeXeXeXeXeXeXeXeXeXeXeXeXeXeXeXeXeXeXeXeXeXeXeXeXeXeXeXeXeXeXeXeXeXeXeXeXeXeXeXeXeXeXeX    ..I.L.B.K. .i %     o d x v v m m m n #.&.-.-.-.-.-.;.:.>.;.l     O h v v v v v v v v x v v x v x x v x x g h g g g g g g g g g p eXeXeXeXeXeX              8 T T T T T <.4.7.8.8.1.9.1.w.9.1.1.@.4     7 G R T T T T Y E 1.8.8.8.8.8.8.8.8.8.Y 5     @ 8 T R T T T <.4.8.7.8.7.7.E 5         - v v v v v v v v v v v v h g g g g g g g g g g g g g g g p :             ; +     O D T R R Y T R R R T T T T T R 8.8.8.8.8.8.8.8.8.8.8.0.w.e.e.e.e.e.e.e.9.R &         eXeXeXeXeXeXeXeXeXeXeXeXeXeXeXeXeXeXeXeXeXeXeXeXeXeXeXeXeXeXeXeXeXeXeXeXeXeXeXeXeXeXeXeXeXeXeXeXeXeXeXeXeXeXeXeXeXeXeXeXeXeXeXeXeXeXeXeXeXeXeXeXeXeXeXeXeXeXeXeXeXeXeX",
"eXeXeXeXeXeXeXeXeXeXeXeXeXeXeXeXeXeXeXeXeXeXeXeXeXeXeXeXeXeXeXeXeXeXeXeXeXeXeXeXeXeXeXeXeXeXeXeXeXeXeXeXeXeXeXeXeXeXeXeX  # ..P.U.U.U.T.I.I.m.( *     > g v n =.&.o.m C =.=.-.-.-.-.:.:.:.=.,   o p v M v v v v v x g g h h h h h g g g g g g g g g g g g g p eXeXeXeXeXeXeXeX            8 T T T R T R ] 4.8.8.1.w.0.1.1.0.8.1.[ 4     7 P Y T T R T T E 4.8.8.8.8.8.8.8.R 7     . 8 R T T T T <.4.8.8.8.8.7.E 7       o - x v v v v v v v v v v v x g g g g g g g g g g g g g g d d :             @ 1.R r @   + 4 H R R R R T R Y Q Q Q 8.8.8.8.8.8.8.8.8.8.8.8.8.8.8.9.0.e.e.e.e.e.w.0.3.S 8 S S 5 X               eXeXeXeXeXeXeXeXeXeXeXeXeXeXeXeXeXeXeXeXeXeXeXeXeXeXeXeXeXeXeXeXeXeXeXeXeXeXeXeXeXeXeXeXeXeXeXeXeXeXeXeXeXeXeXeXeXeXeXeXeXeXeXeXeXeXeXeXeXeXeXeXeXeX",
"eXeXeXeXeXeXeXeXeXeXeXeXeXeXeXeXeXeXeXeXeXeXeXeXeXeXeXeXeXeXeXeXeXeXeXeXeXeXeXeXeXeXeXeXeXeXeXeXeXeXeXeXeXeXeXeXeXeXeX  @ ..L.U.U.U.U.U.U.$X@X@Xh.I       h b #.=.=.%.O.O.=.=.-.-.-.=.:.:.;.B o   : x v v v v v v h g g g g g g g g g g g g g g g g g g g p eXeXeXeXeXeXeXeXeXeX        @ Y T T R Y T T T ] 4.8.0.1.9.9.0.1.8.8.4.[ 5     5 G R E Y T T T E 1.8.8.8.8.8.R 7     o 5 Y R T T T <.4.7.8.8.8.7.T 7       o - x v v v v v v v v v v v x g g g g g g g g g g g g g g g d :             @ ] 7.7.4.Y S 7 @ 4 8 D T ! W <.@.8.8.8.8.8.8.7.7.7.8.8.8.8.8.8.8.8.8.8.8.9.w.e.w.w.0.8.0.0.9.9.0.0.e.0.<.R P 5 o         eXeXeXeXeXeXeXeXeXeXeXeXeXeXeXeXeXeXeXeXeXeXeXeXeXeXeXeXeXeXeXeXeXeXeXeXeXeXeXeXeXeXeXeXeXeXeXeXeXeXeXeXeXeXeXeXeXeXeXeXeXeXeXeXeXeXeXeXeXeXeX",
"eXeXeXeXeXeXeXeXeXeXeXeXeXeXeXeXeXeXeXeXeXeXeXeXeXeXeXeXeXeXeXeXeXeXeXeXeXeXeXeXeXeXeXeXeXeXeXeXeXeXeXeXeXeXeXeXeXeX  X I L.U.U.U.U.U.U.$X=X*X*X%XoX{ r   o g V &.-.-.-.%.*.*.;.-.-.-.-.:.:.+.>     g v v v v v h g g g g g g g g g g g g g g g g g g d ,   eXeXeXeXeXeXeXeXeXeXeX      o Y R Y R R T T R R <.1.8.8.8.8.8.8.8.8.7.7.E 8     5 G Y T R Y R R R 1.8.8.8.E r     . 4 Y R R T T ] 4.7.8.8.8.8.Y 7       o : x v v v v v v v v v v v x g g g g g g g g g g h g g g g d :               5 Y 1.8.8.8.7.<.[ ] E 3.] 3.8.1.1.8.9.7.3.7.7.8.] 5 4 F [ 8.8.8.8.8.8.8.8.8.9.w.e.w.w.w.w.w.w.e.e.e.e.e.e.e.e.e.8.] G 3         eXeXeXeXeXeXeXeXeXeXeXeXeXeXeXeXeXeXeXeXeXeXeXeXeXeXeXeXeXeXeXeXeXeXeXeXeXeXeXeXeXeXeXeXeXeXeXeXeXeXeXeXeXeXeXeXeXeXeXeXeXeXeXeXeXeXeXeX",
"eXeXeXeXeXeXeXeXeXeXeXeXeXeXeXeXeXeXeXeXeXeXeXeXeXeXeXeXeXeXeXeXeXeXeXeXeXeXeXeXeXeXeXeXeXeXeXeXeXeXeXeXeXeXeXeXeX    i P.U.U.U.U.U.Y.$X=X*X*X*X*X*XoXh.y   O 1 $.=.-.-.=.=.-.-.;.-.-.-.-.;.-.a   o p x v v v x h g g g g g g g g g g g g g g g g p < -   eXeXeXeXeXeXeXeXeXeXeX        8 Y R R Y R Y R Y R Y <.1.8.8.8.8.8.8.8.7.8.7.E 8     4 G Y T T R T T R 1.8.] r     . 4 Y T T Y R ] 4.8.8.8.8.8.Y 4       o : h v v v v v v       o             o   o     o     o                         + . @ r [ 7.8.8.8.8.8.7.7.4.4.<.T E S D F G Y ] E 4         8 P <.8.8.8.0.0.0.9.8.9.8.8.8.w.e.e.e.e.e.e.e.e.e.e.e.e.8.[ S &         eXeXeXeXeXeXeXeXeXeXeXeXeXeXeXeXeXeXeXeXeXeXeXeXeXeXeXeXeXeXeXeXeXeXeXeXeXeXeXeXeXeXeXeXeXeXeXeXeXeXeXeXeXeXeXeXeXeXeXeXeXeXeXeXeXeX",
"eXeXeXeXeXeXeXeXeXeXeXeXeXeXeXeXeXeXeXeXeXeXeXeXeXeXeXeXeXeXeXeXeXeXeXeXeXeXeXeXeXeXeXeXeXeXeXeXeXeXeXeXeXeXeXeX     .T.U.U.U.U.U.Y.$X=X=X=X*X*X*X*X*X+XD.$   o 1 -.-.-.-.-.-.-.;.:.=.=.=.=.=.C o   : v M v x g g g g g g g g g g g g g g g d g , O O   eXeXeXeXeXeXeXeXeXeXeXeX        & Y R T R Y E Y Y R Y E E 1.8.8.8.8.8.8.8.8.8.7.] r     3 G Y T E Y T R ] E S     o 3 P R Y T R ] 3.8.8.8.8.8.Y 4       o : < O                                                                                   o r <.8.8.7.7.E P S @ & . o o       + 5 F .               & S [ 7.8.8.8.8.8.8.9.e.e.e.e.e.e.e.e.e.e.e.e.e.e.e.e.e.1.r         eXeXeXeXeXeXeXeXeXeXeXeXeXeXeXeXeXeXeXeXeXeXeXeXeXeXeXeXeXeXeXeXeXeXeXeXeXeXeXeXeXeXeXeXeXeXeXeXeXeXeXeXeXeXeXeXeXeXeXeXeXeXeXeXeX",
"eXeXeXeXeXeXeXeXeXeXeXeXeXeXeXeXeXeXeXeXeXeXeXeXeXeXeXeXeXeXeXeXeXeXeXeXeXeXeXeXeXeXeXeXeXeXeXeXeXeXeXeXeXeXeX    X.T.U.U.U.U.U.U.$X*X*X*X*X*X*X*X*X*X*X&XG.@     f -.-.-.-.-.-.=.:.;.=.=.&.=.+.O   O h x x h g g g g g g g g g g g g g g < < :       eXeXeXeXeXeXeXeXeXeXeXeXeX          3 Y T T E Y R E Y R Y T <.1.8.8.8.8.8.8.8.8.8.8.] S     3 S Y Y R R Y G 5 .     4 P Y R R T ] 3.7.8.8.8.8.P 3       o : :                                                       o   o o o o o o o o o o             @ [ ] R 7 & o       o                       5 @           #   5 P ] 8.8.9.w.e.e.e.e.e.e.e.e.e.e.e.e.e.e.e.e.e.e.e.<.r         eXeXeXeXeXeXeXeXeXeXeXeXeXeXeXeXeXeXeXeXeXeXeXeXeXeXeXeXeXeXeXeXeXeXeXeXeXeXeXeXeXeXeXeXeXeXeXeXeXeXeXeXeXeXeXeXeXeXeXeXeXeXeX",
"eXeXeXeXeXeXeXeXeXeXeXeXeXeXeXeXeXeXeXeXeXeXeXeXeXeXeXeXeXeXeXeXeXeXeXeXeXeXeXeXeXeXeXeXeXeXeXeXeXeXeXeXeXeX  X m.T.U.U.U.U.U.U.$X*X*X*X*X*X*X*X*X*X*X*X*X*XC.6     N -.-.-.-.-.-.-.:.-.&.o.=.*.1   o g x g g g g g g d < - : < < , , O -       eXeXeXeXeXeXeXeXeXeXeXeXeXeXeXeXeX          @ Y Y E T T Y E Y E T T [ 1.1.8.8.8.8.8.8.8.8.8.[ F     @ 5 P T T G 3 o   . ; H T R T Y ] 3.7.8.8.8.8.P &         , O     o   o o o o o O O O O O O O O O O O O - : : : : , , , < < < < d d g g g h g g d < O         4     O : , < < < p < , O             7 e.7.Y r .               & r R 8.e.e.e.e.e.e.e.e.e.e.e.e.e.e.e.e.e.e.e.w.4.F @         eXeXeXeXeXeXeXeXeXeXeXeXeXeXeXeXeXeXeXeXeXeXeXeXeXeXeXeXeXeXeXeXeXeXeXeXeXeXeXeXeXeXeXeXeXeXeXeXeXeXeXeXeXeXeXeXeXeXeXeXeX",
"eXeXeXeXeXeXeXeXeXeXeXeXeXeXeXeXeXeXeXeXeXeXeXeXeXeXeXeXeXeXeXeXeXeXeXeXeXeXeXeXeXeXeXeXeXeXeX                 .K.I.U.T.U.U.Y.$X=X*X*X*X*X*X*X*X*X*X*X*X*X*X*Xh.*   o Z -.-.-.-.-.-.;.;.*.m O.*.f     < g g g g g g g <                   eXeXeXeXeXeXeXeXeXeXeXeXeXeXeXeXeXeXeXeXeX          + P Y T T E Y T R T T R [ 1.1.8.8.8.8.8.8.8.8.8.<.P     . @ S S 3 .   . 4 G T T T R E 3.7.8.8.8.8.P .         < O   o O : < < < < d p p d d g g g h h x x v v v v v v v v v v v v v v v v v v v v v v v x x g :     o O p g x v b M b v x x h g , O       G 9.w.9.8.8.[ G 3             . + 5 P 2.0.e.e.e.e.e.e.e.e.e.e.e.e.e.k.e.e.e.9.P +         eXeXeXeXeXeXeXeXeXeXeXeXeXeXeXeXeXeXeXeXeXeXeXeXeXeXeXeXeXeXeXeXeXeXeXeXeXeXeXeXeXeXeXeXeXeXeXeXeXeXeXeXeXeXeXeXeXeXeXeX",
"eXeXeXeXeXeXeXeXeXeXeXeXeXeXeXeXeXeXeXeXeXeXeXeXeXeXeXeXeXeXeXeXeXeXeXeXeXeXeXeXeXeXeXeXeXeX                  X +  .b.L.U.Y.$X*X*X*X*X*X*X*X*X*X*X*X*X*X*X*X*X*X} +   > =.=.-.-.-.-.;.-.*.M o.#.j     < g g g g g g <               eXeXeXeXeXeXeXeXeXeXeXeXeXeXeXeXeXeXeXeXeXeXeXeXeX          + P Y T Y E Y Y T R T T <.1.1.0.8.8.8.8.8.8.8.8.3.[ 5 & .   o   @ & S G T T T T E 3.7.8.8.8.4.P           p : o < h v v v v v v v v v v v v v v M v v v v v v v v v v v v v v v v v v v v v v v v v v v v g : o > d h v v v v v v v v v v v v x g -     P 0.w.9.8.8.8.8.8.7.Y r @           o . & r R e.e.e.e.e.e.e.e.e.e.e.e.e.e.e.e.e.] &         eXeXeXeXeXeXeXeXeXeXeXeXeXeXeXeXeXeXeXeXeXeXeXeXeX            eXeXeXeXeXeXeXeXeXeXeXeXeXeXeXeXeXeXeXeXeXeXeXeXeXeXeXeX",
"eXeXeXeXeXeXeXeXeXeXeXeXeXeXeXeXeXeXeXeXeXeXeXeXeXeXeXeXeXeXeXeXeXeXeXeXeXeXeXeXeXeXeXeXeX      o G F F 5 + @ .       t ..B.*X*X*X*X*X*X*X*X*X*X*X*X*X*X*X*X*X*XoX9   O l -.-.-.-.-.-.;.*.n M #.k O   : g g g g g d -     eXeXeXeXeXeXeXeXeXeXeXeXeXeXeXeXeXeXeXeXeXeXeXeXeXeXeXeXeXeXeX          . G T T T Y E T T T R E E 1.1.8.8.8.8.8.8.8.8.8.8.1.[ P P G S S Y T T T T R E 3.4.8.8.8.3.G           p d , x v v v v v v v v v v v v v v v v v v v v v v v v v v v v v v v v v v v v v v v v v v v v g O o < h x v v v v v v v v v v v v v v v d     H e.e.7.8.8.8.8.8.8.8.8.8.] P 7           # 4 7.e.e.e.e.e.e.e.e.e.e.e.e.e.e.e.e.e.4.4         eXeXeXeXeXeXeXeXeXeXeXeXeXeXeXeXeXeX                                  eXeXeXeXeXeXeXeXeXeXeXeXeXeXeXeXeXeXeXeXeXeXeX",
"eXeXeXeXeXeXeXeXeXeXeXeXeXeXeXeXeXeXeXeXeXeXeXeXeXeXeXeXeXeXeXeXeXeXeXeXeXeXeXeXeXeXeXeX      4 7.w.e.0.7.8.3.Y r 4       t s.|.*X*X*X*X*X*X*X*X*X*X*X*X*X*X*X*X*XA.    2 +.-.-.=.=.=.=.=.n v M b     : g g g g g ,     eXeXeXeXeXeXeXeXeXeXeXeXeXeXeXeXeXeXeXeXeXeXeXeXeXeXeXeXeXeXeXeXeX            F Y R T R Y R T T E Y E <.7.7.8.8.8.8.8.8.8.8.8.8.8.7.7.1.E T Y T T T E 1.7.8.8.8.] P           d x d v v v v v v v v v v v v v v v v v v v v v v v v v v v v v v v v v v v v v v v v v v M M x h : O h v v v v v v v v v v v v v v v v v v <     G e.e.8.8.8.8.8.8.8.8.8.8.8.7.7.7.R S &     & ] e.e.e.e.e.e.e.e.e.e.e.e.e.e.e.e.e.e.3.4         eXeXeXeXeXeXeXeXeXeXeXeXeXeXeX                o                           eXeXeXeXeXeXeXeXeXeXeXeXeXeXeXeXeXeXeXeX",
"eXeXeXeXeXeXeXeXeXeXeXeXeXeXeXeXeXeXeXeXeXeXeXeXeXeXeXeXeXeXeXeXeXeXeXeXeXeXeXeXeXeXeX      S e.e.e.e.e.w.e.e.e.0.8.P 8       ( V.=X=X*X*X*X*X*X*X*X*X*X*X*X*X*X*X+Xy.    B =.-.=.=.&.=.*.m v v k     : g g g g :       eXeXeXeXeXeXeXeXeXeXeXeXeXeXeXeXeXeXeXeXeXeXeXeXeXeXeXeXeXeXeXeXeXeX            F Y T R R T R T Y R Y E <.3.8.8.8.8.8.8.8.8.8.8.8.7.8.7.1.<.E E ] [ 7.8.8.8.8.] F           p x x v v v v v v v v v v v v v v v v v v v v v v v v v v v v v v v v v v v v v v v v v v v v x h : : g v v v v v v v v v v v v v v v v v v v ,     E e.0.8.8.8.8.8.8.8.8.8.8.8.7.8.8.7.7.[ @   o 7.e.e.e.e.e.e.e.e.e.e.e.e.e.e.e.e.e.e.e.[ 4       eXeXeXeXeXeXeXeXeXeXeXeX      .   r 7 r Y G R P R G P 5 5 @ &                 eXeXeXeXeXeXeXeXeXeXeXeXeXeXeXeXeXeX",
"eXeXeXeXeXeXeXeXeXeXeXeXeXeXeXeXeXeXeXeXeXeXeXeXeXeXeXeXeXeXeXeXeXeXeXeXeXeXeXeXeXeX      P w.e.e.e.e.e.e.e.e.e.e.e.e.0.Y r     . s./.*X*X*X*X*X*X*X*X*X*X*X*X*X*X=XA.t   > -.-.=.*.o.O.%.o.v v h o   - g d d O       eXeXeXeXeXeXeXeXeXeXeXeXeXeXeXeXeXeXeXeXeXeXeXeXeXeXeXeXeXeXeXeXeXeXeXeX            S Y R R T R T R T Y R R <.7.8.8.8.8.8.8.8.8.8.8.8.8.8.8.8.7.7.7.7.7.7.8.8.[ F         o d v v v v v v v v v v v M v v v v v v v v v v v v v v v v v v v v v v v v v M v v v v v v v v v x : , h v v v v v v v v v v v v v v v v v v v v O     4.e.0.8.8.8.8.8.8.8.8.8.8.8.8.8.8.8.4.E 8   . 3.e.e.e.e.e.e.e.e.e.e.e.k.e.e.e.e.e.e.e.0.R +       eXeXeXeXeXeXeXeXeX    . r G [ 3.8.0.e.w.e.e.e.e.e.0.e.9.9.[ Y r & .             eXeXeXeXeXeXeXeXeXeXeXeXeXeXeXeX",
"eXeXeXeXeXeXeXeXeXeXeXeXeXeXeXeXeXeXeXeXeXeXeXeXeXeXeXeXeXeXeXeXeXeXeXeXeXeXeXeXeX      P 8.e.e.e.e.e.e.e.e.e.e.e.e.e.e.e.8.G &     } D.*X*X*X*X*X*X*X*X*X*X*X*X*X*XXXU   + N -.=.&.n n o.M v g o     < < , O     eXeXeXeXeXeXeXeXeXeXeXeXeXeXeXeXeXeXeXeXeXeXeXeXeXeXeXeXeXeXeXeXeXeXeXeXeXeXeX            S Y R T Y E Y R E Y R R ] 4.8.8.8.8.8.8.8.8.8.8.8.8.8.8.8.8.8.8.8.8.8.R 8         O d v v v v v v v v v v v v v v v v v v v v v v v v v v v v v v v v v v v v v v v v v v v v v v v x h O x v v M v v v v v v v v v v v M v v v v v h -   @ 8.e.0.8.8.8.8.8.8.8.8.8.8.8.8.8.8.8.3.[ 8   & W e.e.e.e.e.e.e.e.e.e.e.e.e.e.e.e.e.e.e.e.0.P         eXeXeXeXeXeXeX    r 1.1.9.e.e.e.e.e.e.e.e.e.e.e.e.e.e.e.e.0.9.4.R r +             eXeXeXeXeXeXeXeXeXeXeXeXeXeX",
"eXeXeXeXeXeXeXeXeXeXeXeXeXeXeXeXeXeXeXeXeXeXeXeXeXeXeXeXeXeXeXeXeXeXeXeXeXeXeXeXeX    5 3.e.e.w.e.w.0.9.0.8.9.9.9.0.0.w.e.e.e.] S     t S.=X*X*X*X*X*X*X*X*X*X*X*X*X*XV.    z &.=.&.M v v v k :     O O   o     eXeXeXeXeXeXeXeXeXeXeXeXeXeXeXeXeXeXeXeXeXeXeXeXeXeXeXeXeXeXeXeXeXeXeXeXeXeXeXeXeXeX          8 Y Y T R T T R R T T T 1.1.8.8.8.8.8.8.8.8.8.8.8.8.8.8.8.8.8.8.8.R 4         - d v v x v v v v v v v v v v v v v v v v v v v v v v v v v v v v v v v v v v v v v v v v v v v v v h p g x v v v v v v v v v v v v v v v v v v v v g O   8 7.e.9.8.8.8.8.8.8.8.8.8.8.8.8.8.8.8.7.E &   @ <.e.e.e.e.e.e.e.e.e.e.e.e.e.e.e.e.e.e.e.e.e.8.t       eXeXeXeXeX    8 3.e.e.e.e.e.e.e.e.e.e.e.e.e.e.e.e.e.e.e.e.e.e.e.e.9.<.D             eXeXeXeXeXeXeXeXeXeXeXeXeX",
"eXeXeXeXeXeXeXeXeXeXeXeXeXeXeXeXeXeXeXeXeXeXeXeXeXeXeXeXeXeXeXeXeXeXeXeXeXeXeXeX      [ e.e.0.0.8.8.8.8.8.8.8.8.8.8.8.8.0.0.e.w.0.r .   . G.@X*X*X*X*X*X*X*X*X*X*X*X*X|.I   @ =.=.%.M v v b p               eXeXeXeXeXeXeXeXeXeXeXeXeXeXeXeXeXeXeXeXeXeXeXeXeXeXeXeXeXeXeXeXeXeXeXeXeXeXeXeXeXeXeXeXeX          r Y T T R T T T R T T T <.3.8.8.8.8.8.8.8.8.8.8.8.8.8.8.8.8.8.T & o       : d v v v v v v v v v v v v v v v v v v v v v v v v v v v v v v v v v v v v v v v v v v v v v v v v v p g v v v v v v v v v v v v v v v v v v v v v v g o   D 8.w.9.8.8.8.8.8.8.8.8.8.8.8.8.8.8.8.7.Y 3     ] w.e.e.e.e.e.e.e.e.e.e.e.e.e.e.e.e.e.e.e.w.0.<.@       eXeXeX  5 <.e.e.e.e.e.e.e.e.e.e.e.e.e.e.e.e.e.e.e.e.e.e.e.e.w.e.e.e.e.<.D @         eXeXeXeXeXeXeXeXeXeXeXeX",
"eXeXeXeXeXeXeXeXeXeXeXeXeXeXeXeXeXeXeXeXeXeXeXeXeXeXeXeXeXeXeXeXeXeXeXeXeXeXeX    o R 0.w.9.8.8.8.8.8.8.8.8.8.8.8.8.8.8.8.8.8.0.w.w.F &   y J.&X*X*X*X*X*X*X*X*X*X*X*X+XI o O B =.#.M v M <             eXeXeXeXeXeXeXeXeXeXeXeXeXeXeXeXeXeXeXeXeXeXeXeXeXeXeXeXeXeXeXeXeXeXeXeXeXeXeXeXeXeXeXeXeXeXeXeX          7 Y R T T T T Y E T T R [ 1.8.8.8.8.7.8.8.8.8.8.8.8.8.8.7.T o         , g v v v v v v v v v v v v v v v v v v v v v v v v v v v v M v v v v v v v v v v v v v v v v v v v v v p x v v v v v v v v v v v v v v v v v v v v v v d     F e.e.9.8.8.8.8.8.8.8.8.8.8.8.8.8.8.8.3.Y 8       r W 0.e.e.e.e.e.e.e.e.e.e.e.e.e.0.3.4.Y F D 3 @           3 E e.e.e.e.e.e.e.e.e.e.e.e.e.e.e.e.e.e.e.e.e.e.e.e.e.e.9.w.e.e.e.e.0.] & o         eXeXeXeXeXeXeXeXeXeX",
"eXeXeXeXeXeXeXeXeXeXeXeXeXeXeXeXeXeXeXeXeXeXeXeXeXeXeXeXeXeXeXeXeXeXeXeXeXeXeX    @ <.0.8.8.8.8.8.8.8.8.8.8.8.8.8.8.8.8.8.8.8.8.0.0.8.R &   U G.=X*X*X*X*X*X*X*X*X*X*X=Xn.    l &.O.v v 2       eXeXeXeXeXeXeXeXeXeXeXeXeXeXeXeXeXeXeXeXeXeXeXeXeXeXeXeXeXeXeXeXeXeXeXeXeXeXeXeXeXeXeXeXeXeXeXeXeXeXeXeXeX          5 Y T T T T R Y T T T R [ 4.8.8.8.8.8.8.8.8.8.8.8.8.1.Y           , g v v v v v v v v v v v v v v v v v v v v v v v v v v v v v v v v v v v v v v v v v M v v v v v v v v v x v v v v v v v v v v v v v v v v v v v v v v b <   o G e.e.7.8.8.8.8.8.8.8.8.8.8.8.8.8.8.8.<.R 7         + 7 Y 7.w.e.e.e.e.e.e.w.3.7.Y 5 5 o o               + F 8.e.e.e.e.e.e.e.e.k.e.e.e.e.e.e.e.e.e.e.e.e.e.e.e.e.e.e.e.w.1.9.0.e.e.w.<.F         eXeXeXeXeXeXeXeXeXeX",
"eXeXeXeXeXeXeXeXeXeXeXeXeXeXeXeXeXeXeXeXeXeXeXeXeXeXeXeXeXeXeXeXeXeXeXeXeXeXeX    G 7.8.8.8.8.8.8.8.8.8.8.8.8.8.8.8.8.8.8.8.8.8.7.8.0.7.R     | }.*X*X*X*X*X*X*X*X*X*X*XZ.&   f m n b d O     eXeXeXeXeXeXeXeXeXeXeXeXeXeXeXeXeXeXeXeXeXeXeXeXeXeXeXeXeXeXeXeXeXeXeXeXeXeXeXeXeXeXeXeXeXeXeXeXeXeXeXeXeXeXeX          4 Y Y T T T Y E Y R Y R [ 1.8.8.8.8.8.8.8.8.8.8.] P           < h v v v v v v v v v v v v v v v v v v v v v v v M v v v v v v v v v v v v v v v v v v v v v v v v v v v x x v v v v v v v v v v v v v v v v v v v v v v v :     T e.w.8.8.8.8.8.8.8.8.8.8.8.8.8.8.8.8.<.R @             + 7 E e.e.e.w.w.E F 8 .             o   . @ + 5 S 4.e.e.e.e.r.e.e.e.e.e.e.e.e.e.e.e.e.e.e.e.e.e.e.e.e.e.e.e.e.w.9.7.8.9.e.e.e.0.G @         eXeXeXeXeXeXeXeX",
"eXeXeXeXeXeXeXeXeXeXeXeXeXeXeXeXeXeXeXeXeXeXeXeXeXeXeXeXeXeXeXeXeXeXeXeXeXeX    . R 7.8.8.8.8.7.8.8.8.8.8.8.8.8.8.8.8.8.8.8.8.8.8.8.8.8.3.F     h.oX*X*X*X*X*X*X*X*X*X*X X*   < v c h O     eXeXeXeXeXeXeXeXeXeXeXeXeXeXeXeXeXeXeXeXeXeXeXeXeXeXeXeXeXeXeXeXeXeXeXeXeXeXeXeXeXeXeXeXeXeXeXeXeXeXeXeXeXeXeXeXeX          4 Y T R T R Y E R Y R T [ 1.8.8.8.8.8.8.8.8.[ G o         < b v v v v v v v v v v v v v v v v v v v v v v v v v v v v v v v v v v v v v v v v v v v v v v v v v v v v v v v v v v v v v v v v v v v v v v v v v v v v v o     3.e.0.8.8.8.8.8.8.8.8.8.8.8.8.8.8.8.8.<.Y o     8 @         o H ] 8.P + +           & @ & P G R 7.1.9.1.0.e.w.e.e.e.e.e.e.e.e.e.e.k.e.e.e.e.e.k.e.e.e.e.e.e.e.e.e.e.e.e.9.8.8.8.9.9.e.e.9.]         eXeXeXeXeXeXeXeX",
"eXeXeXeXeXeXeXeXeXeXeXeXeXeXeXeXeXeXeXeXeXeXeXeXeXeXeXeXeX          eXeXeXeX    8 3.7.7.7.7.7.7.8.8.8.8.8.8.8.8.8.8.8.8.8.8.8.8.8.8.8.8.8.E 5   & S.=X*X*X*X*X*X*X*X*X*X|.y   < g f #     eXeXeXeXeXeXeXeXeXeXeXeXeXeXeXeXeXeXeXeXeXeXeXeXeXeXeXeXeXeXeXeXeXeXeXeXeXeXeXeXeXeXeXeXeXeXeXeXeXeXeXeXeXeXeXeXeXeXeX          @ Y Y T Y T Y T R R T R [ 1.8.8.8.8.8.8.[ r         o < v v v v v v v v v v v v v v v v v v v v v v v v v v v v v v v v v v v v v v v v v v v v v v v v v v v v v v v v v v v v v v v v v v v v v v v v v v v v v v h     o e.e.9.7.8.8.8.8.8.8.8.8.8.8.8.8.8.7.7.] G @   3 <.T 7           5 +         . @ & Y <.1.e.w.e.e.e.0.7.9.0.w.e.e.e.e.e.e.e.e.e.e.e.e.e.e.e.e.e.e.e.e.e.e.e.k.e.e.e.e.e.e.0.8.8.8.8.8.9.e.e.e.P +       eXeXeXeXeXeXeX",
"eXeXeXeXeXeXeXeXeXeXeXeXeXeXeXeXeXeXeXeXeXeXeXeXeXeX                            D 1.] ] <.<.1.4.4.8.8.8.8.8.8.8.8.8.8.8.8.8.8.8.8.8.8.8.7.7.G @   K &X*X*X*X*X*X*X*X*X=X Xy   o O       eXeXeXeXeXeXeXeXeXeXeXeXeXeXeXeXeXeXeXeXeXeXeXeXeXeXeXeXeXeXeXeXeXeXeXeXeXeXeXeXeXeXeXeXeXeXeXeXeXeXeXeXeXeXeXeXeXeXeXeXeX          @ P Y E Y E R R Y R R Y [ 1.7.8.8.8.[ & .       O < v x v v v v v v v v v v v v v v v v v v v v v v v v v v v v v v v v v v v v v v v v v v v v v v v v v v v v v v v v v v v v v v v v v v v v v v v v v v v v v d o   r e.e.8.8.8.8.8.8.8.8.8.8.8.8.8.8.8.7.3.[ P ;   8 <.9.4.2.F 4             @ P R ] e.e.e.e.e.e.e.e.e.0.0.0.9.w.e.e.e.r.e.e.e.k.e.e.e.e.e.e.e.e.e.e.e.e.e.e.e.e.e.e.e.e.e.e.0.8.8.8.8.8.8.9.0.e.e.P @       eXeXeXeXeXeX",
"eXeXeXeXeXeXeXeXeXeXeXeXeXeXeXeXeXeXeXeXeXeXeXeXeX                              3 r G H R T R E E <.4.8.8.8.8.8.8.8.8.8.8.8.8.8.8.8.8.8.8.8.<.r     f.*X*X*X*X*X*X*X+X/.}             eXeXeXeXeXeXeXeXeXeXeXeXeXeXeXeXeXeXeXeXeXeXeXeXeXeXeXeXeXeXeXeXeXeXeXeXeXeXeXeXeXeXeXeXeXeXeXeXeXeXeXeXeXeXeXeXeXeXeXeXeXeXeX          + P Y T T R T Y R T Y R E 1.1.7.R           O < g h h h h x x h h x v v v v v v v v v v v v v v v v v v v v v v v v v v v v v v v v v v v v v v v v v v v v v v v v v v v v v v v v v v v v v v v v v v v v v v , o   Y w.w.9.8.8.8.8.8.8.8.8.8.8.8.8.8.8.8.3.E P +   S 1.8.8.7.6.Q 4       + Y 8.9.e.e.e.e.e.e.e.e.e.e.w.w.0.8.9.e.e.e.e.e.e.e.e.e.e.e.e.e.e.e.e.e.e.e.e.e.e.e.e.e.e.e.e.e.e.e.9.8.8.8.8.8.8.8.9.w.e.8.P       eXeXeXeXeXeX",
"eXeXeXeXeXeXeXeXeXeXeXeXeXeXeXeXeXeXeXeXeXeXeX          . 4 4 8 & 4                 o 3 4 S G H R R E 1.4.8.8.8.8.8.8.8.8.8.8.8.8.8.8.8.8.8.7.R &   K H.*X*X*X*X*XJ.h.u             eXeXeXeXeXeXeXeXeXeXeXeXeXeXeXeXeXeXeXeXeXeXeXeXeXeXeXeXeXeXeXeXeXeXeXeXeXeXeXeXeXeXeXeXeXeXeXeXeXeXeXeXeXeXeXeXeXeXeXeXeXeXeXeXeX          . G T R R T T R R R R R E <.Y o         - < g g g g g g g g g g v v v v v v v v v v v M v v v v v v v v v v v v v v v v v v v v v v v v v v v v v v v v v v v v v v v v v v v v v v v v v v v v v v v v v v v -     3.e.0.8.8.8.8.8.8.8.8.8.8.8.8.8.8.8.7.1.R P     S 7.8.8.7.8.8.4.J O @ 3.e.e.e.e.e.e.e.e.e.e.e.e.e.w.w.9.8.9.e.e.e.e.e.e.e.e.e.e.e.e.e.e.e.e.e.e.e.e.k.e.e.e.e.e.e.e.e.e.e.9.8.8.8.8.8.8.8.8.9.w.e.9.4       eXeXeXeXeX",
"eXeXeXeXeXeXeXeXeXeXeXeXeXeXeXeXeXeXeXeXeXeX        o S E <.3.7.<.[ R r 7 &                 + 4 4 F G Y [ 3.7.8.8.8.8.8.8.8.8.8.8.8.8.8.8.8.8.7.r   * n.@X*X*X=Xh.( @         eXeXeXeXeXeXeXeXeXeXeXeXeXeXeXeXeXeXeXeXeXeXeXeXeXeXeXeXeXeXeXeXeXeXeXeXeXeXeXeXeXeXeXeXeXeXeXeXeXeXeXeXeXeXeXeXeXeXeXeXeXeXeXeXeXeXeXeXeX          o G T T R T R R R T Y Y G .         : p g g g g g g g g g g g x v v v v v v v v v v v v v v v v v v v v v v v v v v v v v v v v v v v v v v v v v v v v v v v v v v v v v v v v v v v v v v v v v v v v v g O   @ 9.e.0.8.8.8.8.8.8.8.8.8.8.8.8.8.8.8.7.] R r   + F 8.8.8.8.8.8.8.4.F # 3.e.e.e.e.e.e.e.w.e.0.9.9.9.w.8.8.8.0.e.e.e.e.e.e.e.e.e.e.e.e.e.e.e.e.e.e.e.e.e.e.e.e.e.e.e.e.e.e.e.9.8.8.8.8.8.8.8.8.8.9.w.e.W         eXeXeXeX",
"eXeXeXeXeXeXeXeXeXeXeXeXeXeXeXeXeXeXeXeXeXeX      r T 4.7.7.7.7.8.8.7.8.] [ P 5 5 .                 @ & 7 P R 4.7.8.8.8.8.8.8.8.8.8.8.8.8.8.8.7.] @   U @X#XH.I 4     eXeXeXeXeXeXeXeXeXeXeXeXeXeXeXeXeXeXeXeXeXeXeXeXeXeXeXeXeXeXeXeXeXeXeXeXeXeXeXeXeXeXeXeXeXeXeXeXeXeXeXeXeXeXeXeXeXeXeXeXeXeXeXeXeXeXeXeXeXeXeXeXeXeX            S Y R R Y Y R R P S @         > d g g g g g g g g g g g g x v v v v v v v v v v v v v v v v v v v v v v v v v v v v v M v v v v v v v v v v v v v v v v v v v v v v v v v v v v v v v v v v v v v v v p o   S 0.e.9.8.8.8.8.8.8.8.8.8.8.8.8.8.7.7.7.E R 4   + ! 8.8.8.8.8.8.8.8.1.r G e.e.e.e.w.0.9.9.8.7.8.9.w.9.8.8.8.8.e.e.e.e.e.e.e.e.e.e.e.e.e.e.e.e.e.e.e.e.e.e.e.e.e.e.e.e.e.e.0.9.8.8.8.8.8.8.8.8.8.8.9.e.w.7       eXeXeXeX",
"eXeXeXeXeXeXeXeXeXeXeXeXeXeXeXeXeXeXeXeXeX      4 ] 7.3.<.1.1.8.8.8.8.8.8.8.7.8.] <.G 5 3                   & 5 P ] 8.8.8.8.8.8.8.8.8.8.8.8.8.[ Y F   o d.f.        eXeXeXeXeXeXeXeXeXeXeXeXeXeXeXeXeXeXeXeXeXeXeXeXeXeXeXeXeXeXeXeXeXeXeXeXeXeXeXeXeXeXeXeXeXeXeXeXeXeXeXeXeXeXeXeXeXeXeXeXeXeXeXeXeXeXeXeXeXeXeXeXeXeXeXeX            D Y R R T R G 7 o       o > g g g g g g g g g g g g g g x v v v v v v v v v v v v v v v v v v v v v v v v v v v v v v v v v v v v v v v v v v v v v v v v v v v v v v v v v v v v v v v v v v v v v 2     Q w.w.9.8.8.8.8.8.8.8.8.8.8.8.8.8.8.8.4.R Y o     <.8.8.8.8.8.8.8.8.8.R H w.w.0.9.8.8.8.8.8.8.8.9.9.8.8.8.8.9.w.e.e.e.e.e.e.e.e.e.e.e.e.e.e.e.e.e.e.e.e.e.e.e.e.e.e.e.e.0.8.8.8.8.8.8.8.8.8.8.8.8.9.0.e.<.      eXeXeXeX",
"eXeXeXeXeXeXeXeXeXeXeXeXeXeXeXeXeXeXeXeX        ] 7.<.E R R 1.8.8.8.8.8.8.7.8.8.7.7.8.1.] E S 7 3                 @ r r 8.7.8.8.8.8.8.8.8.1.<.E R G X   @       eXeXeXeXeXeXeXeXeXeXeXeXeXeXeXeXeXeXeXeXeXeXeXeXeXeXeXeXeXeXeXeXeXeXeXeXeXeXeXeXeXeXeXeXeXeXeXeXeXeXeXeXeXeXeXeXeXeXeXeXeXeXeXeXeXeXeXeXeXeXeXeXeXeXeXeXeXeXeX            S Y Y R F . o       O , g g g g g g g g g g g g g g g x v v v v v v v v v v v v v v v v v v v v v v v v v v v v v v v v v v v v v v v v v v v v v v v v v v v v v v v v v v v v v v v v v v v v x -     4.e.0.8.8.8.8.8.8.8.8.8.8.8.8.8.8.8.7.1.R P +   . 7.8.8.8.8.8.8.8.8.8.4.R 3.9.8.8.8.8.8.8.8.8.8.w.9.8.8.8.8.8.0.e.e.e.e.e.e.e.k.e.e.e.e.e.e.e.e.e.e.e.e.e.e.e.e.e.e.e.9.8.8.8.8.8.8.8.8.8.8.8.8.8.7.7.e.0.8       eXeXeX",
"eXeXeXeXeXeXeXeXeXeXeXeXeXeXeXeXeXeXeXeX      F 7.3.R T T T R 1.8.8.8.8.8.7.7.1.7.7.7.8.8.7.7.<.<.P 7 5 @             @ 7 F 8.8.8.8.8.8.1.1.E Y R Y 4       eXeXeXeXeXeXeXeXeXeXeXeXeXeXeXeXeXeXeXeXeXeXeXeXeXeXeXeXeXeXeXeXeXeXeXeXeXeXeXeXeXeXeXeXeXeXeXeXeXeXeXeXeXeXeXeXeXeXeXeXeXeXeXeXeXeXeXeXeXeXeXeXeXeXeXeXeXeXeXeXeXeXeX          8 Y G           O < g g g g g g g g g g g g g g g g h v v v v v v v v v v v v v v v v v v v v v v v v v v v v v v v v v v v v v v v v v v v v v v v v v v v v v v v v v v v v v v v v M v v v g O   4 9.e.0.8.8.8.8.8.8.8.8.8.8.8.8.8.8.8.7.] Y D +   8 4.8.8.8.8.8.8.8.8.8.8.Q 4.8.8.8.8.8.8.8.8.8.9.9.8.8.8.8.8.8.8.0.e.e.e.e.e.e.e.e.e.e.e.e.e.e.e.e.e.e.e.e.e.e.e.e.w.9.8.8.8.8.8.8.8.8.8.8.8.8.8.8.7.4.8.w.E       eXeXeX",
"eXeXeXeXeXeXeXeXeXeXeXeXeXeXeXeXeXeXeX      o ] 7.[ T T R T Y 1.8.8.8.8.7.[ R [ <.7.7.8.8.8.8.8.8.8.8.<.] G 7 5           5 [ 8.8.8.8.1.<.E Y E R R F     eXeXeXeXeXeXeXeXeXeXeXeXeXeXeXeXeXeXeXeXeXeXeXeXeXeXeXeXeXeXeXeXeXeXeXeXeXeXeXeXeXeXeXeXeXeXeXeXeXeXeXeXeXeXeXeXeXeXeXeXeXeXeXeXeXeXeXeXeXeXeXeXeXeXeXeXeXeXeXeXeXeXeXeXeX          3           > p g g g g g g g g g g g g g g g g g h v v v v v v v v v v v v v v v v v v v v v v v v v v v v v v v v v v v v v v v v v x v x h x v v v v v v v v v v v v v v v v v v v v v v <     G w.w.0.8.8.8.8.8.8.8.8.8.8.8.8.8.8.8.1.E R S .   G 3.8.8.8.8.8.8.8.8.8.8.4.4.8.8.8.8.8.8.8.8.8.9.8.8.8.8.8.8.8.0.1.w.e.e.e.e.e.e.e.e.e.e.e.e.e.e.e.e.e.e.e.e.e.e.0.9.8.8.8.8.8.8.8.8.8.8.8.8.8.8.4.1.<.E 0.1.4     eXeXeX",
"eXeXeXeXeXeXeXeXeXeXeXeXeXeXeXeXeXeXeX      S <.1.R T R T T R 1.8.8.8.7.[ T Y R E 1.8.8.8.8.8.8.8.8.8.8.8.8.1.<.E 8         & ] 8.8.1.<.R R Y Y Y R S     eXeXeXeXeXeXeXeXeXeXeXeXeXeXeXeXeXeXeXeXeXeXeXeXeXeXeXeXeXeXeXeXeXeXeXeXeXeXeXeXeXeXeXeXeXeXeXeXeXeXeXeXeXeXeXeXeXeXeXeXeXeXeXeXeXeXeXeXeXeXeXeXeXeXeXeXeXeXeXeXeXeXeXeXeXeX                    p g g g g g g g g g g g g g g g g g g h x v v v v v v v v v v v v v v v v v v v v v v v v v v v v v v v v v v v v v v x x h h g g x v v v v v v v v v v v v v v v v v v v v v v -     ] e.w.9.8.8.8.8.8.8.8.8.8.8.8.8.8.8.7.1.T T r     R 8.8.8.8.8.8.8.8.8.8.8.1.<.7.8.8.8.8.8.8.8.9.9.8.8.8.8.8.8.8.8.8.8.0.w.e.e.e.e.e.e.e.e.e.e.e.e.e.e.e.e.e.w.0.9.8.8.8.8.8.8.8.8.8.8.8.8.8.8.7.<.] E R R <.W +       eXeX",
"eXeXeXeXeXeXeXeXeXeXeXeXeXeXeXeXeXeX      + Y 7.E R T T T R R 8.8.8.7.1.T T E Y R <.7.8.8.8.7.7.1.1.8.8.8.8.8.8.7.7.R @     o F 1.1.<.R T T R R R R P &     eXeXeXeXeXeXeXeXeXeXeXeXeXeXeXeXeXeXeXeXeXeXeXeXeXeXeXeXeXeXeXeXeXeXeXeXeXeXeXeXeXeXeXeXeXeXeXeXeXeXeXeXeXeXeXeXeXeXeXeXeXeXeXeXeXeXeXeXeXeXeXeXeXeXeXeXeXeXeXeXeXeXeXeXeXeX                  o p g g g g g g g g g g g g g g g g g h g v v v v v v v v v v v v v v v v v v v v v v v v v v v v v v v v v x x x h h g g g g g g h v v v v v v v v v v v v v v v v v v v v v g O   o 0.e.0.8.8.8.8.8.8.8.8.8.8.8.8.8.8.8.7.] T P 5   @ [ 8.8.8.8.8.8.8.8.8.7.8.,.7.7.8.8.8.8.8.8.8.9.8.8.8.8.8.8.8.8.8.8.0.1.8.9.0.w.e.e.e.e.e.e.e.e.e.e.e.e.0.9.9.8.8.8.8.8.8.8.8.8.8.8.8.7.8.1.] [ R R T Y H F 7         eXeX",
"eXeXeXeXeXeXeXeXeXeXeXeXeXeXeXeXeXeX      5 ] <.E T T T T Y <.1.8.8.8.[ T R Y R R ] 7.8.7.7.1.] E E <.8.8.8.8.8.8.7.] Y &     . E [ Y T T R T T T T P .     eXeXeXeXeXeXeXeXeXeXeXeXeXeXeXeXeXeXeXeXeXeXeXeXeXeXeXeXeXeXeXeXeXeXeXeXeXeXeXeXeXeXeXeXeXeXeXeXeXeXeXeXeXeXeXeXeXeXeXeXeXeXeXeXeXeXeXeXeXeXeXeXeXeXeXeXeXeXeXeXeXeXeXeXeXeXeX                  o < d g g g g g g g g g g g g g g g g g x v v v v v v v v v v v v v v v v v v v v v v v v v v v v v v x x h g g g g g g g g g g g x v v v v v v v v v v v M v v v v v v v v p o   r w.e.9.7.8.8.8.8.8.8.8.8.8.8.8.8.8.8.1.[ T P &   7 ] 8.8.8.8.8.8.8.8.9.7.9.@.8.8.8.8.8.8.8.8.8.9.8.8.8.8.8.8.8.8.8.8.8.8.8.8.8.8.9.9.w.0.0.0.0.9.0.9.0.9.8.8.8.8.8.8.8.8.8.8.8.8.8.8.8.4.] [ E T R Y P F 4             eXeX",
"eXeXeXeXeXeXeXeXeXeXeXeXeXeXeXeXeXeX    . F 7.] R T T T R R <.8.8.8.<.Y T T E Y R <.8.8.7.4.E T T Y [ 7.8.8.8.8.8.4.R Y 8       S T T T T R T T T T P +     eXeXeXeXeXeXeXeXeXeXeXeXeXeXeXeXeXeXeXeXeXeXeXeXeXeXeXeXeXeXeXeXeXeXeXeXeXeXeXeXeXeXeXeXeXeXeXeXeXeXeXeXeXeXeXeXeXeXeXeXeXeXeXeXeXeXeXeXeXeXeXeXeXeXeXeXeXeXeXeXeXeXeXeXeXeXeXeX                    < d g g g g g g g g g g g g g g g g g x v v v v v v v v v v v v v v v v v v v v v v v v v v x h g g g g g g g g g g g g g g g g x v v v v v v v v v v v v v v v v v v v -     R e.0.9.8.8.8.8.8.8.8.8.8.8.8.8.8.8.8.1.R T S .   F 3.8.8.8.8.8.8.8.8.4.9.4.<.8.8.8.8.8.8.8.8.8.8.8.8.8.8.8.8.8.8.8.8.8.8.8.8.8.8.8.8.8.8.8.8.8.8.8.8.8.8.8.8.8.8.8.8.8.8.8.8.8.9.7.4.] E R T T Y P F 5             eXeXeXeX",
"eXeXeXeXeXeXeXeXeXeXeXeXeXeXeXeXeX      . ] 3.E T T T T T E 1.8.9.1.E R R R Y R E 7.8.8.7.<.Y T Y E Y 1.8.8.8.8.8.[ R T G .     7 Y T T T R T R R P @     eXeXeXeXeXeXeXeXeXeXeXeXeXeXeXeXeXeXeXeXeXeXeXeXeXeXeXeXeXeXeXeXeXeXeXeXeXeXeXeXeXeXeXeXeXeXeXeXeXeXeXeXeXeXeXeXeXeXeXeXeXeXeXeXeXeXeXeXeXeXeXeXeXeXeXeXeXeXeXeXeXeXeXeXeXeXeXeXeXeXeXeXeX              < d g g g g g g g g g g g g g g g g g x v v v v v v v v v v v v v v v v v v v v x x h h g g g g g g g g g g g g g g g g g g g h v v v v v v v v v v v v v v v v v v x       8.e.0.8.8.8.8.8.8.8.8.8.8.8.8.8.8.8.7.] T Y r     T 8.8.8.8.8.8.8.8.8.8.8.<.8.8.8.8.8.8.8.8.8.8.8.8.8.8.8.8.8.8.8.8.8.8.8.8.8.8.8.8.8.8.8.8.8.8.8.8.8.8.8.8.8.8.8.8.8.8.8.8.8.8.1.] R T T T R P G 7 o           eXeXeXeXeXeX",
"eXeXeXeXeXeXeXeXeXeXeXeXeXeXeXeXeX      r 7.] T T T T R T E 8.8.8.<.T Y Y R T R ] 4.8.7.4.R T R R T E 1.8.8.8.8.1.[ T T R .     o 7 Y T T T T T F o     eXeXeXeXeXeXeXeXeXeXeXeXeXeXeXeXeXeXeXeXeXeXeXeXeXeXeXeXeXeXeXeXeXeXeXeXeXeXeXeXeXeXeXeXeXeXeXeXeXeXeXeXeXeXeXeXeXeXeXeXeXeXeXeXeXeXeXeXeXeXeXeXeXeXeXeXeXeXeXeXeXeXeXeXeXeXeXeXeXeXeXeXeXeXeXeX            , d g g g g g g g g g g g g g h g g h v v v v v v v v v v v v v v v v x x x h g g g g g g g g g g g g g g g g g g d g g g d p p x v v v v v v v v v v v v v v v x <     7 e.e.9.8.8.8.8.8.8.8.8.8.8.8.8.8.8.8.1.R T P 4   3 E 8.8.8.8.8.8.8.8.8.7.9.<.7.8.8.8.8.8.8.8.8.8.8.8.8.8.8.8.8.8.8.8.8.8.8.8.8.8.8.8.8.8.8.8.8.8.8.8.8.8.8.8.8.8.8.8.8.8.8.8.1.<.Y T T R T Y G 7 .           eXeXeXeXeXeXeXeX",
"eXeXeXeXeXeXeXeXeXeXeXeXeXeXeXeX        <.3.E R T T T T R 1.8.8.1.<.R R R R T E <.7.7.7.<.T T T T T R 1.8.8.8.8.1.E T T P @       @ S Y T R R S @       eXeXeXeXeXeXeXeXeXeXeXeXeXeXeXeXeXeXeXeXeXeXeXeXeXeXeXeXeXeXeXeXeXeXeXeXeXeXeXeXeXeXeXeXeXeXeXeXeXeXeXeXeXeXeXeXeXeXeXeXeXeXeXeXeXeXeXeXeXeXeXeXeXeXeXeXeXeXeXeXeXeXeXeXeXeXeXeXeXeXeXeXeXeXeXeXeX            - , g g g g g g g g g g g g g g g g h x v v v v v v v v v v b x x h h g g g g g g g g g g g g g g g g g g g g g d < : : O O O d v v v v v v v v v v v v v v v h -   & R e.0.8.8.8.8.8.8.8.8.8.8.8.8.8.8.8.8.[ R T r @   r 1.8.8.8.8.8.8.8.8.8.8.4.R 8.8.8.8.8.8.8.8.8.8.8.8.8.8.8.8.8.8.8.8.8.8.8.8.8.8.8.8.8.8.8.8.8.8.8.8.8.8.8.8.8.8.8.8.8.8.1.[ T R R R T Y G 8 +           eXeXeXeXeXeXeXeXeXeX",
"eXeXeXeXeXeXeXeXeXeXeXeXeXeXeXeX      r <.] R T T T R T E 1.8.8.<.@.R T T Y T T 4.7.8.4.T T T T T T [ 7.8.8.8.1.] T R R Y +         @ G R T G 7       eXeXeXeXeXeXeXeXeXeXeXeXeXeXeXeXeXeXeXeXeXeXeXeXeXeXeXeXeXeXeXeXeXeXeXeXeXeXeXeXeXeXeXeXeXeXeXeXeXeXeXeXeXeXeXeXeXeXeXeXeXeXeXeXeXeXeXeXeXeXeXeXeXeXeXeXeXeXeXeXeXeXeXeXeXeXeXeXeXeXeXeXeXeXeXeXeXeXeX              O p d g g g g g g g g g g h g g g g h v v x v v v x x x h g g g g g g g g g g g g g g g g g g g g g d < < : : O           O g v v v v v v v v v v v v v v p o   r 7.e.0.7.8.8.8.8.8.8.8.8.8.8.8.8.8.7.4.T T T 4     Y 4.8.8.8.8.8.8.8.8.8.4.<.R 8.8.8.8.8.8.8.8.8.8.8.8.8.8.8.8.8.8.8.8.8.8.8.8.8.8.8.8.8.8.8.8.8.8.8.8.8.8.8.8.8.8.8.7.1.<.R R T T T Y G r @           eXeXeXeXeXeXeXeXeXeXeXeX",
"eXeXeXeXeXeXeXeXeXeXeXeXeXeXeX      + P 1.E R Y R R T T <.1.8.4.<.R R Y T T T <.8.8.8.[ T R T T T T 1.8.8.8.8.1.T T T T r             r P S 7       eXeXeXeXeXeXeXeXeXeXeXeXeXeXeXeXeXeXeXeXeXeXeXeXeXeXeXeXeXeXeXeXeXeXeXeXeXeXeXeXeXeXeXeXeXeXeXeXeXeXeXeXeXeXeXeXeXeXeXeXeXeXeXeXeXeXeXeXeXeXeXeXeXeXeXeXeXeXeXeXeXeXeXeXeXeXeXeXeXeXeXeXeXeXeXeXeXeXeXeXeX                O , < d d g g g g g d g g g g g g g g h h h h h g g g g g g g g g g g g g g g g g g g g g d < < : O                     : h v v v v v v v v v v v v x ,     Q e.e.8.8.8.8.8.8.8.8.8.8.8.8.8.8.8.8.<.T T G .   @ 1.8.8.8.8.8.8.8.8.8.8.1.W 8.8.8.8.8.8.8.8.8.8.8.8.8.8.8.8.8.8.8.8.8.8.8.8.8.8.8.8.8.8.8.8.8.8.8.8.8.8.8.8.8.8.1.1.<.T T T T R Y H S &             eXeXeXeXeXeXeXeXeXeXeXeXeX",
"eXeXeXeXeXeXeXeXeXeXeXeXeXeXeX      7 ] <.Y R R T T R E <.8.8.1.R Y R R T T T 1.7.8.1.E T T E T Y E 1.8.8.8.8.[ T T Y Y       7 4     . S 3       eXeXeXeXeXeXeXeXeXeXeXeXeXeXeXeXeXeXeXeXeXeXeXeXeXeXeXeXeXeXeXeXeXeXeXeXeXeXeXeXeXeXeXeXeXeXeXeXeXeXeXeXeXeXeXeXeXeXeXeXeXeXeXeXeXeXeXeXeXeXeXeXeXeXeXeXeXeXeXeXeXeXeXeXeXeXeXeXeXeXeXeXeXeXeXeXeXeXeXeXeXeXeX                    o o - O O O O   o < g g g g g g g g g g g g g g g g g g g g g g g g g g g g d d p , O                       eXeXeXeX< g v v v v M v v v v v v d O   5 4.e.0.8.8.8.8.8.8.8.8.8.8.8.8.8.8.8.1.E T Y r     8 7.8.8.8.8.8.8.8.8.8.4.E Q 8.8.8.8.8.8.8.8.8.8.8.8.8.8.8.8.8.8.8.8.8.8.8.8.8.8.8.8.8.8.8.8.8.8.8.8.8.8.8.8.1.1.<.[ T T T T Y H S &             eXeXeXeXeXeXeXeXeXeXeXeXeXeXeX",
"eXeXeXeXeXeXeXeXeXeXeXeXeXeXeX    . S 1.E R Y R R R R Y 4.8.1.<.R Y R Y T T [ 1.8.8.<.E Y E Y T T [ 8.8.8.8.1.E R Y R S o   . Y G       .     eXeXeXeXeXeXeXeXeXeXeXeXeXeXeXeXeXeXeXeXeXeXeXeXeXeXeXeXeXeXeXeXeXeXeXeXeXeXeXeXeXeXeXeXeXeXeXeXeXeXeXeXeXeXeXeXeXeXeXeXeXeXeXeXeXeXeXeXeXeXeXeXeXeXeXeXeXeXeXeXeXeXeXeXeXeXeXeXeXeXeXeXeXeXeXeXeXeXeXeXeXeXeXeXeXeXeX                                  o p g g g g g g g g g g g g g g g g g g g g g g g g g d < O                       eXeXeXeXeXeXeXeXeX, x v v v v v v v v v v ,     P 0.w.0.8.8.8.8.8.8.8.8.8.8.8.8.8.8.9.[ R T R &     Y 8.8.8.8.8.8.8.8.9.4.<.R Q 8.8.8.8.8.8.8.8.8.8.8.8.8.8.8.8.8.8.8.8.8.8.8.8.8.8.8.8.8.8.8.8.8.8.8.8.8.8.1.1.[ E Y R T T Y P D 4             eXeXeXeXeXeXeXeXeXeXeXeXeXeXeXeXeX",
"eXeXeXeXeXeXeXeXeXeXeXeXeXeX    o @ <.<.T Y R R Y R Y <.4.8.4.R R R R R R Y <.7.8.1.[ Y R Y R T T <.8.8.8.8.[ R R R P 7     5 ] [ &         eXeXeXeXeXeXeXeXeXeXeXeXeXeXeXeXeXeXeXeXeXeXeXeXeXeXeXeXeXeXeXeXeXeXeXeXeXeXeXeXeXeXeXeXeXeXeXeXeXeXeXeXeXeXeXeXeXeXeXeXeXeXeXeXeXeXeXeXeXeXeXeXeXeXeXeXeXeXeXeXeXeXeXeXeXeXeXeXeXeXeXeXeXeXeXeXeXeXeXeXeXeXeXeXeXeXeXeXeX                                  O d g g g g g g g g g g g g g g g g g g g d d < O                         eXeXeXeXeXeXeXeXeXeXeXeXeXO d v v v v v v v v x       3.e.0.9.8.8.8.8.8.8.8.8.8.8.8.8.8.8.1.R T T Y     & 1.8.8.8.8.8.8.8.8.1.@.T R Q 8.8.8.8.8.8.8.8.8.8.8.8.8.8.8.8.8.8.8.8.8.8.8.8.8.8.8.8.8.8.8.8.8.8.8.8.1.<.E E R Y R T T P F 4             eXeXeXeXeXeXeXeXeXeXeXeXeXeXeXeXeXeXeX",
"eXeXeXeXeXeXeXeXeXeXeXeXeXeX      r 4.R R Y R R T T R 1.8.7.<.Y Y R Y R R R <.1.1.1.R R Y R Y R R 1.8.8.8.1.<.R R T H &   . S 8.7.8       eXeXeXeXeXeXeXeXeXeXeXeXeXeXeXeXeXeXeXeXeXeXeXeXeXeXeXeXeXeXeXeXeXeXeXeXeXeXeXeXeXeXeXeXeXeXeXeXeXeXeXeXeXeXeXeXeXeXeXeXeXeXeXeXeXeXeXeXeXeXeXeXeXeXeXeXeXeXeXeXeXeXeXeXeXeXeXeXeXeXeXeXeXeXeXeXeXeXeXeXeXeXeXeXeXeXeXeXeXeXeXeX                                - d g g g g g g g g g g g g g g g d < O O o                       eXeXeXeXeXeXeXeXeXeXeXeXeXeXeXeXeX: p x v v v v v h <     5 e.e.9.8.8.8.8.8.8.8.8.8.8.8.8.8.8.1.<.T T Y S   . r 7.7.8.8.1.8.8.1.<.E R R @.8.8.8.8.8.8.8.8.8.8.8.8.8.8.8.8.8.8.8.8.8.8.8.8.8.1.0.9.9.1.0.9.1.0.1.1.1.R R R T T T T P F 5             eXeXeXeXeXeXeXeXeXeXeXeXeXeXeXeXeXeXeXeXeX",
"eXeXeXeXeXeXeXeXeXeXeXeXeX        ] <.R R R R T R T E 1.8.1.T T R R R R Y E 1.9.1.<.R R Y R R R <.1.8.8.1.1.@.R R Y S     @ ] 8.7.G       eXeXeXeXeXeXeXeXeXeXeXeXeXeXeXeXeXeXeXeXeXeXeXeXeXeXeXeXeXeXeXeXeXeXeXeXeXeXeXeXeXeXeXeXeXeXeXeXeXeXeXeXeXeXeXeXeXeXeXeXeXeXeXeXeXeXeXeXeXeXeXeXeXeXeXeXeXeXeXeXeXeXeXeXeXeXeXeXeXeXeXeXeXeXeXeXeXeXeXeXeXeXeXeXeXeXeXeXeXeXeXeXeXeXeX                            : d g g g g g g g g g g d < : O O o                     eXeXeXeXeXeXeXeXeXeXeXeXeXeXeXeXeXeXeXeXeXeXo , g v v v v d O   4 E e.9.<.3.7.7.8.8.8.8.8.8.8.8.8.8.8.1.E R T P 3   & G <.] <.<.<.<.<.E T T Y R 4.7.8.8.8.8.8.8.8.8.8.8.8.8.8.8.8.8.8.8.8.8.8.8.8.8.0.1.1.0.1.9.1.1.1.<.R <.T R R T T P G 7 .           eXeXeXeXeXeXeXeXeXeXeXeXeXeXeXeXeXeXeXeXeXeXeX",
"eXeXeXeXeXeXeXeXeXeXeXeXeX      r <.] R T T Y R R T E 8.8.<.Y R Y Y R R R <.8.8.<.Y T Y T R Y R <.8.8.8.1.<.Y Y T T @     8 7.8.8.[ @     eXeXeXeXeXeXeXeXeXeXeXeXeXeXeXeXeXeXeXeXeXeXeXeXeXeXeXeXeXeXeXeXeXeXeXeXeXeXeXeXeXeXeXeXeXeXeXeXeXeXeXeXeXeXeXeXeXeXeXeXeXeXeXeXeXeXeXeXeXeXeXeXeXeXeXeXeXeXeXeXeXeXeXeXeXeXeXeXeXeXeXeXeXeXeXeXeXeXeXeXeXeXeXeXeXeXeXeXeXeXeXeXeXeXeXeXeXeXeXeX        eXeXeXeXeXeXeXeXd d d d d d < , , O O                     eXeXeXeXeXeXeXeXeXeXeXeXeXeXeXeXeXeXeXeXeXeXeXeXeXeXeX  O < g b v , o   H 8.e.<.E E [ <.1.1.8.7.8.7.8.8.8.7.7.E Y R Y 8     7 P T T T T T T T T T T R @.8.8.8.8.8.8.8.8.8.8.8.8.8.8.8.8.8.8.8.8.8.8.8.8.8.8.0.9.9.1.1.1.1.[ Y R R P Y R R P G 7 @           eXeXeXeXeXeXeXeXeXeXeXeXeXeXeXeXeXeXeXeXeXeXeXeXeX",
"eXeXeXeXeXeXeXeXeXeXeXeXeX    o Y 7.] R T T T R T T 1.8.1.E R T R R R Y E 1.0.1.<.T T R R R R R 1.9.8.8.1.R T R R S       ] 7.8.8.1.8       eXeXeXeXeXeXeXeXeXeXeXeXeXeXeXeXeXeXeXeXeXeXeXeXeXeXeXeXeXeXeXeXeXeXeXeXeXeXeXeXeXeXeXeXeXeXeXeXeXeXeXeXeXeXeXeXeXeXeXeXeXeXeXeXeXeXeXeXeXeXeXeXeXeXeXeXeXeXeXeXeXeXeXeXeXeXeXeXeXeXeXeXeXeXeXeXeXeXeXeXeXeXeXeXeXeXeXeXeXeXeXeXeXeXeXeXeXeXeXeXeXeXeXeXeXeXeXeXeXeXeXeXO - : , O O                     eXeXeXeXeXeXeXeXeXeXeXeXeXeXeXeXeXeXeXeXeXeXeXeXeXeXeXeXeXeXeXeXeX  o o O o     4.e.8.R R T Y R E E E <.1.7.8.8.8.7.1.R T T P .   o G R T T T T T T T Y R R T <.8.8.8.8.8.8.8.8.8.8.8.8.8.8.8.8.8.8.8.8.8.8.8.8.8.8.1.9.1.<.1.<.R R R R R R R Y G r @           eXeXeXeXeXeXeXeXeXeXeXeXeXeXeXeXeXeXeXeXeXeXeXeXeXeXeX",
"eXeXeXeXeXeXeXeXeXeXeXeX      7 ] 8.1.] T Y T T R E 4.8.<.R Y R R Y R R E 1.9.1.R Y R R Y R Y @.1.8.8.9.<.R R R Y .     8 1.8.8.8.8.G       eXeXeXeXeXeXeXeXeXeXeXeXeXeXeXeXeXeXeXeXeXeXeXeXeXeXeXeXeXeXeXeXeXeXeXeXeXeXeXeXeXeXeXeXeXeXeXeXeXeXeXeXeXeXeXeXeXeXeXeXeXeXeXeXeXeXeXeXeXeXeXeXeXeXeXeXeXeXeXeXeXeXeXeXeXeXeXeXeXeXeXeXeXeXeXeXeXeXeXeXeXeXeXeXeXeXeXeXeXeXeXeXeXeXeXeXeXeXeXeXeXeXeXeXeXeXeXeXeXeXeXeXeXeX                      eXeXeXeXeXeXeXeXeXeXeXeXeXeXeXeXeXeXeXeXeXeXeXeXeXeXeXeXeXeXeXeXeXeXeXeXeXeX        5 0.w.3.T R Y Y E Y R Y E E [ [ <.1.1.E Y R R S     3 Y R R T T T T T R R R T <.4.8.8.8.8.8.8.8.8.8.8.8.8.8.8.8.8.8.8.8.8.8.8.8.8.1.1.1.<.R R R R R R R R R P G r @             eXeXeXeXeXeXeXeXeXeXeXeXeXeXeXeXeXeXeXeXeXeXeXeXeXeXeXeX",
"eXeXeXeXeXeXeXeXeXeXeXeX    + S 8.8.7.1.] E T T R 1.8.8.1.R R R R R R T @.1.1.[ R Y R Y R R R 1.9.8.8.1.T T R Y r     . Y 7.8.8.8.8.[       eXeXeXeXeXeXeXeXeXeXeXeXeXeXeXeXeXeXeXeXeXeXeXeXeXeXeXeXeXeXeXeXeXeXeXeXeXeXeXeXeXeXeXeXeXeXeXeXeXeXeXeXeXeXeXeXeXeXeXeXeXeXeXeXeXeXeXeXeXeXeXeXeXeXeXeXeXeXeXeXeXeXeXeXeXeXeXeXeXeXeXeXeXeXeXeXeXeXeXeXeXeXeXeXeXeXeXeXeXeXeXeXeXeXeXeXeXeXeXeXeXeXeXeXeXeXeXeXeXeXeXeXeXeXeXeXeX        eXeXeXeXeXeXeXeXeXeXeXeXeXeXeXeXeXeXeXeXeXeXeXeXeXeXeXeXeXeXeXeXeXeXeXeXeXeXeXeXeXeXeX    & [ e.8.W T R R R T R T T T T T R E E E T T R P @   + D T R Y T R T T T R Y Y P 7.8.8.8.8.8.8.8.8.8.8.8.8.8.8.7.8.8.8.8.8.8.8.1.1.<.[ [ T E R R Y R Y R Y P G S &             eXeXeXeXeXeXeXeXeXeXeXeXeXeXeXeXeXeXeXeXeXeXeXeXeXeXeXeXeXeX",
"eXeXeXeXeXeXeXeXeXeXeX      @ Y 1.7.7.8.1.1.1.<.1.8.8.8.1.E R Y Y R T T 1.8.1.E R R R Y R R <.1.9.9.1.1.R R R P 5     5 ] 8.8.8.8.8.] 3     eXeXeXeXeXeXeXeXeXeXeXeXeXeXeXeXeXeXeXeXeXeXeXeXeXeXeXeXeXeXeXeXeXeXeXeXeXeXeXeXeXeXeXeXeXeXeXeXeXeXeXeXeXeXeXeXeXeXeXeXeXeXeXeXeXeXeXeXeXeXeXeXeXeXeXeXeXeXeXeXeXeXeXeXeXeXeXeXeXeXeXeXeXeXeXeXeXeXeXeXeXeXeXeXeXeXeXeXeXeXeXeXeXeXeXeXeXeXeXeXeXeXeXeXeXeXeXeXeXeXeXeXeXeXeXeXeXeXeXeXeXeXeXeXeXeXeXeXeXeXeXeXeXeXeXeXeXeXeXeXeXeXeXeXeXeXeXeXeXeXeXeXeXeXeXeXeXeXeXeXeXeXeX        5 P Y R R T T Y R Y E T T T T Y R Y E E Y Y S     4 Y R Y R R T T T T ! G P <.8.8.8.8.7.8.8.8.8.8.8.8.8.8.7.8.1.8.7.1.1.1.<.E [ R T R T T T R R R Y Y P S 4 .           eXeXeXeXeXeXeXeXeXeXeXeXeXeXeXeXeXeXeXeXeXeXeXeXeXeXeXeXeXeXeXeX",
"eXeXeXeXeXeXeXeXeXeXeX      4 T E ] <.7.7.7.7.8.8.8.8.8.8.1.E Y Y R E 1.1.1.<.E R Y R R R Y <.1.9.1.1.@.Y T R G &   o S 7.8.8.8.8.8.1.&     eXeXeXeXeXeXeXeXeXeXeXeXeXeXeXeXeXeXeXeXeXeXeXeXeXeXeXeXeXeXeXeXeXeXeXeXeXeXeXeXeXeXeXeXeXeXeXeXeXeXeXeXeXeXeXeXeXeXeXeXeXeXeXeXeXeXeXeXeXeXeXeXeXeXeXeXeXeXeXeXeXeXeXeXeXeXeXeXeXeXeXeXeXeXeXeXeXeXeXeXeXeXeXeXeXeXeXeXeXeXeXeXeXeXeXeXeXeXeXeXeXeXeXeXeXeXeXeXeXeXeXeXeXeXeXeXeXeXeXeXeXeXeXeXeXeXeXeXeXeXeXeXeXeXeXeXeXeXeXeXeXeXeXeXeXeXeXeXeXeXeXeXeXeXeXeXeXeXeXeXeXeXeX          # o + 5 S P E Y R Y R T T T T R R T Y E S o   o 8 F S D Y T ! G Q 7 4 r <.1.8.8.8.8.8.8.8.8.8.8.8.8.8.<.1.<.<.<.E E T R T R Y R R Y T T R T R Y P F 4             eXeXeXeXeXeXeXeXeXeXeXeXeXeXeXeXeXeXeXeXeXeXeXeXeXeXeXeXeXeXeXeXeXeX",
"eXeXeXeXeXeXeXeXeXeXeX      S R R R T E [ <.1.1.7.7.8.8.8.7.1.<.@.<.<.1.1.9.1.T R Y R R R R <.0.9.w.1.<.T T T S     @ P 7.7.8.8.8.8.<.4       eXeXeXeXeXeXeXeXeXeXeXeXeXeXeXeXeXeXeXeXeXeXeXeXeXeXeXeXeXeXeXeXeXeXeXeXeXeXeXeXeXeXeXeXeXeXeXeXeXeXeXeXeXeXeXeXeXeXeXeXeXeXeXeXeXeXeXeXeXeXeXeXeXeXeXeXeXeXeXeXeXeXeXeXeXeXeXeXeXeXeXeXeXeXeXeXeXeXeXeXeXeXeXeXeXeXeXeXeXeXeXeXeXeXeXeXeXeXeXeXeXeXeXeXeXeXeXeXeXeXeXeXeXeXeXeXeXeXeXeXeXeXeXeXeXeXeXeXeXeXeXeXeXeXeXeXeXeXeXeXeXeXeXeXeXeXeXeXeXeXeXeXeXeXeXeXeXeXeXeXeXeXeXeX              . @ 3 8 G Y R T T T R R T R Y Y 5         o o     @ ; o   . 5 1.7.8.8.8.8.8.8.8.8.8.8.8.8.8.7.<.Y R R T R Y Y R R R T R T T Y R T T P F 4             eXeXeXeXeXeXeXeXeXeXeXeXeXeXeXeXeXeXeXeXeXeXeXeXeXeXeXeXeXeXeXeXeXeXeXeX",
"eXeXeXeXeXeXeXeXeXeXeX      8 R T T T T Y R T [ ] <.4.1.7.8.8.4.1.1.1.9.8.8.1.E R R Y R R T 1.1.1.1.<.R T T T &     3 R 1.7.8.8.8.7.R       eXeXeXeXeXeXeXeXeXeXeXeXeXeXeXeXeXeXeXeXeXeXeXeXeXeXeXeXeXeXeXeXeXeXeXeXeXeXeXeXeXeXeXeXeXeXeXeXeXeXeXeXeXeXeXeXeXeXeXeXeXeXeXeXeXeXeXeXeXeXeXeXeXeXeXeXeXeXeXeXeXeXeXeXeXeXeXeXeXeXeXeXeXeXeXeXeXeXeXeXeXeXeXeXeXeXeXeXeXeXeXeXeXeXeXeXeXeXeXeXeXeXeXeXeXeXeXeXeXeXeXeXeXeXeXeXeXeXeXeXeXeXeXeXeXeXeXeXeXeXeXeXeXeXeXeXeXeXeXeXeXeXeXeXeXeXeXeXeXeXeXeXeXeXeXeXeXeXeXeXeXeXeXeXeXeXeXeX              . . & 5 D H T Y R R Y R D .                   o . 3 S <.8.8.8.8.8.8.8.8.8.8.8.8.8.8.8.7.E R Y R T R R R T R Y T T T T R T P G 7 +           eXeXeXeXeXeXeXeXeXeXeXeXeXeXeXeXeXeXeXeXeXeXeXeXeXeXeXeXeXeXeXeXeXeXeXeXeXeX",
"eXeXeXeXeXeXeXeXeXeXeX      8 Y T R T T R R R R T T T ] [ <.7.1.9.0.9.9.8.8.1.1.R P R R R 1.1.9.1.<.Y Y T T D       G R R 3.8.7.8.4.4       eXeXeXeXeXeXeXeXeXeXeXeXeXeXeXeXeXeXeXeXeXeXeXeXeXeXeXeXeXeXeXeXeXeXeXeXeXeXeXeXeXeXeXeXeXeXeXeXeXeXeXeXeXeXeXeXeXeXeXeXeXeXeXeXeXeXeXeXeXeXeXeXeXeXeXeXeXeXeXeXeXeXeXeXeXeXeXeXeXeXeXeXeXeXeXeXeXeXeXeXeXeXeXeXeXeXeXeXeXeXeXeXeXeXeXeXeXeXeXeXeXeXeXeXeXeXeXeXeXeXeXeXeXeXeXeXeXeXeXeXeXeXeXeXeXeXeXeXeXeXeXeXeXeXeXeXeXeXeXeXeXeXeXeXeXeXeXeXeXeXeXeXeXeXeXeXeXeXeXeXeXeXeXeXeXeXeXeXeXeXeXeX              + @ 4 S S P R P @         o & @ @   3 7 F <.1.8.8.8.8.8.8.8.8.8.8.8.8.8.8.8.8.8.<.T R Y R T T R R T T R T T T P G 7 +           eXeXeXeXeXeXeXeXeXeXeXeXeXeXeXeXeXeXeXeXeXeXeXeXeXeXeXeXeXeXeXeXeXeXeXeXeXeXeXeX",
"eXeXeXeXeXeXeXeXeXeXeX      @ G T T T T R Y T Y R T T T E Y E [ <.1.1.1.8.8.0.9.1.<.E @.1.8.0.1.1.R R R R R +     & P T R R ] 3.] G         eXeXeXeXeXeXeXeXeXeXeXeXeXeXeXeXeXeXeXeXeXeXeXeXeXeXeXeXeXeXeXeXeXeXeXeXeXeXeXeXeXeXeXeXeXeXeXeXeXeXeXeXeXeXeXeXeXeXeXeXeXeXeXeXeXeXeXeXeXeXeXeXeXeXeXeXeXeXeXeXeXeXeXeXeXeXeXeXeXeXeXeXeXeXeXeXeXeXeXeXeXeXeXeXeXeXeXeXeXeXeXeXeXeXeXeXeXeXeXeXeXeXeXeXeXeXeXeXeXeXeXeXeXeXeXeXeXeXeXeXeXeXeXeXeXeXeXeXeXeXeXeXeXeXeXeXeXeXeXeXeXeXeXeXeXeXeXeXeXeXeXeXeXeXeXeXeXeXeXeXeXeXeXeXeXeXeXeXeXeXeXeXeXeXeX              . @ 3 5 3           . P G P 1.<.4.8.8.8.8.8.8.8.8.8.8.8.8.8.8.8.8.8.8.8.8.<.R R R T T R Y R T R R T Y H 8 +           eXeXeXeXeXeXeXeXeXeXeXeXeXeXeXeXeXeXeXeXeXeXeXeXeXeXeXeXeXeXeXeXeXeXeXeXeXeXeXeXeXeX",
"eXeXeXeXeXeXeXeXeXeXeXeX      8 R Y T T T T T R T T T Y E Y R T R R E <.<.<.1.1.1.9.1.8.8.1.1.<.R R R R R S o       5 H G Y H F 3 .       eXeXeXeXeXeXeXeXeXeXeXeXeXeXeXeXeXeXeXeXeXeXeXeXeXeXeXeXeXeXeXeXeXeXeXeXeXeXeXeXeXeXeXeXeXeXeXeXeXeXeXeXeXeXeXeXeXeXeXeXeXeXeXeXeXeXeXeXeXeXeXeXeXeXeXeXeXeXeXeXeXeXeXeXeXeXeXeXeXeXeXeXeXeXeXeXeXeXeXeXeXeXeXeXeXeXeXeXeXeXeXeXeXeXeXeXeXeXeXeXeXeXeXeXeXeXeXeXeXeXeXeXeXeXeXeXeXeXeXeXeXeXeXeXeXeXeXeXeXeXeXeXeXeXeXeXeXeXeXeXeXeXeXeXeXeXeXeXeXeXeXeXeXeXeXeXeXeXeXeXeXeXeXeXeXeXeXeXeXeXeXeXeXeXeXeXeXeXeXeX                    eX      D R E 3.8.8.8.8.8.8.8.8.8.8.8.8.8.8.8.8.8.8.8.8.7.7.<.R Y R T T T T T T T P G r @           eXeXeXeXeXeXeXeXeXeXeXeXeXeXeXeXeXeXeXeXeXeXeXeXeXeXeXeXeXeXeXeXeXeXeXeXeXeXeXeXeXeXeXeX",
"eXeXeXeXeXeXeXeXeXeXeXeX        5 P T T T T T R Y R Y E Y E Y E R Y Y R R R E E 1.1.1.1.1.1.T R R R Y R Y 3             & + +             eXeXeXeXeXeXeXeXeXeXeXeXeXeXeXeXeXeXeXeXeXeXeXeXeXeXeXeXeXeXeXeXeXeXeXeXeXeXeXeXeXeXeXeXeXeXeXeXeXeXeXeXeXeXeXeXeXeXeXeXeXeXeXeXeXeXeXeXeXeXeXeXeXeXeXeXeXeXeXeXeXeXeXeXeXeXeXeXeXeXeXeXeXeXeXeXeXeXeXeXeXeXeXeXeXeXeXeXeXeXeXeXeXeXeXeXeXeXeXeXeXeXeXeXeXeXeXeXeXeXeXeXeXeXeXeXeXeXeXeXeXeXeXeXeXeXeXeXeXeXeXeXeXeXeXeXeXeXeXeXeXeXeXeXeXeXeXeXeXeXeXeXeXeXeXeXeXeXeXeXeXeXeXeXeXeXeXeXeXeXeXeXeXeXeXeXeXeXeXeXeXeXeXeX          eXeX      7 R R <.7.8.8.8.8.8.8.8.8.8.8.8.8.8.8.8.8.8.8.7.4.<.R R T Y R T T T T Y P S 3             eXeXeXeXeXeXeXeXeXeXeXeXeXeXeXeXeXeXeXeXeXeXeXeXeXeXeXeXeXeXeXeXeXeXeXeXeXeXeXeXeXeXeXeXeX",
"eXeXeXeXeXeXeXeXeXeXeXeXeX          r R Y R T T E T R Y R Y R Y R R R R Y R R R R R R R @.R R R R R Y R G 3                             eXeXeXeXeXeXeXeXeXeXeXeXeXeXeXeXeXeXeXeXeXeXeXeXeXeXeXeXeXeXeXeXeXeXeXeXeXeXeXeXeXeXeXeXeXeXeXeXeXeXeXeXeXeXeXeXeXeXeXeXeXeXeXeXeXeXeXeXeXeXeXeXeXeXeXeXeXeXeXeXeXeXeXeXeXeXeXeXeXeXeXeXeXeXeXeXeXeXeXeXeXeXeXeXeXeXeXeXeXeXeXeXeXeXeXeXeXeXeXeXeXeXeXeXeXeXeXeXeXeXeXeXeXeXeXeXeXeXeXeXeXeXeXeXeXeXeXeXeXeXeXeXeXeXeXeXeXeXeXeXeXeXeXeXeXeXeXeXeXeXeXeXeXeXeXeXeXeXeXeXeXeXeXeXeXeXeXeXeXeXeXeXeXeXeXeXeXeXeXeXeXeXeXeXeXeXeXeX    eXeXeX    7 Y T ] 7.8.8.8.8.8.8.8.8.8.8.8.8.8.8.8.7.7.4.<.R Y E R R R T R T Y P S 3             eXeXeXeXeXeXeXeXeXeXeXeXeXeXeXeXeXeXeXeXeXeXeXeXeXeXeXeXeXeXeXeXeXeXeXeXeXeXeXeXeXeXeXeXeXeXeX",
"eXeXeXeXeXeXeXeXeXeXeXeXeXeX          . 7 5 S R P T Y E Y E T R Y R Y R R Y R Y R R R R R R Y R Y R R Y S o                           eXeXeXeXeXeXeXeXeXeXeXeXeXeXeXeXeXeXeXeXeXeXeXeXeXeXeXeXeXeXeXeXeXeXeXeXeXeXeXeXeXeXeXeXeXeXeXeXeXeXeXeXeXeXeXeXeXeXeXeXeXeXeXeXeXeXeXeXeXeXeXeXeXeXeXeXeXeXeXeXeXeXeXeXeXeXeXeXeXeXeXeXeXeXeXeXeXeXeXeXeXeXeXeXeXeXeXeXeXeXeXeXeXeXeXeXeXeXeXeXeXeXeXeXeXeXeXeXeXeXeXeXeXeXeXeXeXeXeXeXeXeXeXeXeXeXeXeXeXeXeXeXeXeXeXeXeXeXeXeXeXeXeXeXeXeXeXeXeXeXeXeXeXeXeXeXeXeXeXeXeXeXeXeXeXeXeXeXeXeXeXeXeXeXeXeXeXeXeXeXeXeXeXeXeXeXeXeXeXeXeXeXeXeX    @ T R Y 4.8.8.8.8.8.8.8.8.8.8.8.8.8.8.7.7.<.R Y R Y R R R R T Y P S 5             eXeXeXeXeXeXeXeXeXeXeXeXeXeXeXeXeXeXeXeXeXeXeXeXeXeXeXeXeXeXeXeXeXeXeXeXeXeXeXeXeXeXeXeXeXeXeXeXeX",
"eXeXeXeXeXeXeXeXeXeXeXeXeXeXeX                & 7 7 P Y Y Y Y R R R T R Y R Y R R Y R T R T T T R R R Y 3       . r 3 4             eXeXeXeXeXeXeXeXeXeXeXeXeXeXeXeXeXeXeXeXeXeXeXeXeXeXeXeXeXeXeXeXeXeXeXeXeXeXeXeXeXeXeXeXeXeXeXeXeXeXeXeXeXeXeXeXeXeXeXeXeXeXeXeXeXeXeXeXeXeXeXeXeXeXeXeXeXeXeXeXeXeXeXeXeXeXeXeXeXeXeXeXeXeXeXeXeXeXeXeXeXeXeXeXeXeXeXeXeXeXeXeXeXeXeXeXeXeXeXeXeXeXeXeXeXeXeXeXeXeXeXeXeXeXeXeXeXeXeXeXeXeXeXeXeXeXeXeXeXeXeXeXeXeXeXeXeXeXeXeXeXeXeXeXeXeXeXeXeXeXeXeXeXeXeXeXeXeXeXeXeXeXeXeXeXeXeXeXeXeXeXeXeXeXeXeXeXeXeXeXeXeXeXeXeXeXeXeXeXeXeXeXeXeXeX      F Y T ] 8.8.8.8.8.8.8.8.8.8.8.8.8.7.<.E R T T T T R R R Y P F 4             eXeXeXeXeXeXeXeXeXeXeXeXeXeXeXeXeXeXeXeXeXeXeXeXeXeXeXeXeXeXeXeXeXeXeXeXeXeXeXeXeXeXeXeXeXeXeXeXeXeXeX",
"eXeXeXeXeXeXeXeXeXeXeXeXeXeXeXeX                      4 5 r R P R Y T R R R R R T E Y T T T R T R R Y S       5 ] 4.4.] <.D .         eXeXeXeXeXeXeXeXeXeXeXeXeXeXeXeXeXeXeXeXeXeXeXeXeXeXeXeXeXeXeXeXeXeXeXeXeXeXeXeXeXeXeXeXeXeXeXeXeXeXeXeXeXeXeXeXeXeXeXeXeXeXeXeXeXeXeXeXeXeXeXeXeXeXeXeXeXeXeXeXeXeXeXeXeXeXeXeXeXeXeXeXeXeXeXeXeXeXeXeXeXeXeXeXeXeXeXeXeXeXeXeXeXeXeXeXeXeXeXeXeXeXeXeXeXeXeXeXeXeXeXeXeXeXeXeXeXeXeXeXeXeXeXeXeXeXeXeXeXeXeXeXeXeXeXeXeXeXeXeXeXeXeXeXeXeXeXeXeXeXeXeXeXeXeXeXeXeXeXeXeXeXeXeXeXeXeXeXeXeXeXeXeXeXeXeXeXeXeXeXeXeXeXeXeXeXeXeXeXeXeXeXeXeX      4 R T E 1.8.8.8.8.8.8.8.8.8.8.7.1.[ Y R T T T T T R E Y G 5 o           eXeXeXeXeXeXeXeXeXeXeXeXeXeXeXeXeXeXeXeXeXeXeXeXeXeXeXeXeXeXeXeXeXeXeXeXeXeXeXeXeXeXeXeXeXeXeXeXeXeXeXeXeX",
"eXeXeXeXeXeXeXeXeXeXeXeXeXeXeXeXeX        +   o             o 5 4 S Y Y R R R Y Y E R R T R T T Y T G .       5 1.8.8.8.7.1.F +       eXeXeXeXeXeXeXeXeXeXeXeXeXeXeXeXeXeXeXeXeXeXeXeXeXeXeXeXeXeXeXeXeXeXeXeXeXeXeXeXeXeXeXeXeXeXeXeXeXeXeXeXeXeXeXeXeXeXeXeXeXeXeXeXeXeXeXeXeXeXeXeXeXeXeXeXeXeXeXeXeXeXeXeXeXeXeXeXeXeXeXeXeXeXeXeXeXeXeXeXeXeXeXeXeXeXeXeXeXeXeXeXeXeXeXeXeXeXeXeXeXeXeXeXeXeXeXeXeXeXeXeXeXeXeXeXeXeXeXeXeXeXeXeXeXeXeXeXeXeXeXeXeXeXeXeXeXeXeXeXeXeXeXeXeXeXeXeXeXeXeXeXeXeXeXeXeXeXeXeXeXeXeXeXeXeXeXeXeXeXeXeXeXeXeXeXeXeXeXeXeXeXeXeXeXeXeXeXeXeXeXeXeXeXeX    4 P R R 1.8.8.8.8.8.8.8.8.7.1.[ Y T T T T R T T T P Y 8 .           eXeXeXeXeXeXeXeXeXeXeXeXeXeXeXeXeXeXeXeXeXeXeXeXeXeXeXeXeXeXeXeXeXeXeXeXeXeXeXeXeXeXeXeXeXeXeXeXeXeXeXeXeXeXeX",
"eXeXeXeXeXeXeXeXeXeXeXeXeXeXeXeXeX      o r G 7 5 &                 @ 5 5 G Y Y E Y Y R R Y T T Y 7 @           P 7.8.8.8.4.Y 7       eXeXeXeXeXeXeXeXeXeXeXeXeXeXeXeXeXeXeXeXeXeXeXeXeXeXeXeXeXeXeXeXeXeXeXeXeXeXeXeXeXeXeXeXeXeXeXeXeXeXeXeXeXeXeXeXeXeXeXeXeXeXeXeXeXeXeXeXeXeXeXeXeXeXeXeXeXeXeXeXeXeXeXeXeXeXeXeXeXeXeXeXeXeXeXeXeXeXeXeXeXeXeXeXeXeXeXeXeXeXeXeXeXeXeXeXeXeXeXeXeXeXeXeXeXeXeXeXeXeXeXeXeXeXeXeXeXeXeXeXeXeXeXeXeXeXeXeXeXeXeXeXeXeXeXeXeXeXeXeXeXeXeXeXeXeXeXeXeXeXeXeXeXeXeXeXeXeXeXeXeXeXeXeXeXeXeXeXeXeXeXeXeXeXeXeXeXeXeXeXeXeXeXeXeXeXeXeXeXeXeXeXeXeXeX    @ P Y R [ 1.8.8.8.8.8.1.1.[ Y R T T R T R T R Y G 7 +           eXeXeXeXeXeXeXeXeXeXeXeXeXeXeXeXeXeXeXeXeXeXeXeXeXeXeXeXeXeXeXeXeXeXeXeXeXeXeXeXeXeXeXeXeXeXeXeXeXeXeXeXeXeXeXeXeX",
"eXeXeXeXeXeXeXeXeXeXeXeXeXeXeXeXeX        r Y R P P S 5 4                   3 5 7 Y Y Y R T P F 5       &       7 8.8.8.7.<.R H o       eXeXeXeXeXeXeXeXeXeXeXeXeXeXeXeXeXeXeXeXeXeXeXeXeXeXeXeXeXeXeXeXeXeXeXeXeXeXeXeXeXeXeXeXeXeXeXeXeXeXeXeXeXeXeXeXeXeXeXeXeXeXeXeXeXeXeXeXeXeXeXeXeXeXeXeXeXeXeXeXeXeXeXeXeXeXeXeXeXeXeXeXeXeXeXeXeXeXeXeXeXeXeXeXeXeXeXeXeXeXeXeXeXeXeXeXeXeXeXeXeXeXeXeXeXeXeXeXeXeXeXeXeXeXeXeXeXeXeXeXeXeXeXeXeXeXeXeXeXeXeXeXeXeXeXeXeXeXeXeXeXeXeXeXeXeXeXeXeXeXeXeXeXeXeXeXeXeXeXeXeXeXeXeXeXeXeXeXeXeXeXeXeXeXeXeXeXeXeXeXeXeXeXeXeXeXeXeXeXeXeXeXeXeX      S R T E <.7.8.8.8.1.<.Y T T R T T T T Y Y G r +           eXeXeXeXeXeXeXeXeXeXeXeXeXeXeXeXeXeXeXeXeXeXeXeXeXeXeXeXeXeXeXeXeXeXeXeXeXeXeXeXeXeXeXeXeXeXeXeXeXeXeXeXeXeXeXeXeXeXeX",
"eXeXeXeXeXeXeXeXeXeXeXeXeXeXeXeXeX        . D R R T R R G 3         o             . 3 3 7 & +         4 Y P     @ R 8.8.7.E T H @       eXeXeXeXeXeXeXeXeXeXeXeXeXeXeXeXeXeXeXeXeXeXeXeXeXeXeXeXeXeXeXeXeXeXeXeXeXeXeXeXeXeXeXeXeXeXeXeXeXeXeXeXeXeXeXeXeXeXeXeXeXeXeXeXeXeXeXeXeXeXeXeXeXeXeXeXeXeXeXeXeXeXeXeXeXeXeXeXeXeXeXeXeXeXeXeXeXeXeXeXeXeXeXeXeXeXeXeXeXeXeXeXeXeXeXeXeXeXeXeXeXeXeXeXeXeXeXeXeXeXeXeXeXeXeXeXeXeXeXeXeXeXeXeXeXeXeXeXeXeXeXeXeXeXeXeXeXeXeXeXeXeXeXeXeXeXeXeXeXeXeXeXeXeXeXeXeXeXeXeXeXeXeXeXeXeXeXeXeXeXeXeXeXeXeXeXeXeXeXeXeXeXeXeXeXeXeXeXeXeXeXeXeXeXeX    @ R T Y E 1.7.1.<.E T T R E Y T T T Y P r &             eXeXeXeXeXeXeXeXeXeXeXeXeXeXeXeXeXeXeXeXeXeXeXeXeXeXeXeXeXeXeXeXeXeXeXeXeXeXeXeXeXeXeXeXeXeXeXeXeXeXeXeXeXeXeXeXeXeXeXeX",
"eXeXeXeXeXeXeXeXeXeXeXeXeXeXeXeXeXeX        3 F Y R T T T &       5 r r 3                           S <.7.E @     G 7.7.<.R R H       eXeXeXeXeXeXeXeXeXeXeXeXeXeXeXeXeXeXeXeXeXeXeXeXeXeXeXeXeXeXeXeXeXeXeXeXeXeXeXeXeXeXeXeXeXeXeXeXeXeXeXeXeXeXeXeXeXeXeXeXeXeXeXeXeXeXeXeXeXeXeXeXeXeXeXeXeXeXeXeXeXeXeXeXeXeXeXeXeXeXeXeXeXeXeXeXeXeXeXeXeXeXeXeXeXeXeXeXeXeXeXeXeXeXeXeXeXeXeXeXeXeXeXeXeXeXeXeXeXeXeXeXeXeXeXeXeXeXeXeXeXeXeXeXeXeXeXeXeXeXeXeXeXeXeXeXeXeXeXeXeXeXeXeXeXeXeXeXeXeXeXeXeXeXeXeXeXeXeXeXeXeXeXeXeXeXeXeXeXeXeXeXeXeXeXeXeXeXeXeXeXeXeXeXeXeXeXeXeXeXeXeXeXeXeXeX      S R T R E <.Y Y Y R T Y Y E T Y H S &             eXeXeXeXeXeXeXeXeXeXeXeXeXeXeXeXeXeXeXeXeXeXeXeXeXeXeXeXeXeXeXeXeXeXeXeXeXeXeXeXeXeXeXeXeXeXeXeXeXeXeXeXeXeXeXeXeXeXeXeXeXeX",
"eXeXeXeXeXeXeXeXeXeXeXeXeXeXeXeXeXeXeX        @ r S G G D @       S R R <.R r                 & S R 3.8.8.3.@     r 1.<.R R Y S @     eXeXeXeXeXeXeXeXeXeXeXeXeXeXeXeXeXeXeXeXeXeXeXeXeXeXeXeXeXeXeXeXeXeXeXeXeXeXeXeXeXeXeXeXeXeXeXeXeXeXeXeXeXeXeXeXeXeXeXeXeXeXeXeXeXeXeXeXeXeXeXeXeXeXeXeXeXeXeXeXeXeXeXeXeXeXeXeXeXeXeXeXeXeXeXeXeXeXeXeXeXeXeXeXeXeXeXeXeXeXeXeXeXeXeXeXeXeXeXeXeXeXeXeXeXeXeXeXeXeXeXeXeXeXeXeXeXeXeXeXeXeXeXeXeXeXeXeXeXeXeXeXeXeXeXeXeXeXeXeXeXeXeXeXeXeXeXeXeXeXeXeXeXeXeXeXeXeXeXeXeXeXeXeXeXeXeXeXeXeXeXeXeXeXeXeXeXeXeXeXeXeXeXeXeXeXeXeXeXeXeXeXeXeXeXeX      @ R R T R Y E Y E T T E Y Y P D 3             eXeXeXeXeXeXeXeXeXeXeXeXeXeXeXeXeXeXeXeXeXeXeXeXeXeXeXeXeXeXeXeXeXeXeXeXeXeXeXeXeXeXeXeXeXeXeXeXeXeXeXeXeXeXeXeXeXeXeXeXeXeXeXeX",
"eXeXeXeXeXeXeXeXeXeXeXeXeXeXeXeXeXeXeXeX          . o +           7 Y [ [ <.R @     & 7 8 r Y E 8.8.8.8.8.7.G     @ Y R R R P 5       eXeXeXeXeXeXeXeXeXeXeXeXeXeXeXeXeXeXeXeXeXeXeXeXeXeXeXeXeXeXeXeXeXeXeXeXeXeXeXeXeXeXeXeXeXeXeXeXeXeXeXeXeXeXeXeXeXeXeXeXeXeXeXeXeXeXeXeXeXeXeXeXeXeXeXeXeXeXeXeXeXeXeXeXeXeXeXeXeXeXeXeXeXeXeXeXeXeXeXeXeXeXeXeXeXeXeXeXeXeXeXeXeXeXeXeXeXeXeXeXeXeXeXeXeXeXeXeXeXeXeXeXeXeXeXeXeXeXeXeXeXeXeXeXeXeXeXeXeXeXeXeXeXeXeXeXeXeXeXeXeXeXeXeXeXeXeXeXeXeXeXeXeXeXeXeXeXeXeXeXeXeXeXeXeXeXeXeXeXeXeXeXeXeXeXeXeXeXeXeXeXeXeXeXeXeXeXeXeXeXeXeXeXeXeXeXeX      S Y R T T T R T T Y R P F 4             eXeXeXeXeXeXeXeXeXeXeXeXeXeXeXeXeXeXeXeXeXeXeXeXeXeXeXeXeXeXeXeXeXeXeXeXeXeXeXeXeXeXeXeXeXeXeXeXeXeXeXeXeXeXeXeXeXeXeXeXeXeXeXeXeXeX",
"eXeXeXeXeXeXeXeXeXeXeXeXeXeXeXeXeXeXeXeXeX                        & P Y Y R P .     4 P Y R E 7.8.8.8.8.8.8.R .   . S R R Y 7 .       eXeXeXeXeXeXeXeXeXeXeXeXeXeXeXeXeXeXeXeXeXeXeXeXeXeXeXeXeXeXeXeXeXeXeXeXeXeXeXeXeXeXeXeXeXeXeXeXeXeXeXeXeXeXeXeXeXeXeXeXeXeXeXeXeXeXeXeXeXeXeXeXeXeXeXeXeXeXeXeXeXeXeXeXeXeXeXeXeXeXeXeXeXeXeXeXeXeXeXeXeXeXeXeXeXeXeXeXeXeXeXeXeXeXeXeXeXeXeXeXeXeXeXeXeXeXeXeXeXeXeXeXeXeXeXeXeXeXeXeXeXeXeXeXeXeXeXeXeXeXeXeXeXeXeXeXeXeXeXeXeXeXeXeXeXeXeXeXeXeXeXeXeXeXeXeXeXeXeXeXeXeXeXeXeXeXeXeXeXeXeXeXeXeXeXeXeXeXeXeXeXeXeXeXeXeXeXeXeXeXeXeXeXeXeXeXeX      @ Y R T T T T R T P F 5             eXeXeXeXeXeXeXeXeXeXeXeXeXeXeXeXeXeXeXeXeXeXeXeXeXeXeXeXeXeXeXeXeXeXeXeXeXeXeXeXeXeXeXeXeXeXeXeXeXeXeXeXeXeXeXeXeXeXeXeXeXeXeXeXeXeXeXeX",
"eXeXeXeXeXeXeXeXeXeXeXeXeXeXeXeXeXeXeXeXeX                          4 P R R Y 4     + P R T E 4.8.8.8.8.8.8.] &     7 Y H 8 .       eXeXeXeXeXeXeXeXeXeXeXeXeXeXeXeXeXeXeXeXeXeXeXeXeXeXeXeXeXeXeXeXeXeXeXeXeXeXeXeXeXeXeXeXeXeXeXeXeXeXeXeXeXeXeXeXeXeXeXeXeXeXeXeXeXeXeXeXeXeXeXeXeXeXeXeXeXeXeXeXeXeXeXeXeXeXeXeXeXeXeXeXeXeXeXeXeXeXeXeXeXeXeXeXeXeXeXeXeXeXeXeXeXeXeXeXeXeXeXeXeXeXeXeXeXeXeXeXeXeXeXeXeXeXeXeXeXeXeXeXeXeXeXeXeXeXeXeXeXeXeXeXeXeXeXeXeXeXeXeXeXeXeXeXeXeXeXeXeXeXeXeXeXeXeXeXeXeXeXeXeXeXeXeXeXeXeXeXeXeXeXeXeXeXeXeXeXeXeXeXeXeXeXeXeXeXeXeXeXeXeXeXeXeXeXeXeXeXeX    . S R R T R E P S 5 o           eXeXeXeXeXeXeXeXeXeXeXeXeXeXeXeXeXeXeXeXeXeXeXeXeXeXeXeXeXeXeXeXeXeXeXeXeXeXeXeXeXeXeXeXeXeXeXeXeXeXeXeXeXeXeXeXeXeXeXeXeXeXeXeXeXeXeXeXeXeX",
"eXeXeXeXeXeXeXeXeXeXeXeXeXeXeXeXeXeXeXeXeXeXeXeXeXeXeXeXeXeXeX      o 4 F Y Y 7     . F T T T 4.8.8.8.8.8.7.7.3     & G 4           eXeXeXeXeXeXeXeXeXeXeXeXeXeXeXeXeXeXeXeXeXeXeXeXeXeXeXeXeXeXeXeXeXeXeXeXeXeXeXeXeXeXeXeXeXeXeXeXeXeXeXeXeXeXeXeXeXeXeXeXeXeXeXeXeXeXeXeXeXeXeXeXeXeXeXeXeXeXeXeXeXeXeXeXeXeXeXeXeXeXeXeXeXeXeXeXeXeXeXeXeXeXeXeXeXeXeXeXeXeXeXeXeXeXeXeXeXeXeXeXeXeXeXeXeXeXeXeXeXeXeXeXeXeXeXeXeXeXeXeXeXeXeXeXeXeXeXeXeXeXeXeXeXeXeXeXeXeXeXeXeXeXeXeXeXeXeXeXeXeXeXeXeXeXeXeXeXeXeXeXeXeXeXeXeXeXeXeXeXeXeXeXeXeXeXeXeXeXeXeXeXeXeXeXeXeXeXeXeXeXeXeXeXeXeXeXeXeXeX      @ Y T T P S S @           eXeXeXeXeXeXeXeXeXeXeXeXeXeXeXeXeXeXeXeXeXeXeXeXeXeXeXeXeXeXeXeXeXeXeXeXeXeXeXeXeXeXeXeXeXeXeXeXeXeXeXeXeXeXeXeXeXeXeXeXeXeXeXeXeXeXeXeXeXeXeXeX",
"eXeXeXeXeXeXeXeXeXeXeXeXeXeXeXeXeXeXeXeXeXeXeXeXeXeXeXeXeXeXeX          @ 3 8 7       8 Y R R ] 7.8.8.8.8.8.7.P     . o         eXeXeXeXeXeXeXeXeXeXeXeXeXeXeXeXeXeXeXeXeXeXeXeXeXeXeXeXeXeXeXeXeXeXeXeXeXeXeXeXeXeXeXeXeXeXeXeXeXeXeXeXeXeXeXeXeXeXeXeXeXeXeXeXeXeXeXeXeXeXeXeXeXeXeXeXeXeXeXeXeXeXeXeXeXeXeXeXeXeXeXeXeXeXeXeXeXeXeXeXeXeXeXeXeXeXeXeXeXeXeXeXeXeXeXeXeXeXeXeXeXeXeXeXeXeXeXeXeXeXeXeXeXeXeXeXeXeXeXeXeXeXeXeXeXeXeXeXeXeXeXeXeXeXeXeXeXeXeXeXeXeXeXeXeXeXeXeXeXeXeXeXeXeXeXeXeXeXeXeXeXeXeXeXeXeXeXeXeXeXeXeXeXeXeXeXeXeXeXeXeXeXeXeXeXeXeXeXeXeXeXeXeXeXeXeXeXeXeXeXeXeX      7 Y G S +           eXeXeXeXeXeXeXeXeXeXeXeXeXeXeXeXeXeXeXeXeXeXeXeXeXeXeXeXeXeXeXeXeXeXeXeXeXeXeXeXeXeXeXeXeXeXeXeXeXeXeXeXeXeXeXeXeXeXeXeXeXeXeXeXeXeXeXeXeXeXeXeXeXeX",
"eXeXeXeXeXeXeXeXeXeXeXeXeXeXeXeXeXeXeXeXeXeXeXeXeXeXeXeXeXeXeXeX                      3 Y Y R [ 7.8.8.8.8.8.7.[ .             eXeXeXeXeXeXeXeXeXeXeXeXeXeXeXeXeXeXeXeXeXeXeXeXeXeXeXeXeXeXeXeXeXeXeXeXeXeXeXeXeXeXeXeXeXeXeXeXeXeXeXeXeXeXeXeXeXeXeXeXeXeXeXeXeXeXeXeXeXeXeXeXeXeXeXeXeXeXeXeXeXeXeXeXeXeXeXeXeXeXeXeXeXeXeXeXeXeXeXeXeXeXeXeXeXeXeXeXeXeXeXeXeXeXeXeXeXeXeXeXeXeXeXeXeXeXeXeXeXeXeXeXeXeXeXeXeXeXeXeXeXeXeXeXeXeXeXeXeXeXeXeXeXeXeXeXeXeXeXeXeXeXeXeXeXeXeXeXeXeXeXeXeXeXeXeXeXeXeXeXeXeXeXeXeXeXeXeXeXeXeXeXeXeXeXeXeXeXeXeXeXeXeXeXeXeXeXeXeXeXeXeXeXeXeXeXeXeXeXeXeXeXeX        7 @           eXeXeXeXeXeXeXeXeXeXeXeXeXeXeXeXeXeXeXeXeXeXeXeXeXeXeXeXeXeXeXeXeXeXeXeXeXeXeXeXeXeXeXeXeXeXeXeXeXeXeXeXeXeXeXeXeXeXeXeXeXeXeXeXeXeXeXeXeXeXeXeXeXeXeXeX",
"eXeXeXeXeXeXeXeXeXeXeXeXeXeXeXeXeXeXeXeXeXeXeXeXeXeXeXeXeXeXeXeXeXeX                  + G R Y E 3.8.8.8.8.8.7.[ o           eXeXeXeXeXeXeXeXeXeXeXeXeXeXeXeXeXeXeXeXeXeXeXeXeXeXeXeXeXeXeXeXeXeXeXeXeXeXeXeXeXeXeXeXeXeXeXeXeXeXeXeXeXeXeXeXeXeXeXeXeXeXeXeXeXeXeXeXeXeXeXeXeXeXeXeXeXeXeXeXeXeXeXeXeXeXeXeXeXeXeXeXeXeXeXeXeXeXeXeXeXeXeXeXeXeXeXeXeXeXeXeXeXeXeXeXeXeXeXeXeXeXeXeXeXeXeXeXeXeXeXeXeXeXeXeXeXeXeXeXeXeXeXeXeXeXeXeXeXeXeXeXeXeXeXeXeXeXeXeXeXeXeXeXeXeXeXeXeXeXeXeXeXeXeXeXeXeXeXeXeXeXeXeXeXeXeXeXeXeXeXeXeXeXeXeXeXeXeXeXeXeXeXeXeXeXeXeXeXeXeXeXeXeXeXeXeXeXeXeXeXeXeXeXeX                  eXeXeXeXeXeXeXeXeXeXeXeXeXeXeXeXeXeXeXeXeXeXeXeXeXeXeXeXeXeXeXeXeXeXeXeXeXeXeXeXeXeXeXeXeXeXeXeXeXeXeXeXeXeXeXeXeXeXeXeXeXeXeXeXeXeXeXeXeXeXeXeXeXeXeXeXeX",
"eXeXeXeXeXeXeXeXeXeXeXeXeXeXeXeXeXeXeXeXeXeXeXeXeXeXeXeXeXeXeXeXeXeXeXeX              . S R R R 1.8.8.8.8.8.8.[ &       eXeXeXeXeXeXeXeXeXeXeXeXeXeXeXeXeXeXeXeXeXeXeXeXeXeXeXeXeXeXeXeXeXeXeXeXeXeXeXeXeXeXeXeXeXeXeXeXeXeXeXeXeXeXeXeXeXeXeXeXeXeXeXeXeXeXeXeXeXeXeXeXeXeXeXeXeXeXeXeXeXeXeXeXeXeXeXeXeXeXeXeXeXeXeXeXeXeXeXeXeXeXeXeXeXeXeXeXeXeXeXeXeXeXeXeXeXeXeXeXeXeXeXeXeXeXeXeXeXeXeXeXeXeXeXeXeXeXeXeXeXeXeXeXeXeXeXeXeXeXeXeXeXeXeXeXeXeXeXeXeXeXeXeXeXeXeXeXeXeXeXeXeXeXeXeXeXeXeXeXeXeXeXeXeXeXeXeXeXeXeXeXeXeXeXeXeXeXeXeXeXeXeXeXeXeXeXeXeXeXeXeXeXeXeXeXeXeXeXeXeXeXeXeXeXeXeXeX            eXeXeXeXeXeXeXeXeXeXeXeXeXeXeXeXeXeXeXeXeXeXeXeXeXeXeXeXeXeXeXeXeXeXeXeXeXeXeXeXeXeXeXeXeXeXeXeXeXeXeXeXeXeXeXeXeXeXeXeXeXeXeXeXeXeXeXeXeXeXeXeXeXeXeXeXeXeXeX",
"eXeXeXeXeXeXeXeXeXeXeXeXeXeXeXeXeXeXeXeXeXeXeXeXeXeXeXeXeXeXeXeXeXeXeXeXeXeXeXeXeX      4 Y R Y E 4.8.8.8.8.8.Y       eXeXeXeXeXeXeXeXeXeXeXeXeXeXeXeXeXeXeXeXeXeXeXeXeXeXeXeXeXeXeXeXeXeXeXeXeXeXeXeXeXeXeXeXeXeXeXeXeXeXeXeXeXeXeXeXeXeXeXeXeXeXeXeXeXeXeXeXeXeXeXeXeXeXeXeXeXeXeXeXeXeXeXeXeXeXeXeXeXeXeXeXeXeXeXeXeXeXeXeXeXeXeXeXeXeXeXeXeXeXeXeXeXeXeXeXeXeXeXeXeXeXeXeXeXeXeXeXeXeXeXeXeXeXeXeXeXeXeXeXeXeXeXeXeXeXeXeXeXeXeXeXeXeXeXeXeXeXeXeXeXeXeXeXeXeXeXeXeXeXeXeXeXeXeXeXeXeXeXeXeXeXeXeXeXeXeXeXeXeXeXeXeXeXeXeXeXeXeXeXeXeXeXeXeXeXeXeXeXeXeXeXeXeXeXeXeXeXeXeXeXeXeXeXeXeXeXeXeXeX      eXeXeXeXeXeXeXeXeXeXeXeXeXeXeXeXeXeXeXeXeXeXeXeXeXeXeXeXeXeXeXeXeXeXeXeXeXeXeXeXeXeXeXeXeXeXeXeXeXeXeXeXeXeXeXeXeXeXeXeXeXeXeXeXeXeXeXeXeXeXeXeXeXeXeXeXeXeXeXeXeX",
"eXeXeXeXeXeXeXeXeXeXeXeXeXeXeXeXeXeXeXeXeXeXeXeXeXeXeXeXeXeXeXeXeXeXeXeXeXeXeXeXeX      + H R R R <.7.8.8.8.8.4       eXeXeXeXeXeXeXeXeXeXeXeXeXeXeXeXeXeXeXeXeXeXeXeXeXeXeXeXeXeXeXeXeXeXeXeXeXeXeXeXeXeXeXeXeXeXeXeXeXeXeXeXeXeXeXeXeXeXeXeXeXeXeXeXeXeXeXeXeXeXeXeXeXeXeXeXeXeXeXeXeXeXeXeXeXeXeXeXeXeXeXeXeXeXeXeXeXeXeXeXeXeXeXeXeXeXeXeXeXeXeXeXeXeXeXeXeXeXeXeXeXeXeXeXeXeXeXeXeXeXeXeXeXeXeXeXeXeXeXeXeXeXeXeXeXeXeXeXeXeXeXeXeXeXeXeXeXeXeXeXeXeXeXeXeXeXeXeXeXeXeXeXeXeXeXeXeXeXeXeXeXeXeXeXeXeXeXeXeXeXeXeXeXeXeXeXeXeXeXeXeXeXeXeXeXeXeXeXeXeXeXeXeXeXeXeXeXeXeXeXeXeXeXeXeXeXeXeXeXeXeXeXeXeXeXeXeXeXeXeXeXeXeXeXeXeXeXeXeXeXeXeXeXeXeXeXeXeXeXeXeXeXeXeXeXeXeXeXeXeXeXeXeXeXeXeXeXeXeXeXeXeXeXeXeXeXeXeXeXeXeXeXeXeXeXeXeXeXeXeXeXeXeXeXeXeXeXeXeXeXeXeXeXeX",
"eXeXeXeXeXeXeXeXeXeXeXeXeXeXeXeXeXeXeXeXeXeXeXeXeXeXeXeXeXeXeXeXeXeXeXeXeXeXeXeXeXeX      5 H Y T R ] 7.7.7.P o       eXeXeXeXeXeXeXeXeXeXeXeXeXeXeXeXeXeXeXeXeXeXeXeXeXeXeXeXeXeXeXeXeXeXeXeXeXeXeXeXeXeXeXeXeXeXeXeXeXeXeXeXeXeXeXeXeXeXeXeXeXeXeXeXeXeXeXeXeXeXeXeXeXeXeXeXeXeXeXeXeXeXeXeXeXeXeXeXeXeXeXeXeXeXeXeXeXeXeXeXeXeXeXeXeXeXeXeXeXeXeXeXeXeXeXeXeXeXeXeXeXeXeXeXeXeXeXeXeXeXeXeXeXeXeXeXeXeXeXeXeXeXeXeXeXeXeXeXeXeXeXeXeXeXeXeXeXeXeXeXeXeXeXeXeXeXeXeXeXeXeXeXeXeXeXeXeXeXeXeXeXeXeXeXeXeXeXeXeXeXeXeXeXeXeXeXeXeXeXeXeXeXeXeXeXeXeXeXeXeXeXeXeXeXeXeXeXeXeXeXeXeXeXeXeXeXeXeXeXeXeXeXeXeXeXeXeXeXeXeXeXeXeXeXeXeXeXeXeXeXeXeXeXeXeXeXeXeXeXeXeXeXeXeXeXeXeXeXeXeXeXeXeXeXeXeXeXeXeXeXeXeXeXeXeXeXeXeXeXeXeXeXeXeXeXeXeXeXeXeXeXeXeXeXeXeXeXeXeXeXeXeXeXeX",
"eXeXeXeXeXeXeXeXeXeXeXeXeXeXeXeXeXeXeXeXeXeXeXeXeXeXeXeXeXeXeXeXeXeXeXeXeXeXeXeXeXeX        7 Y Y R R R E P         eXeXeXeXeXeXeXeXeXeXeXeXeXeXeXeXeXeXeXeXeXeXeXeXeXeXeXeXeXeXeXeXeXeXeXeXeXeXeXeXeXeXeXeXeXeXeXeXeXeXeXeXeXeXeXeXeXeXeXeXeXeXeXeXeXeXeXeXeXeXeXeXeXeXeXeXeXeXeXeXeXeXeXeXeXeXeXeXeXeXeXeXeXeXeXeXeXeXeXeXeXeXeXeXeXeXeXeXeXeXeXeXeXeXeXeXeXeXeXeXeXeXeXeXeXeXeXeXeXeXeXeXeXeXeXeXeXeXeXeXeXeXeXeXeXeXeXeXeXeXeXeXeXeXeXeXeXeXeXeXeXeXeXeXeXeXeXeXeXeXeXeXeXeXeXeXeXeXeXeXeXeXeXeXeXeXeXeXeXeXeXeXeXeXeXeXeXeXeXeXeXeXeXeXeXeXeXeXeXeXeXeXeXeXeXeXeXeXeXeXeXeXeXeXeXeXeXeXeXeXeXeXeXeXeXeXeXeXeXeXeXeXeXeXeXeXeXeXeXeXeXeXeXeXeXeXeXeXeXeXeXeXeXeXeXeXeXeXeXeXeXeXeXeXeXeXeXeXeXeXeXeXeXeXeXeXeXeXeXeXeXeXeXeXeXeXeXeXeXeXeXeXeXeXeXeXeXeXeXeXeXeXeXeXeX",
"eXeXeXeXeXeXeXeXeXeXeXeXeXeXeXeXeXeXeXeXeXeXeXeXeXeXeXeXeXeXeXeXeXeXeXeXeXeXeXeXeXeXeX        . 7 8 S 5 @ o         eXeXeXeXeXeXeXeXeXeXeXeXeXeXeXeXeXeXeXeXeXeXeXeXeXeXeXeXeXeXeXeXeXeXeXeXeXeXeXeXeXeXeXeXeXeXeXeXeXeXeXeXeXeXeXeXeXeXeXeXeXeXeXeXeXeXeXeXeXeXeXeXeXeXeXeXeXeXeXeXeXeXeXeXeXeXeXeXeXeXeXeXeXeXeXeXeXeXeXeXeXeXeXeXeXeXeXeXeXeXeXeXeXeXeXeXeXeXeXeXeXeXeXeXeXeXeXeXeXeXeXeXeXeXeXeXeXeXeXeXeXeXeXeXeXeXeXeXeXeXeXeXeXeXeXeXeXeXeXeXeXeXeXeXeXeXeXeXeXeXeXeXeXeXeXeXeXeXeXeXeXeXeXeXeXeXeXeXeXeXeXeXeXeXeXeXeXeXeXeXeXeXeXeXeXeXeXeXeXeXeXeXeXeXeXeXeXeXeXeXeXeXeXeXeXeXeXeXeXeXeXeXeXeXeXeXeXeXeXeXeXeXeXeXeXeXeXeXeXeXeXeXeXeXeXeXeXeXeXeXeXeXeXeXeXeXeXeXeXeXeXeXeXeXeXeXeXeXeXeXeXeXeXeXeXeXeXeXeXeXeXeXeXeXeXeXeXeXeXeXeXeXeXeXeXeXeXeXeXeXeXeXeXeXeX",
"eXeXeXeXeXeXeXeXeXeXeXeXeXeXeXeXeXeXeXeXeXeXeXeXeXeXeXeXeXeXeXeXeXeXeXeXeXeXeXeXeXeXeXeX                          eXeXeXeXeXeXeXeXeXeXeXeXeXeXeXeXeXeXeXeXeXeXeXeXeXeXeXeXeXeXeXeXeXeXeXeXeXeXeXeXeXeXeXeXeXeXeXeXeXeXeXeXeXeXeXeXeXeXeXeXeXeXeXeXeXeXeXeXeXeXeXeXeXeXeXeXeXeXeXeXeXeXeXeXeXeXeXeXeXeXeXeXeXeXeXeXeXeXeXeXeXeXeXeXeXeXeXeXeXeXeXeXeXeXeXeXeXeXeXeXeXeXeXeXeXeXeXeXeXeXeXeXeXeXeXeXeXeXeXeXeXeXeXeXeXeXeXeXeXeXeXeXeXeXeXeXeXeXeXeXeXeXeXeXeXeXeXeXeXeXeXeXeXeXeXeXeXeXeXeXeXeXeXeXeXeXeXeXeXeXeXeXeXeXeXeXeXeXeXeXeXeXeXeXeXeXeXeXeXeXeXeXeXeXeXeXeXeXeXeXeXeXeXeXeXeXeXeXeXeXeXeXeXeXeXeXeXeXeXeXeXeXeXeXeXeXeXeXeXeXeXeXeXeXeXeXeXeXeXeXeXeXeXeXeXeXeXeXeXeXeXeXeXeXeXeXeXeXeXeXeXeXeXeXeXeXeXeXeXeXeXeXeXeXeXeXeXeXeXeXeXeXeXeXeXeXeXeXeXeXeXeXeXeXeXeX",
"eXeXeXeXeXeXeXeXeXeXeXeXeXeXeXeXeXeXeXeXeXeXeXeXeXeXeXeXeXeXeXeXeXeXeXeXeXeXeXeXeXeXeXeX                        eXeXeXeXeXeXeXeXeXeXeXeXeXeXeXeXeXeXeXeXeXeXeXeXeXeXeXeXeXeXeXeXeXeXeXeXeXeXeXeXeXeXeXeXeXeXeXeXeXeXeXeXeXeXeXeXeXeXeXeXeXeXeXeXeXeXeXeXeXeXeXeXeXeXeXeXeXeXeXeXeXeXeXeXeXeXeXeXeXeXeXeXeXeXeXeXeXeXeXeXeXeXeXeXeXeXeXeXeXeXeXeXeXeXeXeXeXeXeXeXeXeXeXeXeXeXeXeXeXeXeXeXeXeXeXeXeXeXeXeXeXeXeXeXeXeXeXeXeXeXeXeXeXeXeXeXeXeXeXeXeXeXeXeXeXeXeXeXeXeXeXeXeXeXeXeXeXeXeXeXeXeXeXeXeXeXeXeXeXeXeXeXeXeXeXeXeXeXeXeXeXeXeXeXeXeXeXeXeXeXeXeXeXeXeXeXeXeXeXeXeXeXeXeXeXeXeXeXeXeXeXeXeXeXeXeXeXeXeXeXeXeXeXeXeXeXeXeXeXeXeXeXeXeXeXeXeXeXeXeXeXeXeXeXeXeXeXeXeXeXeXeXeXeXeXeXeXeXeXeXeXeXeXeXeXeXeXeXeXeXeXeXeXeXeXeXeXeXeXeXeXeXeXeXeXeXeXeXeXeXeXeXeXeXeXeXeX",
"eXeXeXeXeXeXeXeXeXeXeXeXeXeXeXeXeXeXeXeXeXeXeXeXeXeXeXeXeXeXeXeXeXeXeXeXeXeXeXeXeXeXeXeXeXeX                  eXeXeXeXeXeXeXeXeXeXeXeXeXeXeXeXeXeXeXeXeXeXeXeXeXeXeXeXeXeXeXeXeXeXeXeXeXeXeXeXeXeXeXeXeXeXeXeXeXeXeXeXeXeXeXeXeXeXeXeXeXeXeXeXeXeXeXeXeXeXeXeXeXeXeXeXeXeXeXeXeXeXeXeXeXeXeXeXeXeXeXeXeXeXeXeXeXeXeXeXeXeXeXeXeXeXeXeXeXeXeXeXeXeXeXeXeXeXeXeXeXeXeXeXeXeXeXeXeXeXeXeXeXeXeXeXeXeXeXeXeXeXeXeXeXeXeXeXeXeXeXeXeXeXeXeXeXeXeXeXeXeXeXeXeXeXeXeXeXeXeXeXeXeXeXeXeXeXeXeXeXeXeXeXeXeXeXeXeXeXeXeXeXeXeXeXeXeXeXeXeXeXeXeXeXeXeXeXeXeXeXeXeXeXeXeXeXeXeXeXeXeXeXeXeXeXeXeXeXeXeXeXeXeXeXeXeXeXeXeXeXeXeXeXeXeXeXeXeXeXeXeXeXeXeXeXeXeXeXeXeXeXeXeXeXeXeXeXeXeXeXeXeXeXeXeXeXeXeXeXeXeXeXeXeXeXeXeXeXeXeXeXeXeXeXeXeXeXeXeXeXeXeXeXeXeXeXeXeXeXeXeXeXeXeXeXeXeX",
"eXeXeXeXeXeXeXeXeXeXeXeXeXeXeXeXeXeXeXeXeXeXeXeXeXeXeXeXeXeXeXeXeXeXeXeXeXeXeXeXeXeXeXeXeXeXeXeXeX      eXeXeXeXeXeXeXeXeXeXeXeXeXeXeXeXeXeXeXeXeXeXeXeXeXeXeXeXeXeXeXeXeXeXeXeXeXeXeXeXeXeXeXeXeXeXeXeXeXeXeXeXeXeXeXeXeXeXeXeXeXeXeXeXeXeXeXeXeXeXeXeXeXeXeXeXeXeXeXeXeXeXeXeXeXeXeXeXeXeXeXeXeXeXeXeXeXeXeXeXeXeXeXeXeXeXeXeXeXeXeXeXeXeXeXeXeXeXeXeXeXeXeXeXeXeXeXeXeXeXeXeXeXeXeXeXeXeXeXeXeXeXeXeXeXeXeXeXeXeXeXeXeXeXeXeXeXeXeXeXeXeXeXeXeXeXeXeXeXeXeXeXeXeXeXeXeXeXeXeXeXeXeXeXeXeXeXeXeXeXeXeXeXeXeXeXeXeXeXeXeXeXeXeXeXeXeXeXeXeXeXeXeXeXeXeXeXeXeXeXeXeXeXeXeXeXeXeXeXeXeXeXeXeXeXeXeXeXeXeXeXeXeXeXeXeXeXeXeXeXeXeXeXeXeXeXeXeXeXeXeXeXeXeXeXeXeXeXeXeXeXeXeXeXeXeXeXeXeXeXeXeXeXeXeXeXeXeXeXeXeXeXeXeXeXeXeXeXeXeXeXeXeXeXeXeXeXeXeXeXeXeXeXeXeXeXeXeXeXeXeX",
"eXeXeXeXeXeXeXeXeXeXeXeXeXeXeXeXeXeXeXeXeXeXeXeXeXeXeXeXeXeXeXeXeXeXeXeXeXeXeXeXeXeXeXeXeXeXeXeXeXeXeXeXeXeXeXeXeXeXeXeXeXeXeXeXeXeXeXeXeXeXeXeXeXeXeXeXeXeXeXeXeXeXeXeXeXeXeXeXeXeXeXeXeXeXeXeXeXeXeXeXeXeXeXeXeXeXeXeXeXeXeXeXeXeXeXeXeXeXeXeXeXeXeXeXeXeXeXeXeXeXeXeXeXeXeXeXeXeXeXeXeXeXeXeXeXeXeXeXeXeXeXeXeXeXeXeXeXeXeXeXeXeXeXeXeXeXeXeXeXeXeXeXeXeXeXeXeXeXeXeXeXeXeXeXeXeXeXeXeXeXeXeXeXeXeXeXeXeXeXeXeXeXeXeXeXeXeXeXeXeXeXeXeXeXeXeXeXeXeXeXeXeXeXeXeXeXeXeXeXeXeXeXeXeXeXeXeXeXeXeXeXeXeXeXeXeXeXeXeXeXeXeXeXeXeXeXeXeXeXeXeXeXeXeXeXeXeXeXeXeXeXeXeXeXeXeXeXeXeXeXeXeXeXeXeXeXeXeXeXeXeXeXeXeXeXeXeXeXeXeXeXeXeXeXeXeXeXeXeXeXeXeXeXeXeXeXeXeXeXeXeXeXeXeXeXeXeXeXeXeXeXeXeXeXeXeXeXeXeXeXeXeXeXeXeXeXeXeXeXeXeXeXeXeXeXeXeXeXeXeXeXeXeXeXeXeXeXeXeXeXeXeXeX",
"eXeXeXeXeXeXeXeXeXeXeXeXeXeXeXeXeXeXeXeXeXeXeXeXeXeXeXeXeXeXeXeXeXeXeXeXeXeXeXeXeXeXeXeXeXeXeXeXeXeXeXeXeXeXeXeXeXeXeXeXeXeXeXeXeXeXeXeXeXeXeXeXeXeXeXeXeXeXeXeXeXeXeXeXeXeXeXeXeXeXeXeXeXeXeXeXeXeXeXeXeXeXeXeXeXeXeXeXeXeXeXeXeXeXeXeXeXeXeXeXeXeXeXeXeXeXeXeXeXeXeXeXeXeXeXeXeXeXeXeXeXeXeXeXeXeXeXeXeXeXeXeXeXeXeXeXeXeXeXeXeXeXeXeXeXeXeXeXeXeXeXeXeXeXeXeXeXeXeXeXeXeXeXeXeXeXeXeXeXeXeXeXeXeXeXeXeXeXeXeXeXeXeXeXeXeXeXeXeXeXeXeXeXeXeXeXeXeXeXeXeXeXeXeXeXeXeXeXeXeXeXeXeXeXeXeXeXeXeXeXeXeXeXeXeXeXeXeXeXeXeXeXeXeXeXeXeXeXeXeXeXeXeXeXeXeXeXeXeXeXeXeXeXeXeXeXeXeXeXeXeXeXeXeXeXeXeXeXeXeXeXeXeXeXeXeXeXeXeXeXeXeXeXeXeXeXeXeXeXeXeXeXeXeXeXeXeXeXeXeXeXeXeXeXeXeXeXeXeXeXeXeXeXeXeXeXeXeXeXeXeXeXeXeXeXeXeXeXeXeXeXeXeXeXeXeXeXeXeXeXeXeXeXeXeXeXeXeXeXeXeXeXeX",
"eXeXeXeXeXeXeXeXeXeXeXeXeXeXeXeXeXeXeXeXeXeXeXeXeXeXeXeXeXeXeXeXeXeXeXeXeXeXeXeXeXeXeXeXeXeXeXeXeXeXeXeXeXeXeXeXeXeXeXeXeXeXeXeXeXeXeXeXeXeXeXeXeXeXeXeXeXeXeXeXeXeXeXeXeXeXeXeXeXeXeXeXeXeXeXeXeXeXeXeXeXeXeXeXeXeXeXeXeXeXeXeXeXeXeXeXeXeXeXeXeXeXeXeXeXeXeXeXeXeXeXeXeXeXeXeXeXeXeXeXeXeXeXeXeXeXeXeXeXeXeXeXeXeXeXeXeXeXeXeXeXeXeXeXeXeXeXeXeXeXeXeXeXeXeXeXeXeXeXeXeXeXeXeXeXeXeXeXeXeXeXeXeXeXeXeXeXeXeXeXeXeXeXeXeXeXeXeXeXeXeXeXeXeXeXeXeXeXeXeXeXeXeXeXeXeXeXeXeXeXeXeXeXeXeXeXeXeXeXeXeXeXeXeXeXeXeXeXeXeXeXeXeXeXeXeXeXeXeXeXeXeXeXeXeXeXeXeXeXeXeXeXeXeXeXeXeXeXeXeXeXeXeXeXeXeXeXeXeXeXeXeXeXeXeXeXeXeXeXeXeXeXeXeXeXeXeXeXeXeXeXeXeXeXeXeXeXeXeXeXeXeXeXeXeXeXeXeXeXeXeXeXeXeXeXeXeXeXeXeXeXeXeXeXeXeXeXeXeXeXeXeXeXeXeXeXeXeXeXeXeXeXeXeXeXeXeXeXeXeXeXeXeX",
"eXeXeXeXeXeXeXeXeXeXeXeXeXeXeXeXeXeXeXeXeXeXeXeXeXeXeXeXeXeXeXeXeXeXeXeXeXeXeXeXeXeXeXeXeXeXeXeXeXeXeXeXeXeXeXeXeXeXeXeXeXeXeXeXeXeXeXeXeXeXeXeXeXeXeXeXeXeXeXeXeXeXeXeXeXeXeXeXeXeXeXeXeXeXeXeXeXeXeXeXeXeXeXeXeXeXeXeXeXeXeXeXeXeXeXeXeXeXeXeXeXeXeXeXeXeXeXeXeXeXeXeXeXeXeXeXeXeXeXeXeXeXeXeXeXeXeXeXeXeXeXeXeXeXeXeXeXeXeXeXeXeXeXeXeXeXeXeXeXeXeXeXeXeXeXeXeXeXeXeXeXeXeXeXeXeXeXeXeXeXeXeXeXeXeXeXeXeXeXeXeXeXeXeXeXeXeXeXeXeXeXeXeXeXeXeXeXeXeXeXeXeXeXeXeXeXeXeXeXeXeXeXeXeXeXeXeXeXeXeXeXeXeXeXeXeXeXeXeXeXeXeXeXeXeXeXeXeXeXeXeXeXeXeXeXeXeXeXeXeXeXeXeXeXeXeXeXeXeXeXeXeXeXeXeXeXeXeXeXeXeXeXeXeXeXeXeXeXeXeXeXeXeXeXeXeXeXeXeXeXeXeXeXeXeXeXeXeXeXeXeXeXeXeXeXeXeXeXeXeXeXeXeXeXeXeXeXeXeXeXeXeXeXeXeXeXeXeXeXeXeXeXeXeXeXeXeXeXeXeXeXeXeXeXeXeXeXeXeXeXeXeXeX",
"eXeXeXeXeXeXeXeXeXeXeXeXeXeXeXeXeXeXeXeXeXeXeXeXeXeXeXeXeXeXeXeXeXeXeXeXeXeXeXeXeXeXeXeXeXeXeXeXeXeXeXeXeXeXeXeXeXeXeXeXeXeXeXeXeXeXeXeXeXeXeXeXeXeXeXeXeXeXeXeXeXeXeXeXeXeXeXeXeXeXeXeXeXeXeXeXeXeXeXeXeXeXeXeXeXeXeXeXeXeXeXeXeXeXeXeXeXeXeXeXeXeXeXeXeXeXeXeXeXeXeXeXeXeXeXeXeXeXeXeXeXeXeXeXeXeXeXeXeXeXeXeXeXeXeXeXeXeXeXeXeXeXeXeXeXeXeXeXeXeXeXeXeXeXeXeXeXeXeXeXeXeXeXeXeXeXeXeXeXeXeXeXeXeXeXeXeXeXeXeXeXeXeXeXeXeXeXeXeXeXeXeXeXeXeXeXeXeXeXeXeXeXeXeXeXeXeXeXeXeXeXeXeXeXeXeXeXeXeXeXeXeXeXeXeXeXeXeXeXeXeXeXeXeXeXeXeXeXeXeXeXeXeXeXeXeXeXeXeXeXeXeXeXeXeXeXeXeXeXeXeXeXeXeXeXeXeXeXeXeXeXeXeXeXeXeXeXeXeXeXeXeXeXeXeXeXeXeXeXeXeXeXeXeXeXeXeXeXeXeXeXeXeXeXeXeXeXeXeXeXeXeXeXeXeXeXeXeXeXeXeXeXeXeXeXeXeXeXeXeXeXeXeXeXeXeXeXeXeXeXeXeXeXeXeXeXeXeXeXeXeXeXeX",
"eXeXeXeXeXeXeXeXeXeXeXeXeXeXeXeXeXeXeXeXeXeXeXeXeXeXeXeXeXeXeXeXeXeXeXeXeXeXeXeXeXeXeXeXeXeXeXeXeXeXeXeXeXeXeXeXeXeXeXeXeXeXeXeXeXeXeXeXeXeXeXeXeXeXeXeXeXeXeXeXeXeXeXeXeXeXeXeXeXeXeXeXeXeXeXeXeXeXeXeXeXeXeXeXeXeXeXeXeXeXeXeXeXeXeXeXeXeXeXeXeXeXeXeXeXeXeXeXeXeXeXeXeXeXeXeXeXeXeXeXeXeXeXeXeXeXeXeXeXeXeXeXeXeXeXeXeXeXeXeXeXeXeXeXeXeXeXeXeXeXeXeXeXeXeXeXeXeXeXeXeXeXeXeXeXeXeXeXeXeXeXeXeXeXeXeXeXeXeXeXeXeXeXeXeXeXeXeXeXeXeXeXeXeXeXeXeXeXeXeXeXeXeXeXeXeXeXeXeXeXeXeXeXeXeXeXeXeXeXeXeXeXeXeXeXeXeXeXeXeXeXeXeXeXeXeXeXeXeXeXeXeXeXeXeXeXeXeXeXeXeXeXeXeXeXeXeXeXeXeXeXeXeXeXeXeXeXeXeXeXeXeXeXeXeXeXeXeXeXeXeXeXeXeXeXeXeXeXeXeXeXeXeXeXeXeXeXeXeXeXeXeXeXeXeXeXeXeXeXeXeXeXeXeXeXeXeXeXeXeXeXeXeXeXeXeXeXeXeXeXeXeXeXeXeXeXeXeXeXeXeXeXeXeXeXeXeXeXeXeXeXeXeX"
};
