/* XPM */
static char *_282_0766d1246324878c5dc70dcea4864569971ac78573812b60d68fef11d29b4df9[] = {
/* columns rows colors chars-per-pixel */
"232 439 220 2 ",
"   c #010001",
".  c #070807",
"X  c #0A0906",
"o  c #070108",
"O  c #0B020B",
"+  c #070808",
"@  c #0B0C0B",
"#  c #080705",
"$  c #120E0B",
"%  c #0E100F",
"&  c #13110E",
"*  c #1A160C",
"=  c #0F0210",
"-  c #130314",
";  c #150916",
":  c #160318",
">  c #1B041D",
",  c #170918",
"<  c #1B0A1C",
"1  c #0F1110",
"2  c #131414",
"3  c #151817",
"4  c #1D1A13",
"5  c #171A19",
"6  c #1A1B1B",
"7  c #191615",
"8  c #221E16",
"9  c #331A1A",
"0  c #3A1E1E",
"q  c #221C0F",
"w  c #1C201F",
"e  c #252219",
"r  c #2B261B",
"t  c #342B19",
"y  c #1E0421",
"u  c #1F0B20",
"i  c #1F1E21",
"p  c #220425",
"a  c #220D24",
"s  c #260529",
"d  c #2A052D",
"f  c #260C29",
"g  c #2A0C2D",
"h  c #271029",
"j  c #2B112D",
"k  c #251027",
"l  c #2E0531",
"z  c #2E0C32",
"x  c #320636",
"c  c #310935",
"v  c #350939",
"b  c #390D3D",
"n  c #340738",
"m  c #2E1331",
"M  c #321435",
"N  c #361439",
"B  c #3A163D",
"V  c #3B193E",
"C  c #321C34",
"Z  c #1E2221",
"A  c #222524",
"S  c #242927",
"D  c #262B29",
"F  c #2A2D2C",
"G  c #2A2726",
"H  c #322D22",
"J  c #3B2222",
"K  c #2B302E",
"L  c #393326",
"P  c #3C3629",
"I  c #3A3428",
"U  c #2E3431",
"Y  c #313635",
"T  c #323936",
"R  c #353C3A",
"E  c #393E3C",
"W  c #353639",
"Q  c #302E32",
"!  c #482626",
"~  c #522A2A",
"^  c #423C2D",
"/  c #463B23",
"(  c #593636",
")  c #433D34",
"_  c #623D3D",
"`  c #463A1E",
"'  c #39413E",
"]  c #4B4433",
"[  c #484131",
"{  c #554D39",
"}  c #524A38",
"|  c #5A523D",
" . c #524526",
".. c #645531",
"X. c #7B693F",
"o. c #3C0F40",
"O. c #3E1242",
"+. c #3D1941",
"@. c #3D3241",
"#. c #411545",
"$. c #421A46",
"%. c #461A4A",
"&. c #491D4D",
"*. c #441748",
"=. c #4C1F50",
"-. c #4D2051",
";. c #522256",
":. c #542459",
">. c #59275E",
",. c #492D4C",
"<. c #3D4542",
"1. c #3F4844",
"2. c #424444",
"3. c #414A46",
"4. c #444D4A",
"5. c #4C4B4C",
"6. c #47514D",
"7. c #48524E",
"8. c #4B5551",
"9. c #4E5854",
"0. c #545354",
"q. c #515B56",
"w. c #555F5B",
"e. c #5C5C5C",
"r. c #5D5B56",
"t. c #594D4A",
"y. c #645A43",
"u. c #635943",
"i. c #775858",
"p. c #694C4C",
"a. c #6C6249",
"s. c #74694E",
"d. c #786D52",
"f. c #7E7255",
"g. c #636363",
"h. c #6C6C6C",
"j. c #737373",
"k. c #7C7C7C",
"l. c #7A7875",
"z. c #76696D",
"x. c #6D596E",
"c. c #90763D",
"v. c #877A5B",
"b. c #887547",
"n. c #836767",
"m. c #8E7675",
"M. c #B2944F",
"N. c #8E8162",
"B. c #978967",
"V. c #968B70",
"C. c #A2926D",
"Z. c #AB9B74",
"A. c #B39C67",
"S. c #B4A37A",
"D. c #BAA97E",
"F. c #948152",
"G. c #D0AC59",
"H. c #E3BD65",
"J. c #D9B665",
"K. c #F6CB69",
"L. c #FFD26B",
"P. c #F4CC6F",
"I. c #867887",
"U. c #848484",
"Y. c #8B8B8B",
"T. c #8D8080",
"R. c #939393",
"E. c #9B9B9B",
"W. c #9D949E",
"Q. c #978889",
"!. c #A79393",
"~. c #BEAC81",
"^. c #A7A49C",
"/. c #A49CA5",
"(. c #A4A4A4",
"). c #ABABAB",
"_. c #A8A0A0",
"`. c #B3B3B3",
"'. c #BBBBBB",
"]. c #BCB5B6",
"[. c #B7ACAC",
"{. c #C1AF83",
"}. c #C5B386",
"|. c #CCB98A",
" X c #D1BD8E",
".X c #C7BBBB",
"XX c #DAC594",
"oX c #D9C289",
"OX c #FFDB86",
"+X c #E3CE9A",
"@X c #E8D29D",
"#X c #FBDD96",
"$X c #FFE19B",
"%X c #EDD7A1",
"&X c #F3DDA5",
"*X c #ECDEBB",
"=X c #FFE7AD",
"-X c #FCE3A6",
";X c #FFE9B4",
":X c #D8CCB0",
">X c #C4BEC5",
",X c #C5C5C5",
"<X c #CCCCCC",
"1X c #CDC4C6",
"2X c #D5CCCC",
"3X c #D3D3D3",
"4X c #DCDCDC",
"5X c #DAD4D4",
"6X c #D1CFD1",
"7X c #E3DDDD",
"8X c #F9ECCF",
"9X c #E6E6E6",
"0X c #ECECEC",
"qX c #EAE5E5",
"wX c #F4F4F4",
"eX c #FFFFFF",
"rX c #F8F6F6",
"tX c #F0EDED",
"yX c #E2DEE2",
"uX c None",
/* pixels */
"uXuXuXuXuXuXuXuXuXuXuXuXuXuXuXuXuXuXuXuXuXuXuXuXuXuXuXuXuXuXuXuXuXuXuXuXuXuXuXuXuXuXuXuXuXuXuXuXuXuXuXuXuXuXuXuXuXuXuXuXuXuXuXuXuXuXuXuXuXuXuXuXuXuXuXuXuXuXuXuXuXuXuXuXuXuXuXuXuXuXuXuXuXuXuXuXuXuXuXuXuXuXuXuXuXuXuXuXuXuXuXuXuXuXuXuXuXuXuXuXuXuXuXuXuXuXuXuXuXuXuXuXuXuXuXuXuXuXuXuXuXuXuXuXuXuXuXuXuXuXuXuXuXuXuXuXuXuXuXuXuXuXuXuXuXuXuXuXuXuXuXuXuXuXuXuXuXuXuXuXuXuXuXuXuXuXuXuXuXuXuXuXuXuXuXuXuXuXuXuXuXuXuXuXuXuXuXuXuXuXuXuXuXuXuXuXuXuXuXuXuXuXuXuXuXuXuXuXuXuXuXuX",
"uXuXuXuXuXuXuXuXuXuXuXuXuXuXuXuXuXuXuXuXuXuXuXuXuXuXuXuXuXuXuXuXuXuXuXuXuXuXuXuXuXuXuXuXuXuXuXuXuXuXuXuXuXuXuXuXuXuXuXuXuXuXuXuXuXuXuXuXuXuXuXuXuXuXuXuXuXuXuXuXuXuXuXuXuXuX                                                                                          uXuXuXuXuXuXuXuXuXuXuXuXuXuXuXuXuXuXuXuXuXuXuXuXuXuXuXuXuXuXuXuXuXuXuXuXuXuXuXuXuXuXuXuXuXuXuXuXuXuXuXuXuXuXuXuXuXuXuXuXuXuXuXuXuXuXuXuXuXuXuXuXuXuXuXuXuXuXuXuXuXuXuXuXuXuXuXuXuXuXuXuXuXuXuXuXuXuXuXuXuX",
"uXuXuXuXuXuXuXuXuXuXuXuXuXuXuXuXuXuXuXuXuXuXuXuXuXuXuXuXuXuXuXuXuXuXuXuXuXuXuXuXuXuXuXuXuXuXuXuXuXuXuXuXuXuXuXuXuXuXuXuXuXuXuXuXuXuXuXuXuXuX                                                                                                                                          uXuXuXuXuXuXuXuXuXuXuXuXuXuXuXuXuXuXuXuXuXuXuXuXuXuXuXuXuXuXuXuXuXuXuXuXuXuXuXuXuXuXuXuXuXuXuXuXuXuXuXuXuXuXuXuXuXuXuXuXuXuXuXuXuXuXuXuXuXuXuXuXuXuXuXuXuXuXuXuXuXuXuXuXuXuXuXuXuXuXuXuXuX",
"uXuXuXuXuXuXuXuXuXuXuXuXuXuXuXuXuXuXuXuXuXuXuXuXuXuXuXuXuXuXuXuXuXuXuXuXuXuXuXuXuXuXuXuXuXuXuXuXuXuXuXuXuXuXuXuXuXuXuXuX                                                                                                                                                                          uXuXuXuXuXuXuXuXuXuXuXuXuXuXuXuXuXuXuXuXuXuXuXuXuXuXuXuXuXuXuXuXuXuXuXuXuXuXuXuXuXuXuXuXuXuXuXuXuXuXuXuXuXuXuXuXuXuXuXuXuXuXuXuXuXuXuXuXuXuXuXuXuXuXuXuXuXuXuXuXuXuXuXuXuXuXuX",
"uXuXuXuXuXuXuXuXuXuXuXuXuXuXuXuXuXuXuXuXuXuXuXuXuXuXuXuXuXuXuXuXuXuXuXuXuXuXuXuXuXuXuXuXuXuXuXuXuXuXuX                                                                    o O O O - ; - - ; ; ; ; : ; , , < < < < 7 < < < < < , < , < , , , , , ; ; ; - ; O - O O O O o                                     uXuXuXuXuXuXuXuXuXuXuXuXuXuXuXuXuXuXuXuXuXuXuXuXuXuXuXuXuXuXuXuXuXuXuXuXuXuXuXuXuXuXuXuXuXuXuXuXuXuXuXuXuXuXuXuXuXuXuXuXuXuXuXuXuXuXuXuXuXuXuXuXuXuXuXuXuXuXuXuXuXuX",
"uXuXuXuXuXuXuXuXuXuXuXuXuXuXuXuXuXuXuXuXuXuXuXuXuXuXuXuXuXuXuXuXuXuXuXuXuXuXuXuXuXuXuXuXuX                                                    o O O O O - @ O - - @ ; ; < < a a j j m N B O.O.$.$.$.%.%.%.%.=.%.&.&.&.&.&.&.-.&.=.=.-.-.=.=.&.=.&.&.&.%.%.$.+.+.V M j h a ; ; - ; O O o                             uXuXuXuXuXuXuXuXuXuXuXuXuXuXuXuXuXuXuXuXuXuXuXuXuXuXuXuXuXuXuXuXuXuXuXuXuXuXuXuXuXuXuXuXuXuXuXuXuXuXuXuXuXuXuXuXuXuXuXuXuXuXuXuXuXuXuXuXuXuXuXuXuXuXuXuXuXuX",
"uXuXuXuXuXuXuXuXuXuXuXuXuXuXuXuXuXuXuXuXuXuXuXuXuXuXuXuXuXuXuXuXuXuXuXuXuXuXuX                                          o   o o               O O O ; - ; ; ; ; ; < < < < < < u u a k h h m m M N B V V $.&.&.,.-.-.-.-.-.-.-.-.-.-.-.-.-.-.-.-.-.-.-.-.-.-.-.-.-.-.-.-.-.-.&.%.$.O.M j u - - @ O o                       uXuXuXuXuXuXuXuXuXuXuXuXuXuXuXuXuXuXuXuXuXuXuXuXuXuXuXuXuXuXuXuXuXuXuXuXuXuXuXuXuXuXuXuXuXuXuXuXuXuXuXuXuXuXuXuXuXuXuXuXuXuXuXuXuXuXuXuXuXuXuXuXuXuXuX",
"uXuXuXuXuXuXuXuXuXuXuXuXuXuXuXuXuXuXuXuXuXuXuXuXuXuXuXuXuXuXuXuXuXuXuX                                                      o o o o                                                           o O @ ; ; < a h m N B V $.&.&.-.-.-.-.-.-.-.-.-.=.=.-.-.-.-.-.-.-.-.-.-.-.-.-.-.-.-.=.=.-.-.-.%.#.M f ; = O O                     uXuXuXuXuXuXuXuXuXuXuXuXuXuXuXuXuXuXuXuXuXuXuXuXuXuXuXuXuXuXuXuXuXuXuXuXuXuXuXuXuXuXuXuXuXuXuXuXuXuXuXuXuXuXuXuXuXuXuXuXuXuXuXuXuXuXuXuXuXuXuXuX",
"uXuXuXuXuXuXuXuXuXuXuXuXuXuXuXuXuXuXuXuXuXuXuXuXuXuXuXuXuXuXuX                                                                                                                                                    O ; < a m N V O.$.&.&.&.&.&.&.=.=.=.=.-.-.-.-.-.-.-.-.=.=.=.;.=.-.-.-.-.-.-.-.-.-.-.%.#.M < = O o                   uXuXuXuXuXuXuXuXuXuXuXuXuXuXuXuXuXuXuXuXuXuXuXuXuXuXuXuXuXuXuXuXuXuXuXuXuXuXuXuXuXuXuXuXuXuXuXuXuXuXuXuXuXuXuXuXuXuXuXuXuXuXuXuXuXuXuXuXuX",
"uXuXuXuXuXuXuXuXuXuXuXuXuXuXuXuXuXuXuXuXuXuXuXuXuXuXuXuX                                                          o O O ; ; ; ; , < , < , > < : > : : - : : : : - - - - - - = = O O O O O o o                                 O ; > f z v B O.#.#.#.%.%.%.%.&.&.&.-.-.-.;.=.=.=.=.-.-.-.-.-.-.-.-.-.-.-.-.-.-.&.#.j < O +                   uXuXuXuXuXuXuXuXuXuXuXuXuXuXuXuXuXuXuXuXuXuXuXuXuXuXuXuXuXuXuXuXuXuXuXuXuXuXuXuXuXuXuXuXuXuXuXuXuXuXuXuXuXuXuXuXuXuXuXuXuXuXuXuXuXuX",
"uXuXuXuXuXuXuXuXuXuXuXuXuXuXuXuXuXuXuXuXuXuXuXuXuX                                          o O O ; , < < a a p f s f f g g z z c c c v c v v v c n n x n x x x x x x x l l l d d d s s p p > > : - - O O O o o                       o O : p s d x x n b b b b O.#.%.%.%.%.%.&.=.-.-.-.-.-.=.=.-.-.-.-.-.-.-.-.-.-.&.%.M < O O                 uXuXuXuXuXuXuXuXuXuXuXuXuXuXuXuXuXuXuXuXuXuXuXuXuXuXuXuXuXuXuXuXuXuXuXuXuXuXuXuXuXuXuXuXuXuXuXuXuXuXuXuXuXuXuXuXuXuXuXuXuXuXuXuX",
"uXuXuXuXuXuXuXuXuXuXuXuXuXuXuXuXuXuXuXuXuXuXuX                              o O - , < < p a a g g z z c N b b b b b v v v x x x x x c x x x c x x x x x n x x x x x x x x x x x x x x x x x x x x x l d s p p : ; - O O O O                   O - y s d x x x x x x x n b b #.#.%.%.&.&.=.-.-.;.-.-.-.-.-.-.-.-.-.-.-.-.-.-.%.M < O #               uXuXuXuXuXuXuXuXuXuXuXuXuXuXuXuXuXuXuXuXuXuXuXuXuXuXuXuXuXuXuXuXuXuXuXuXuXuXuXuXuXuXuXuXuXuXuXuXuXuXuXuXuXuXuXuXuXuXuXuXuXuX",
"uXuXuXuXuXuXuXuXuXuXuXuXuXuXuXuXuXuXuXuXuX                      O = ; < < p f f g z c c N b b v v v c x x x x x x x x x x x x x x x x x x x x x x x x x x x x x x x x x x x x x x x x x x x x x x x x x x x x x x x d d f p ; ; ; O                 o - p s d x x x x x x x x x x n b O.#.%.%.%.-.-.-.-.=.;.=.-.-.-.-.-.-.-.-.-.-.$.g = o               uXuXuXuXuXuXuXuXuXuXuXuXuXuXuXuXuXuXuXuXuXuXuXuXuXuXuXuXuXuXuXuXuXuXuXuXuXuXuXuXuXuXuXuXuXuXuXuXuXuXuXuXuXuXuXuXuXuXuXuX",
"uXuXuXuXuXuXuXuXuXuXuXuXuXuXuXuXuXuXuXuX            o O ; > > p s f z c v v v v x x x x x n x x x x x x x x x x x x x x x x x x x x x x x x x x x x x x x x x x x x x x x x x x x x x x x x x x x x x x x x x x x x x x x n b v v g a ; - O               O : s d x x x x x x x x x x n x n b o.#.%.&.&.=.=.=.-.-.-.-.-.-.-.-.-.-.-.-.&.N < o o             uXuXuXuXuXuXuXuXuXuXuXuXuXuXuXuXuXuXuXuXuXuXuXuXuXuXuXuXuXuXuXuXuXuXuXuXuXuXuXuXuXuXuXuXuXuXuXuXuXuXuXuXuXuXuXuXuXuX",
"uXuXuXuXuXuXuXuXuXuXuXuXuXuXuXuXuXuXuX          o - p s d x x n c x x x c x x x x x x x x x x x x x x x x x x x x x x x x x x x x x x x x x x x x x x x x x x x x x x x x x x x x x x x x x x x x x x x x x x x x x x x x x x x x b O.#.B g < ; O o             = y d l x x x x x x x x x x x x x n b #.%.%.=.=.-.-.-.-.-.-.-.-.-.-.-.-.-.&.+.< O             uXuXuXuXuXuXuXuXuXuXuXuXuXuXuXuXuXuXuXuXuXuXuXuXuXuXuXuXuXuXuXuXuXuXuXuXuXuXuXuXuXuXuXuXuXuXuXuXuXuXuXuXuXuXuXuXuX",
"uXuXuXuXuXuXuXuXuXuXuXuXuXuXuXuXuXuX          - p d x x x x x x x x x x x x x x x x x x x x x x x x x x x x x x x x x x x n x x x x x x x x x x x x x x x x n x x x x x x x x x x x x x x x x x x x x x x x x x x x x x x x x x x x x v b #.%.#.M a ; O             O > d l x x x x x x x x x x x x x x x b #.%.&.=.-.-.-.-.-.-.-.-.-.-.-.-.-.&.+.< O             uXuXuXuXuXuXuXuXuXuXuXuXuXuXuXuXuXuXuXuXuXuXuXuXuXuXuXuXuXuXuXuXuXuXuXuXuXuXuXuXuXuXuXuXuXuXuXuXuXuXuXuXuXuXuX",
"uXuXuXuXuXuXuXuXuXuXuXuXuXuXuXuXuX        o > d x x x x x x x x x x x x x x x x x x x x x x x x x x x x x x x x x n x x x x x x x x x x x x x x x x x x x x x x x x x x x x x x x x x x x x x x x x x x x x x x x x x x x x x x x x x x x x v o.*.&.%.v < ; O           O y s x x n x x x x x x x x x x x x x x b #.%.&.-.;.&.-.-.-.-.-.-.-.-.-.-.=.O.< o             uXuXuXuXuXuXuXuXuXuXuXuXuXuXuXuXuXuXuXuXuXuXuXuXuXuXuXuXuXuXuXuXuXuXuXuXuXuXuXuXuXuXuXuXuXuXuXuXuXuXuXuXuX",
"uXuXuXuXuXuXuXuXuXuXuXuXuXuXuXuXuX        > l x x x x x x x x x x x x x x x x x x x x x x x x x x x x x x x x x x x x x x x x x x x x x x x x x x x x x x x x x x x x x x x x x x x x x x x x x x x x x x x x x x x x x x x x x x x x x x x n n x o.#.&.&.$.m , O           O y d l x x x x x x x x x x x x x x x x n #.%.&.&.-.-.=.-.-.-.-.-.-.-.-.-.&.N @             uXuXuXuXuXuXuXuXuXuXuXuXuXuXuXuXuXuXuXuXuXuXuXuXuXuXuXuXuXuXuXuXuXuXuXuXuXuXuXuXuXuXuXuXuXuXuXuXuXuXuXuX",
"uXuXuXuXuXuXuXuXuXuXuXuXuXuXuXuX        - l x x x x x x x x x x x x x x x x x x x x x x x x x x x x x x x x x x x x x x x x x x x x x x x x x x x x x x x x x x x x x x x x x x x n x x x x x x x x x x x x x x x x x x x x x x x x x x x x x x x x x o.#.&.&.&.B < -           = p l x x x x x n x x x x x x x x x x x v b %.&.=.=.=.=.-.-.-.-.-.-.-.-.-.%.f o           uXuXuXuXuXuXuXuXuXuXuXuXuXuXuXuXuXuXuXuXuXuXuXuXuXuXuXuXuXuXuXuXuXuXuXuXuXuXuXuXuXuXuXuXuXuXuXuXuXuXuX",
"uXuXuXuXuXuXuXuXuXuXuXuXuXuXuXuX      o p x x x x x x x x x x x x x x x x x x x x x x x x x x x x x x n x x x x x x x x x x x x x x x x x x x x x x x x x x x x x x x n x x x x x x x x x x x x x x x x x x x x x x x x x x x x x x x x x x x x x x x x n b %.%.-.&.V a O         o > d l x x x x x x x x x x x x x x x n n n O.%.=.-.=.-.-.=.-.-.-.-.-.-.-.&.V ;             uXuXuXuXuXuXuXuXuXuXuXuXuXuXuXuXuXuXuXuXuXuXuXuXuXuXuXuXuXuXuXuXuXuXuXuXuXuXuXuXuXuXuXuXuXuXuXuXuX",
"uXuXuXuXuXuXuXuXuXuXuXuXuXuXuXuX      O l x x x x x x x x x x x x x x x x x x x x x x x x x x x x x x x x x x x x x x x x x x x x x x x x x x x n x x x x x x x x x x x x x x x x x x x x x x x x x x x x x x x x x x x x x x x x x x x x x x x x x x x x x n o.%.&.=.&.B < O         O p l x x x x x x x x x x x x x x x x x x n o.%.=.-.-.-.-.-.-.-.-.-.-.-.-.%.a o           uXuXuXuXuXuXuXuXuXuXuXuXuXuXuXuXuXuXuXuXuXuXuXuXuXuXuXuXuXuXuXuXuXuXuXuXuXuXuXuXuXuXuXuXuXuXuXuX",
"uXuXuXuXuXuXuXuXuXuXuXuXuXuXuXuX      - x x x x x x x x x x x x x x x x x x x x x x x x x x x x x x x x x x x x x n x x x x x x x x x n x x x x x x x x x x x x x x x x x x x x x x x x x x x x x x x x x x x x x x x x x x x x x x x x x x x x x x x x x x x x v #.%.=.-.&.B < O       o y d x x x x x x x x x x x x x x x x x x x v #.&.=.-.-.-.-.-.-.-.-.-.-.=.&.M O           uXuXuXuXuXuXuXuXuXuXuXuXuXuXuXuXuXuXuXuXuXuXuXuXuXuXuXuXuXuXuXuXuXuXuXuXuXuXuXuXuXuXuXuXuXuXuX",
"uXuXuXuXuXuXuXuXuXuXuXuXuXuXuXuX      - x x x x x x x x x x x x x x x x x x x x x x x x x x x x x x x x x x x x x x x x x x x x x x x x x x x x x x x x x x x x x x x x x x x x x x x x x x x x x x x x x x x x x x x x x x x x x x x x x x x x x n x x x x x x x n b %.&.-.-.%.z @         - d x x x x x x x x x x x x x x x x x x x x b %.=.=.-.-.-.-.-.-.-.-.-.-.=.O.;           uXuXuXuXuXuXuXuXuXuXuXuXuXuXuXuXuXuXuXuXuXuXuXuXuXuXuXuXuXuXuXuXuXuXuXuXuXuXuXuXuXuXuXuXuXuX",
"uXuXuXuXuXuXuXuXuXuXuXuXuXuXuXuX      - x x x x x x x x x x x x x x x x x x x x x x x x x x x x x x x x x x x x x x x x x x x x x x x x x x x x x x x x x x x x x x x x x x x x x x x x x x x x x x x x x x x x x x n x x x x x x x x x x x x x x x x x x x x x x n n n #.&.-.-.-.O.< O       O s x x x x x x x x x x x n x x x x x x x x n O.%.&.-.-.-.-.-.-.-.-.-.-.-.$.<           uXuXuXuXuXuXuXuXuXuXuXuXuXuXuXuXuXuXuXuXuXuXuXuXuXuXuXuXuXuXuXuXuXuXuXuXuXuXuXuXuXuXuXuXuX",
"uXuXuXuXuXuXuXuXuXuXuXuXuXuXuXuX      O x x x x x x x x x x x x x x x x x x x x x x x x x x x x x x x n x x x x x x x x x x x x x n x x x x x x x x x x x x x x x x x x x x x x x x x x x x x x x x x x x x x x x x x x x x x x x x n x x x x x x x x x x x x x x x x x x b %.=.=.-.&.g O       O p l x x x x x x x x x x x x x x x x x x x n b %.-.-.-.-.-.-.-.-.-.-.-.-.%.a           uXuXuXuXuXuXuXuXuXuXuXuXuXuXuXuXuXuXuXuXuXuXuXuXuXuXuXuXuXuXuXuXuXuXuXuXuXuXuXuXuXuXuXuX",
"uXuXuXuXuXuXuXuXuXuXuXuXuXuXuXuX      O d x x x x x x x x x x x x x x x x x x x x x x x x x x x x x x x x x x x x x x x x x x x x x x x x x x x x x x x x x x x x x x x x n x x x x x x x x x x x x x x x x x x x x x x x x x x x x x x x x x x x x x x x x x x x x x x x x b %.=.=.=.&.N ;       o y x x x x x x x x x x x x x x x x x x x x x v #.&.-.-.-.-.-.-.-.-.-.-.-.%.j o         uXuXuXuXuXuXuXuXuXuXuXuXuXuXuXuXuXuXuXuXuXuXuXuXuXuXuXuXuXuXuXuXuXuXuXuXuXuXuXuXuXuXuX",
"uXuXuXuXuXuXuXuXuXuXuXuXuXuXuXuX      O s d x x x x x x x x x x x x x x x x n x x x x x x x x x x x x x x x x x x x x x x x x x x x x x x x x x x x x x x x x x x x x x x x x x x x x x x x x x x x x x x x x x x x x x x x x x x x x x x x x x x x x x x x x x x x x x x x x n #.&.=.=.-.+.,       o > d x x x x x x x x x x x n x x x x x x x x n O.&.-.-.-.-.-.-.-.-.-.-.-.&.j           uXuXuXuXuXuXuXuXuXuXuXuXuXuXuXuXuXuXuXuXuXuXuXuXuXuXuXuXuXuXuXuXuXuXuXuXuXuXuXuXuXuX",
"uXuXuXuXuXuXuXuXuXuXuXuXuXuXuXuX      o y s d l x x x x x x x x x x x x x x x x x x x x x x x x x x x x x x x x x x x x x x x x x x x x x x x x x x x x x x x x x x x x x x x x x x x x x x x n x x x x x x x x x x x x x x x x x x x x x x x x x x x x x x x x x x x x x x x x n #.=.=.-.=.$.< o     o y x x x x x x x x x x x x x x x x x x x x x x b &.-.-.-.-.-.-.-.-.-.-.-.%.j           uXuXuXuXuXuXuXuXuXuXuXuXuXuXuXuXuXuXuXuXuXuXuXuXuXuXuXuXuXuXuXuXuXuXuXuXuXuXuXuXuX",
"uXuXuXuXuXuXuXuXuXuXuXuXuXuXuXuXuX      - s d d l x x x x x x x x x x x x x x x x n x x x x x x x x x x x x x x x x x x x x x x x x x x x x x x x x x x x x x x x x x x x x x x x x x x x x x x x x x x x x x x x x x x x x x x x x x x x x x x x x x x x x x x x x x x x x x x x v O.=.-.-.-.$.< o     O p x x x x x x x x x x x x x x x x x x x x x n b %.-.-.-.-.-.-.-.-.-.-.-.%.f           uXuXuXuXuXuXuXuXuXuXuXuXuXuXuXuXuXuXuXuXuXuXuXuXuXuXuXuXuXuXuXuXuXuXuXuXuXuXuXuX",
"uXuXuXuXuXuXuXuXuXuXuXuXuXuXuXuXuX      O s s s s l x x x x x x x x x x x x x x x x x x x x x x x x x x x x x x x x x x x x x x x x x x x x x x x x x x x x x x x x x x x x x x x x x x x x n x x x x x x x x x x x n x x x x x x x x x x x x x x x x x x x x x x x x x x x x x x x n O.&.-.-.-.$.a       O s x x x x x x n x x x x x x x x x x x x x x x b %.-.-.-.-.-.-.-.-.-.-.-.%.a         uXuXuXuXuXuXuXuXuXuXuXuXuXuXuXuXuXuXuXuXuXuXuXuXuXuXuXuXuXuXuXuXuXuXuXuXuXuXuXuX",
"uXuXuXuXuXuXuXuXuXuXuXuXuXuXuXuXuX      o > s s s s d l x x x x x x x x x x x x x x x x x x x x x x x x x x x x x x x x n x x x x x x x x x x x x x n x x x x x x x x x x x x x x x x x x x x x x x x x x x x x x x x x x x x x x x x x x x x x x x x x x x x x x x x x x x x x x x x n O.=.=.-.=.$.u       O s x x x x x x x x x x x x x x x x x x x x x x v %.-.-.-.-.-.-.-.-.-.-.-.$.:         uXuXuXuXuXuXuXuXuXuXuXuXuXuXuXuXuXuXuXuXuXuXuXuXuXuXuXuXuXuXuXuXuXuXuXuXuXuXuX",
"uXuXuXuXuXuXuXuXuXuXuXuXuXuXuXuXuXuX      O s s s s s d d l l x x x x x x x x x x x x x x x x x x x x x x x x x x x x x x x x x x x x x x x x x x x x x n x x x x x x x x x x x x x x x x x x x x x x x x n x x x x x x x x x x x x x x x x x x x x x x x x x x x x x x x x x x x x x x n #.=.-.-.=.$.<       - d x x x x x x x x x x x x x x x x x x x x x c b %.-.-.-.-.-.-.-.-.-.-.-.+.O         uXuXuXuXuXuXuXuXuXuXuXuXuXuXuXuXuXuXuXuXuXuXuXuXuXuXuXuXuXuXuXuXuXuXuXuXuXuX",
"uXuXuXuXuXuXuXuXuXuXuXuXuXuXuXuXuXuX      O y s s s s s s d d d x x x x x x x x x x x x x x x x x x x x x x x x x x x x x x x x x x x x x x x x x x x x x x x x x x x x x x x x x x x x x x x x x x x x x x x x x x x x x x x x x x x x x x x x x x x x x x x x x x x x x x x x x x x x x v *.=.;.-.&.V -     o : x x x x x x x x x x x x x x x x x x x x x x x b %.=.=.=.-.-.-.-.-.-.-.=.N o         uXuXuXuXuXuXuXuXuXuXuXuXuXuXuXuXuXuXuXuXuXuXuXuXuXuXuXuXuXuXuXuXuXuXuXuXuX",
"uXuXuXuXuXuXuXuXuXuXuXuXuXuXuXuXuXuX        - s s s s s s s s s d d d l l x l l x x x x x x x x x x x x x x x x x x x x x x x x x x x x x x x x x x x x x x x x x x x x x x x x x x x x x x x x x n x x x x x x x x x x x x x x x x x x x x n x x x x x x x x x x x x x x x x x x x x x x x v %.&.=.-.-.N O     o p x x x x x x x x x x n x x x x x x x x x x x n b %.;.-.-.-.-.-.-.-.-.-.&.g         uXuXuXuXuXuXuXuXuXuXuXuXuXuXuXuXuXuXuXuXuXuXuXuXuXuXuXuXuXuXuXuXuXuXuXuXuX",
"uXuXuXuXuXuXuXuXuXuXuXuXuXuXuXuXuXuXuX      O p s s s s s s s s s s s s s d d d s d d d d d d d l d l l x x x x x x x x x x x x x x x x x x x x x x x x x x x x x x x x x x x x x x x x x x x x x x x x x x x x x x x x x x x x x x x x x x x x x x x x x x x x x x x x x x x x x x x x x x x b %.;.-.-.%.m o     O d x x x x x x x x x x x x x x x x x x x x x x n o.%.-.-.-.-.-.-.-.-.-.-.$.<         uXuXuXuXuXuXuXuXuXuXuXuXuXuXuXuXuXuXuXuXuXuXuXuXuXuXuXuXuXuXuXuXuXuXuXuX",
"uXuXuXuXuXuXuXuXuXuXuXuXuXuXuXuXuXuXuX      o - s s s s s s s s s s s s s s s s s s s s s s s s s s s s s d s d d x x x x x x x x x x x x x x x x x x x x x x x x x x x x x x x x x x x x x x x x x x x x x x x x x x x x x x x x x x x x x x x x x x n x x x x x x x x x x x x x x x x x x x x o.=.-.-.-.$.<       : x x x x x x x x x x x x x x x x x x x x x n n n #.=.-.-.-.-.-.-.-.-.=.=.B O         uXuXuXuXuXuXuXuXuXuXuXuXuXuXuXuXuXuXuXuXuXuXuXuXuXuXuXuXuXuXuXuXuXuXuX",
"uXuXuXuXuXuXuXuXuXuXuXuXuXuXuXuXuXuXuXuX      O p s s s s s s s s s s s s s s s s s s s s s s s s s s s s s s s s d d x x x x x x x x x x x x x x x x x x x x x x x x x x x x x x x x x x x x x x x x x x x x x x x x x x x x x x x x x x x x x x x x x x x x x x x x x x x x x x x x x x x x x v #.&.-.=.=.V O     O s x x x x x x x x x x x x x x x x x x x x x x x v #.;.-.-.-.-.-.-.-.-.-.&.m         uXuXuXuXuXuXuXuXuXuXuXuXuXuXuXuXuXuXuXuXuXuXuXuXuXuXuXuXuXuXuXuXuXuXuX",
"uXuXuXuXuXuXuXuXuXuXuXuXuXuXuXuXuXuXuXuX        - d s s s s s s s s s s s s s s s s s s s s s s s s s s s s s s s s s d d x x x x x x x x x x x x x x x x x x x x x x x x x x x x x x x x x x x x x x x x x x x n x x x x x x x x x x x x x x x x x x x x x x x x x x x x x x x x x x x x x x x x b %.-.-.=.&.M o     - l x x x x x x x x x x x x x x x x x x x x x x x b %.-.-.-.-.-.-.-.-.-.-.$.;         uXuXuXuXuXuXuXuXuXuXuXuXuXuXuXuXuXuXuXuXuXuXuXuXuXuXuXuXuXuXuXuXuXuX",
"uXuXuXuXuXuXuXuXuXuXuXuXuXuXuXuXuXuXuXuXuX      O s s s s s s s s s s s s s s s s s s s s s s s s s s s s s s s s s s s s d x x x x x x x x x x x x x x x x x x x x x x x x x x x x n x x x x x x x x x x x x x x x x x x x x x x x x x x x x x x x x x x x x x x x x x x x x x x x x x x x x x x n O.-.-.-.=.$.>     o p x x x x x x x x x x x x x x x x x x x x x x x x b %.-.-.-.-.-.-.-.-.-.=.N         uXuXuXuXuXuXuXuXuXuXuXuXuXuXuXuXuXuXuXuXuXuXuXuXuXuXuXuXuXuXuXuXuXuX",
"uXuXuXuXuXuXuXuXuXuXuXuXuXuXuXuXuXuXuXuXuX      o - s s s s s s s s s s s s s s s s s s s s s s s s s s s s s s s s s s s s d x x x x x x x x x x x x x x x x x x x x x x x x x x x x x x x x x x x x x x x x x x x x x x x x x x x x x x x x x x x x x x x x x x x x x x x x x x x x x x x x x x x v #.-.-.=.=.N       O x x x x x x x x x x x x x x x x n x x x x x x x v #.=.-.-.-.-.-.-.-.-.-.%.a         uXuXuXuXuXuXuXuXuXuXuXuXuXuXuXuXuXuXuXuXuXuXuXuXuXuXuXuXuXuXuXuXuX",
"uXuXuXuXuXuXuXuXuXuXuXuXuXuXuXuXuXuXuXuXuXuX      O s s s s s s s s s s s s s s s s s s s s s s s s s s s s s s s s s s s s d x x x x x x x x x x x x x x x x x x x x x x x x x x x x x x x x x x x x x x x x x x x x x x x x x x x x x x x x x n x x x x x x x x x x x x x x x x x x x x x x x x x x b &.=.-.-.%.<     o p x x x x x x x x x x x x x x x x x x x x x x x x v %.-.-.-.-.-.-.-.-.-.=.V o       uXuXuXuXuXuXuXuXuXuXuXuXuXuXuXuXuXuXuXuXuXuXuXuXuXuXuXuXuXuXuXuXuX",
"uXuXuXuXuXuXuXuXuXuXuXuXuXuXuXuXuXuXuXuXuXuX      o : s s s s s s s s s s s s s s s s s s s s s s s s s s s s s s s s s s s s s l x x x x x x x x x x x x x x x x x x x x x x x x x x x x x x x x x x x x x x x x x x x x x x x x x n x x x x x x x x x x x x x x x x x x x x x x x x x x x x x x x x n #.-.-.-.-.N o     - l x x x x x x x x x x x x x x x x x x x x x x x n o.=.-.-.-.-.-.-.-.-.-.%.f         uXuXuXuXuXuXuXuXuXuXuXuXuXuXuXuXuXuXuXuXuXuXuXuXuXuXuXuXuXuXuXuX",
"uXuXuXuXuXuXuXuXuXuXuXuXuXuXuXuXuXuXuXuXuXuXuX      O s s s s s s s s s s s s s s s s s s s s s s s s s s s s s s s s s s s s s d x x x x x x x x x x x x x x x x x x x x x x x x x x x x x x x x x x x n x x x x x x x x x x n x x x x x x x x x x x x x x x x x x x x x x x x x x x x x x x x x x x x b &.=.-.-.$.u     O s x x x x x x x x x x x x x x x x x x x x x x x x n #.=.-.-.-.-.-.-.-.-.-.B O       uXuXuXuXuXuXuXuXuXuXuXuXuXuXuXuXuXuXuXuXuXuXuXuXuXuXuXuXuXuXuXuX",
"uXuXuXuXuXuXuXuXuXuXuXuXuXuXuXuXuXuXuXuXuXuXuX      o > s s s s s s s s s s s s s s s s s s s s s s s s s s s s s s s s s s s s d l x x x x x x x x x x x x x x x x x x x x x x x x x x x x x x x x x x x x x x x x x x x x x x x x x x x x x x x x x x x x x x x x x x x x x x x x x x x x x x x x x x v #.-.-.-.&.N       - x x x x x x x x x x x x x n x x x x x x x x x x n b %.-.-.-.-.-.-.-.-.-.&.f         uXuXuXuXuXuXuXuXuXuXuXuXuXuXuXuXuXuXuXuXuXuXuXuXuXuXuXuXuXuXuX",
"uXuXuXuXuXuXuXuXuXuXuXuXuXuXuXuXuXuXuXuXuXuXuX        = s s s s s s s s s s s s s s s s s s s s s s s s s s s s s s s s s s s s s d x x x x x x x x x x x x x x x x x x x x x x x x x x x x x x x x x x x x x x x x x x x x x x x x x x x x x x x x x x x x x x x x x x x x x x x x x x x x x x x x x x x b =.=.-.-.$.<     O d x x x x x x x x x x x x x x x x x x x x x x x x v O.=.=.-.-.-.-.-.-.-.-.N +       uXuXuXuXuXuXuXuXuXuXuXuXuXuXuXuXuXuXuXuXuXuXuXuXuXuXuXuXuXuXuX",
"uXuXuXuXuXuXuXuXuXuXuXuXuXuXuXuXuXuXuXuXuXuXuXuX      o y s s s s s s s s s s s s s s s s s s s s s s s s s s s s s s s s s s s s s l x x x x x x x x x x x x x x x x x x x x x x x x n x x x x x x x x x x x x x x x x x x x n x x x x x x x x x x x x x x x x x x x x x x x x x x x x x x x x x x x x x n %.=.-.-.%.j     o y x x x x x x x x x x x x x x x x x x x x x x x x n v %.-.-.-.-.-.-.-.-.-.%.a         uXuXuXuXuXuXuXuXuXuXuXuXuXuXuXuXuXuXuXuXuXuXuXuXuXuXuXuXuXuX",
"uXuXuXuXuXuXuXuXuXuXuXuXuXuXuXuXuXuXuXuXuXuXuXuX        - s s s s s s s s s s s s s s s s s s s s s s s s s s s s s s s s s s s s s l x x x x x x x x x x x x x x x x x x x x x x x x x x x x x x x x x x x x x x x x x x x x x x x x x x x x x x x x x x x x x x x x x x x x x x x x x x x x x x n x x x n B =.-.-.-.V O     - x x x x x x x x x x x x x x x x x x x x x x x x x x O.=.-.-.-.-.-.-.-.-.&.M         uXuXuXuXuXuXuXuXuXuXuXuXuXuXuXuXuXuXuXuXuXuXuXuXuXuXuXuXuXuX",
"uXuXuXuXuXuXuXuXuXuXuXuXuXuXuXuXuXuXuXuXuXuXuXuXuX      O p s s s s s s s s s s s s s s s s s s s s s s s s s s s s s s s s s s s s d x x x x x x x x x x x x x x x x x n x x x x x x x x x x x x x x x x x x x x x x x x x x x x x x x x x x x x x x x x x x x x x x x x x x x x x x x x x x x x x x x x x b %.-.-.-.$.u     O d x x x x x x x x x x x x x x x x x x x x x x x x x b %.-.-.-.-.-.-.-.-.-.$.>       uXuXuXuXuXuXuXuXuXuXuXuXuXuXuXuXuXuXuXuXuXuXuXuXuXuXuXuXuXuX",
"uXuXuXuXuXuXuXuXuXuXuXuXuXuXuXuXuXuXuXuXuXuXuXuXuX      o : s s s s s s s s s s s s s s s s s s s s s s s s s s s s s s s s s s s s s l x x x x x x x x x x x x x x x x x x x x x x x x x x x x x x x x x x x x x x x x x x x x x x x x x x x x x x x x x x x x x x x x x n x x x x x x x x x x x x x x x x n #.=.=.-.=.M     o y x x x x x x x x x x x x x n x x x x x x x x x x x x o.=.=.=.=.-.-.-.-.-.&.m         uXuXuXuXuXuXuXuXuXuXuXuXuXuXuXuXuXuXuXuXuXuXuXuXuXuXuXuXuX",
"uXuXuXuXuXuXuXuXuXuXuXuXuXuXuXuXuXuXuXuXuXuXuXuXuXuX      = s s s s s s s s s s s s s s s s s s s s s s s s s s s s s s s s s s s s s d x x x x x x x x x x x x x x x x x x x x x x x x x x x x x x x x x x x x x x x n x x x x x x x x x x x n x x x x x x x x x x x x x x x x x x x x x x x x x x x x n x x #.=.=.-.-.N O     - x x x x x x x x x x x x x x x x x x x x x x x x x x b %.=.=.;.-.-.-.-.-.-.N O       uXuXuXuXuXuXuXuXuXuXuXuXuXuXuXuXuXuXuXuXuXuXuXuXuXuXuXuXuX",
"uXuXuXuXuXuXuXuXuXuXuXuXuXuXuXuXuXuXuXuXuXuXuXuXuXuX      O p s s s s s s s s s s s s s s s s s s s s s s s s s s s s s s s s s s s s d x x x x x x x x x x x x x x x x x x x n x x x x x n x x x x x x x x x x x x x x x x x x x x x x x x x x x x x x x x x x x x x x x x x x x x x x x x x x x x x x x x x v %.=.=.;.$.<     O l x x x x x x x x x x x x x x x x x x x x x x x x x n o.=.=.=.-.-.-.-.-.-.$.a       uXuXuXuXuXuXuXuXuXuXuXuXuXuXuXuXuXuXuXuXuXuXuXuXuXuXuXuXuX",
"uXuXuXuXuXuXuXuXuXuXuXuXuXuXuXuXuXuXuXuXuXuXuXuXuXuX      O y s s s s s s s s s s s s s s s s s s s s s s s s s s s s s s s s s s s s d l x x x x x x x x x x x x x x x x x x x x x x x x x x x x x x x x x x x x x x x x x x x x x x x x x x x x x x x x x n x x x x x x x x x x x x x x x x x x x x x x x x x #.-.=.=.&.j     O s x x x x x x x x x x x x x x x x x x x x x x x x x x b %.=.=.-.-.-.-.-.-.=.m         uXuXuXuXuXuXuXuXuXuXuXuXuXuXuXuXuXuXuXuXuXuXuXuXuXuXuXuX",
"uXuXuXuXuXuXuXuXuXuXuXuXuXuXuXuXuXuXuXuXuXuXuXuXuXuXuX      - s s s s s s s s s s s s s s s s s s s s s s s s s s s s s s s s s s s s s l x x x x x x x x x x x x x x x x x x x x x x x x x x x x x x x x x x x x x x x x x x x x x x x x x n x x x x x x x x x x x x x x x x x x x x n x x x x x x x x x x x x B =.=.=.-.N     o y x x x x x x x x x x x x x x x x x n x x x x x x x x n #.=.=.-.-.-.-.-.-.-.V O       uXuXuXuXuXuXuXuXuXuXuXuXuXuXuXuXuXuXuXuXuXuXuXuXuXuXuXuX",
"uXuXuXuXuXuXuXuXuXuXuXuXuXuXuXuXuXuXuXuXuXuXuXuXuXuXuX      = s s s s s s s s s s s s s s s s s s s s s s s s s s s s s s s s s s s s d l x x x x x x x x x x x x x x x x x x x x x x x x x x x x x x x x x x x x x x x x x x x x x x x x x x x x x x x x x x x x x x x x x x x x x x x x x x x x x x x x x x x b &.=.=.-.B O     - x x x x x x x x x x x x x x x x x x x x x x x x x x x o.%.=.-.-.-.-.-.-.-.%.a       uXuXuXuXuXuXuXuXuXuXuXuXuXuXuXuXuXuXuXuXuXuXuXuXuXuXuXuX",
"uXuXuXuXuXuXuXuXuXuXuXuXuXuXuXuXuXuXuXuXuXuXuXuXuXuXuX      O s s s s s s s s s s s s s s s s p s s s s s s s s s s s s s s s s s s s s d x x x x x x x x x x x x x x x x x x x x x x x x x x x x x x x x x x x x x x x x x x x x x x x x x x x x x x x x x x x x x x x x x x x x x x x x x x x x x x x x x x x v #.-.-.-.+.<     = x x x x x x x x x x x x x x x x x x x x x x x x x x x n #.=.-.-.-.-.-.-.-.&.m         uXuXuXuXuXuXuXuXuXuXuXuXuXuXuXuXuXuXuXuXuXuXuXuXuXuXuX",
"uXuXuXuXuXuXuXuXuXuXuXuXuXuXuXuXuXuXuXuXuXuXuXuXuXuXuX      O s s s s s s s s s s s s s s s s s s s s s s s s s s s s s s s s s s s s s d x x x x x x x x x x x x x x x x x x x x x x x x x x x n x x x x x x x x x x x x x x x x x x x x x x x x x x x x x x x x x x x x x x x x x x x x x x x x x x x x x x x n #.-.-.-.%.a     O d x x x x x x x x x x x x x x x x x x x x x x x x x x n o.=.-.-.-.-.-.-.-.-.N O       uXuXuXuXuXuXuXuXuXuXuXuXuXuXuXuXuXuXuXuXuXuXuXuXuXuXuX",
"uXuXuXuXuXuXuXuXuXuXuXuXuXuXuXuXuXuXuXuXuXuXuXuXuXuXuX      O s s s a s s s s s s s s s s s s s s s s s s s s s s s s s s s s s s s s s l x x x x x x x x x x x x x x x x x x x x x x x x x x x x x x x x x x x x x x x x x x x x x x x x x x x x x x x x x x x x x x x x x x x x x x x x x x x x x x x x x x x x #.&.=.-.%.j     O s x x x x x x x x x x x x x x x x x x x x x x x x x x x b %.-.-.-.-.-.-.-.-.$.<       uXuXuXuXuXuXuXuXuXuXuXuXuXuXuXuXuXuXuXuXuXuXuXuXuXuXuX",
"uXuXuXuXuXuXuXuXuXuXuXuXuXuXuXuXuXuXuXuXuXuXuXuXuXuXuX      O s s s s s s s s s s s s s s s s s s s s s s s s s s s s s s s s s s s s s l x x x x x x x x x x x x x x x x x x x x x x x x x x x x x x x x x x x x n x x x x x x x x x x x x x x x x x x x x x x x x x n n x x x x x x x x x x x x x x x x x x x x o.&.=.-.-.M     o y x x x x x x x x x x x x x x x x x x x x x x x x x x x n o.-.-.-.-.-.-.-.-.%.f         uXuXuXuXuXuXuXuXuXuXuXuXuXuXuXuXuXuXuXuXuXuXuXuXuXuX",
"uXuXuXuXuXuXuXuXuXuXuXuXuXuXuXuXuXuXuXuXuXuXuXuXuXuXuX      O d s s s s s s s s s s s s s s s s s s s s s s s s s s s s s s s s s s s d l x x x x x x x x x x x x x x x x x x x n x x x x x x x x x x x x x x x x x x x x x x x x x x x x x x x x x x x x x x x x x x x x x x x x x x x x x x x x x x x x x x x x b *.-.-.-.B     o : x x x x x x x x x x x x x x x x x x x x x x x x x x x x o.&.-.-.-.-.-.-.-.-.M         uXuXuXuXuXuXuXuXuXuXuXuXuXuXuXuXuXuXuXuXuXuXuXuXuXuX",
"uXuXuXuXuXuXuXuXuXuXuXuXuXuXuXuXuXuXuXuXuXuXuXuXuXuX      o - s s s s s s s s s s s s s s s s s s s s s s s s s s s s s s s s s s s s d x x x x x x x x x x x x x x x n x x x x x x x x x x x x n x x x x x x x x x x x x x x x x x x x x x x x x x x x x x x x x x x x x x x x x x x x x x x x x x x x x x x x x n *.-.-.-.B =     : x x x x x x x x x x x x x x x x x x x x x x x x x x x x v #.-.-.-.-.-.-.-.-.V O       uXuXuXuXuXuXuXuXuXuXuXuXuXuXuXuXuXuXuXuXuXuXuXuXuXuX",
"uXuXuXuXuXuXuXuXuXuXuXuXuXuXuXuXuXuXuXuXuXuXuXuXuXuX      O p s s s s s s s s s s s s s s s s s s s s s s s s s s s s p s s s s s s s l x x x x x x x x x x x x x x x x x x x x x x x x x x x x x x x x x x x x x n x x x x x x x x x x x x x x x x x x x x x x x x x x x x x x x x x x x x x x x x x x x x x x x n #.&.=.=.#.;     - x x x x x x x x x x x x x x x x x x x x x x x x x x x x n O.=.-.-.-.-.-.-.-.$.<       uXuXuXuXuXuXuXuXuXuXuXuXuXuXuXuXuXuXuXuXuXuXuXuXuXuX",
"uXuXuXuXuXuXuXuXuXuXuXuXuXuXuXuXuXuXuXuXuXuXuXuXuXuX      = s s s s s s s s s s s s s s s s s s s s s s s s s s s s s s s s s s s s d x x x x x x x n x x x x x x x x x x x x x x x x x x x x x x x x x x x x x x x x x x x x x x x x x x x x x x x x x x x x x x x x x x x x x x x x x x x x n x x x x x x x x x x #.=.=.=.$.<     - x x x x x x x x x x x x x x x x x x x x x x x x x x x x x b &.-.-.-.-.-.-.-.&.f       uXuXuXuXuXuXuXuXuXuXuXuXuXuXuXuXuXuXuXuXuXuXuXuXuXuX",
"uXuXuXuXuXuXuXuXuXuXuXuXuXuXuXuXuXuXuXuXuXuXuXuXuXuX      = s s s s s s s s s s s s s s s s s s s s s s s s s s s s s s s s s s s d x x x x x x x x x x x x x x x x x x x x x x x x x x x x x x x x x x x x x x x x x x x x x x x x x x x x x x x x x x x x x x x x x x x x x x x x x x x x x x x x x x x x x x x x #.&.=.-.%.s     = l x x x x x x x x x x x x x x x x x x x x x x x x x x x x v #.-.-.-.-.-.-.-.&.j         uXuXuXuXuXuXuXuXuXuXuXuXuXuXuXuXuXuXuXuXuXuXuXuXuX",
"uXuXuXuXuXuXuXuXuXuXuXuXuXuXuXuXuXuXuXuXuXuXuXuXuX        - s s s s s s s s s s s s s s s s s s s s s s s s s s s s s s s s s s s l x x x x x x x x x x x x x n x x x x x x x x x x x x x x x x x x x x x x x x x x x x x x x x x x x x x x x x x x x x x x x x x x x x x x x x x x x x x x x x x x x x n x x x x x b &.=.-.&.f     O l x x x x x x x x x x x x x x x x x x x x x x x x x x x x n O.-.-.-.-.-.-.-.-.M o       uXuXuXuXuXuXuXuXuXuXuXuXuXuXuXuXuXuXuXuXuXuXuXuXuX",
"uXuXuXuXuXuXuXuXuXuXuXuXuXuXuXuXuXuXuXuXuXuXuXuXuX      o y s s s s s s s s s s s s s s s s s s s s s s s s s s s s s s s s s s d x x x x x x x x x x x x x x x x x x x x x x x x x x x x x x x x x x x x n x x x x x x x x x x x x x x x x x x x x x x x x x x x x x x x x x x x x x x x x x x x x x x x x x x x x o.&.-.-.&.f     O d x x x x x x x x x x x x x x x x x x x x x x x x x x x x x o.&.-.-.-.-.-.-.-.+.;       uXuXuXuXuXuXuXuXuXuXuXuXuXuXuXuXuXuXuXuXuXuXuXuXuX",
"uXuXuXuXuXuXuXuXuXuXuXuXuXuXuXuXuXuXuXuXuXuXuXuXuX      O p s s s s s s s s s s s s p s s s s s s s s s s s s s s s s s s s d d l x x x x x x x x x x x x x x x x x x x x x x x x x x x x x x x x x x x x x x x x x x x x x x x x x x x x x x x x x x x x x x x x x x x x x x x x x x x x x x x x x x x x x x x x l o.&.-.-.&.j     O d x x x x x x x x x x x x x x x x x x x x x x x x x x x x x v *.-.-.-.-.-.-.-.+.u       uXuXuXuXuXuXuXuXuXuXuXuXuXuXuXuXuXuXuXuXuXuXuXuXuX",
"uXuXuXuXuXuXuXuXuXuXuXuXuXuXuXuXuXuXuXuXuXuXuXuXuX      O s s s s s s s s s s s s s s s s s s s s s s s s s s s s s s s s s d l c x x x x x x x x x x x x x x x x x x x x x x x x x x x x x x x x x x x x x x x x x x x x x x x x x x x x x x x x x x x x x x x x x x x x x x x x x x x x x x x x x x x x x x x x x v +.-.-.&.j     O s x x x x x x x x x x x x x x x x x x x x x x x x x x x x x n O.-.-.-.-.-.-.-.%.f       uXuXuXuXuXuXuXuXuXuXuXuXuXuXuXuXuXuXuXuXuXuXuXuXuX",
"uXuXuXuXuXuXuXuXuXuXuXuXuXuXuXuXuXuXuXuXuXuXuXuXuX      = s s s s s s s s s s s s s s f s s s s s s s s s s s s s s s s s d l n n x x x x n x x x x x x x n x x x x x x x x x x x x x x x x x x x x x x x x x x x x x x x x x x x x x x x x x x x x x x x x x x x x x x x x x x x x x x x x x x x x x x x x x x x x o.O.-.-.&.z     O s x x x x x x x x x x x x x x x x x x x x x x x x x x x x x x o.=.-.-.-.=.-.-.&.j         uXuXuXuXuXuXuXuXuXuXuXuXuXuXuXuXuXuXuXuXuXuXuXuX",
"uXuXuXuXuXuXuXuXuXuXuXuXuXuXuXuXuXuXuXuXuXuXuXuXuX      - s s s s s s s s s s s s s s s s s s s s s s s s s s s s s s s l l x x x x x x x x x x x x x x x x x x x x x x x x x x x x x x x x x x x x x x x x x x x x x x x x x x x x x x x x x x x x x x x x x n x x x x x x x x x x x x x x x x x x x x x x x x x x n O.-.-.&.j     O s x x x x x x x x x x x x x x x x x x x x x x x x x x x x x x b %.=.-.-.-.-.-.=.M         uXuXuXuXuXuXuXuXuXuXuXuXuXuXuXuXuXuXuXuXuXuXuXuX",
"uXuXuXuXuXuXuXuXuXuXuXuXuXuXuXuXuXuXuXuXuXuXuXuX      o : s s s s s s s s s s s s s s s s s s s s s s s s s s s s s s l l x x x x x x x x x x x x x x x x x x x x x x x x x n x x x x x x x x x x x x x x x x x x x x x x x x x x x x x x x x x x x x x x x x l x x x x x x x x x x x x x x x x x x x x x x x x x x o.O.-.-.=.m     O p x x x x x x x n x x x x x x x x x x x x x x x x x x n x x x v #.-.-.-.-.-.-.-.N o       uXuXuXuXuXuXuXuXuXuXuXuXuXuXuXuXuXuXuXuXuXuXuXuX",
"uXuXuXuXuXuXuXuXuXuXuXuXuXuXuXuXuXuXuXuXuXuXuXuX      O y s s s s s s s s s s s s s s s s s s s s s s s s s s s s s l l x x x x x x x x x x x x x x x x x x x x x x x x x x x x x x x x x x x x x x x x x x x x x x x x n x x x x x x x x x x x x x x x x x x n x x x x x x x x x x x x x x x x x x x x x x x x x x n O.-.-.&.j     O s x x x x x x x x x x x x x x x x x x x x x x x x x x x x x x x O.-.-.-.-.-.-.-.V -       uXuXuXuXuXuXuXuXuXuXuXuXuXuXuXuXuXuXuXuXuXuXuXuX",
"uXuXuXuXuXuXuXuXuXuXuXuXuXuXuXuXuXuXuXuXuXuXuXuX      O p s s s s s s s s s s s s s s s s s s s s s s s s s s s s l l x x x x x x x x x x x x x x x x x x x x n x x x x x x x x x x x x x x x x x x x x x x x x x x x x x x x x x x x x x x x x x x x x x x x x x x x x x x x x x x x x x x x x x x x x x x x x x x o.O.-.-.&.m     O s x x x x x x x x x n x x x x x n x x n x x x x x x x x x x x x b &.-.-.-.-.-.-.+.<       uXuXuXuXuXuXuXuXuXuXuXuXuXuXuXuXuXuXuXuXuXuXuXuX",
"uXuXuXuXuXuXuXuXuXuXuXuXuXuXuXuXuXuXuXuXuXuXuXuX      O s s s s s s s s s s s s s s s s s s s s s s s s s s s s d l c n x x x x x x x x x x x x x x x x x x x x x x x x x x x x x x x x x x x x x x x x x x x x x x x x x x x x x x x x x x x x x x x x x x x x x x x x x x x x x x x x x x x x x x x x x x x x x x v O.-.-.&.j     O s x x x x x x x x x x x x x x x x x x x x x x x x x x x x x x x b $.-.-.-.-.-.-.%.u       uXuXuXuXuXuXuXuXuXuXuXuXuXuXuXuXuXuXuXuXuXuXuXuX",
"uXuXuXuXuXuXuXuXuXuXuXuXuXuXuXuXuXuXuXuXuXuXuXuX      = s s s s s s s s s s s s s s s s s s s s s s s s s s s l x x x x x x x x x x x x x x x x x x x x x x x x x x x x x x x x x x x x x x x x x x x x x x x x x x x x x x x x x x x x x x x x x x x x x x x x x x x x x x x x x x x x x x x x x x x x x x x x x x x O.-.-.&.h     O s x x x x x x x x x x x x x x x x x x x x x x x x x x x x x x x n #.-.-.-.-.-.-.&.f       uXuXuXuXuXuXuXuXuXuXuXuXuXuXuXuXuXuXuXuXuXuXuXuX",
"uXuXuXuXuXuXuXuXuXuXuXuXuXuXuXuXuXuXuXuXuXuXuXuX      = s s s s s s s s s s s s s s s s s s s s s s s s s d l l x x x x x x x x x x x x x x x x x x x n x x x x x x x x x x x x x x x x x x x x x x x x x x x x x x x x x x x x x x x x x x x x x x x x x x x x x x x x x x x x x x x x x x x x x x x x x x x x x x v O.-.-.&.f     O d x x x x x x x x x x x x x x x x x x x x x x x x x x x x x x x n O.=.-.-.-.-.-.&.f       uXuXuXuXuXuXuXuXuXuXuXuXuXuXuXuXuXuXuXuXuXuXuXuX",
"uXuXuXuXuXuXuXuXuXuXuXuXuXuXuXuXuXuXuXuXuXuXuXuX      = s s s s s s s s s s s s s s s s s s s s s s s s s d l x x x x x x x x x x x x x x x x x x x x x x x x x x x x x x x x x x x x x x x x x x x x x x x x x x x x x x x x x x x x x x x x x x x x x x x x x x x x x x x n x x x x x x x x x x x x x x x x x x x n O.-.-.&.f     - d x x x x x x x x x x x x x x x x x x x x x x x n x x x x x x x x b =.-.-.-.-.-.&.m         uXuXuXuXuXuXuXuXuXuXuXuXuXuXuXuXuXuXuXuXuXuXuX",
"uXuXuXuXuXuXuXuXuXuXuXuXuXuXuXuXuXuXuXuXuXuXuXuX      - s s s s s s s s s s s s s s s s s s s s s s s s d l x x x x x x x x x n x x x x x x x x x x x x x x x x x x x x x x x x x x x x x x x x x x x x x x x x x x x x x x x x x x n c n x n x x x l n x x x x x x x n x x x x x x x x x x x x x x x x x x x x n x n O.=.=.%.u     - d x n x x x x x x x x x x x x x x x x x x x x x c n n n c x n x x b &.-.-.-.-.-.-.m         uXuXuXuXuXuXuXuXuXuXuXuXuXuXuXuXuXuXuXuXuXuXuX",
"uXuXuXuXuXuXuXuXuXuXuXuXuXuXuXuXuXuXuXuXuXuXuX      o : s s s s s s s s s s s s s s s s s s s s s s s s l x x x x x x x x x x x n x x x x x x x x x x x x x x x x x x x x x x x x x x x x x x x x x x x x x x x x l l d d s d d d d d d d d d d d d l l s l d l d d d l x d d l d l l d l l l l l l l l l l l l l l l O.;.;.+.u     - d l l l l x l l l l x l x x l x x l x x l l x x l l l l l l x x x v #.-.-.-.-.-.-.M o       uXuXuXuXuXuXuXuXuXuXuXuXuXuXuXuXuXuXuXuXuXuXuX",
"uXuXuXuXuXuXuXuXuXuXuXuXuXuXuXuXuXuXuXuXuXuXuX      O > s s s s s s s s s s s s s s s s s s s s s s s l x x x x x x x x x x x x x x x x x x x x x x x x x x x x x x x x x x x x x x n x x x x x x x x x x x x d s > : - @ - = = - - - = = - - - - - - = - - - - - - - - - - - - - - - - - - - - = - - - - - - - - - > m =.=.+.,     O - - - - : ; - : : - - : : - - - : : - : : : : : : : : : : : > y d c O.-.-.-.-.-.-.B O       uXuXuXuXuXuXuXuXuXuXuXuXuXuXuXuXuXuXuXuXuXuXuX",
"uXuXuXuXuXuXuXuXuXuXuXuXuXuXuXuXuXuXuXuXuXuXuX      O > s s s s s s s s s s s s s s s s s s s s s s s l x x x x x x x x x x x x x x x x x x x x x x x x x x x x x x x x x x x x x x x x x x x x x x x x x d > = o # 3 w k A Z Z k w w w 8 A 6 6 6 8 i 6 6 6 6 6 6 6 6 7 6 7 5 5 5 5 3 7 3 3 3 3 3 3 3 3 2 2 2 2 2 1 3 C ;.;.+.i 2 % 2 @ 2 % ; @ @ ; @ @ $ @ @ @ @ @ @ @ @ @ + + + O + + + + . + + +     O a &.&.-.-.-.-.V -       uXuXuXuXuXuXuXuXuXuXuXuXuXuXuXuXuXuXuXuXuXuXuX",
"uXuXuXuXuXuXuXuXuXuXuXuXuXuXuXuXuXuXuXuXuXuXuX      O p s s s s s s s s s s s s s s s s s s s s s s l x x x x x x x x x x x x x x x x x x x x x x x x x x x x x x x x x x x x x x x x x x x x x x x x x s - # 2 Y 0.h.U.U.Y.U.Y.Y.U.Y.U.U.U.Y.U.U.U.U.U.U.U.U.U.I.V.k.U.U.k.U.k.k.U.k.U.k.k.k.k.k.k.k.k.k.k.k.k.k.k.l.h.x.x.h.j.l.l.j.j.l.j.l.j.j.j.j.j.j.j.j.j.j.j.j.j.h.j.j.h.h.j.h.h.j.h.h.h.h.e.,.w #   @ N &.-.-.-.V ,       uXuXuXuXuXuXuXuXuXuXuXuXuXuXuXuXuXuXuXuXuXuXuX",
"uXuXuXuXuXuXuXuXuXuXuXuXuXuXuXuXuXuXuXuXuXuXuX      O y s s s s s s s s s s s s s s s s s s s s s d l n x x x x x x x x x x x x x x x x x x x x x x x x x x x x x x x x x x x x x x x x x x x x x x x p O + Q h.(.<X<X<X<X<X<X<X<X<X<X<X<X<X<X<X<X<X<X<X<X<X<X<X<X<X<X<X<X<X<X<X<X<X<X<X<X<X<X<X<X<X<X<X<X<X<X<X<X<X<X<X<X<X6X<X<X<X<X<X<X<X<X<X<X<X<X<X<X<X<X<X<X<X<X<X<X<X<X<X<X<X<X<X<X<X<X<X<X<X<X'.U.K   # j %.-.-.$.<       uXuXuXuXuXuXuXuXuXuXuXuXuXuXuXuXuXuXuXuXuXuXuX",
"uXuXuXuXuXuXuXuXuXuXuXuXuXuXuXuXuXuXuXuXuXuXuX      O p s s s s s s s s s s s s s s s s s s s s s l x x x x x x x x x x x x n x x x x x x x x x x x x x x x x x x x x x x x x c x x x x x x x x x x s - ; 2.E.,X<X<X<X<X<X<X<X<X<X<X<X<X<X<X<X<X<X<X<X<X<X<X<X<X<X<X<X<X<X<X<X<X<X<X<X<X<X<X<X<X<X<X<X<X<X<X<X<X<X<X<X<X<X<X<X<X<X<X<X<X<X<X<X<X<X<X<X<X<X<X<X<X<X<X<X<X<X<X<X<X<X<X<X<X<X<X<X<X<X<X<X<X<X`.h.2 # j &.-.$.<       uXuXuXuXuXuXuXuXuXuXuXuXuXuXuXuXuXuXuXuXuXuXuX",
"uXuXuXuXuXuXuXuXuXuXuXuXuXuXuXuXuXuXuX              O - - - - - - - - : - - : - - - : - - : - : : > > y > > y y > y > y y y > > y y > y p > p > y p y y y y p p p p p p p y p p p y p p y p p p p > - @ 2.(.<X<X<X<X<X<X<X<X<X3X3X3X3X3X4X3X3X3X3X4X3X3X3X3X3X3X3X3X3X3X3X4X3X3X3X3X4X3X3X3X3X4X3X3X5X3X3X3X3X3X3X3X3X3X3X<X3X3X3X3X3X3X3X3X<X6X3X3X6X6X6X6X6X<X<X6X6X6X<X3X<X3X<X3X<X3X<X6X6X<X<X6X<X<X<X<X,Xl.2 O m &.$.a       uXuXuXuXuXuXuXuXuXuXuXuXuXuXuXuXuXuXuXuXuXuXuX",
"uXuXuXuXuXuXuXuXuXuXuXuXuXuXuXuXuXuX                                              o       o         o     o     o   o     o   o o   o     o   o   o   o   o o     o   o o     o o   o   o   o   o     Y E.<X<X<X<X<X<X<X<X3X5X4X0X0XtXwX0XwX0X0XwX0XwX0X0XwX0X0XwXwX0XrXrXrXrXrXrXrXrXrXrXrXrXrXrXrXrXrXrXrXrXwX0X0XtX0XtXwX0XrXrXrXrXrXwXtX0X0X0X0X0X0X0X0X0X0XwXrXrXwXwXrXrXrXrXrXrXrXwXrXrXrXwX0XyX<X<X<X<X,Xh.X   O O o               uXuXuXuXuXuXuXuXuXuXuXuXuXuXuXuXuXuXuX",
"uXuXuXuXuXuXuXuXuXuXuXuXuXuXuXuXuXuX                                                                                                                                                                3 h.,X<X<X<X<X<X<X<X3X9XwXeXeXeXeXeXeXeXeXeXeXeXeXeXeXeXeXeXrXeXeXeXeXeXeXeXeXeXeXeXeXeXeXeXeXeXeXeXeXeXeXeXeXeXeXeXeXeXeXeXeXeXeXeXeXeXeXeXeXeXeXeXeXeXeXeXeXeXeXeXeXeXeXeXeXeXeXeXeXeXeXeXeXeXeXeX0X3X<X<X).2.                      uXuXuXuXuXuXuXuXuXuXuXuXuXuXuXuXuXuXuX",
"uXuXuXuXuXuXuXuXuXuXuXuXuXuXuXuXuXuX                                                                                                                                                                E (.<X<X<X<X<X<X6X5X0XeXeXwX0X9X0X0XrXwXtXwXwXwXwXwXwXwXrXrXwXwXeXeXeXeXeXeXeXeXeXeXeXeXeXeXeXeXeXeXeXeXeXrXrXwXwXrXwXrXeXeXeXeXeXeXrXrXrXrXrXrXwXrXrXwXwXrXeXeXeXeXeXeXeXeXeXeXeXeXeXeXeXeXeXeXeXeXeXtX4X<X<Xk.%                     uXuXuXuXuXuXuXuXuXuXuXuXuXuXuXuXuXuXuX",
"uXuXuXuXuXuXuXuXuXuXuXuXuXuXuXuXuXuX      ; M N N M C N M M M M C M M M m M m M m m m m m m m m j m m j j j j j j j j j j j j j j j h j j h h k j a h k k k k k a k a k a a a a a a a a a a a < O + g.,X<X<X<X<X<X<X3XqXeXwX9X<X'.`.'.<X4X9X9X9X9X9X9X9X9X9X9X9X9X0XeXeXeXeXeXeXeXeXeXeXeXeXeXeXeXeXeXeXeXeXrX0X9X9X9X9X9X0XeXeXeXeXeXrX0X9X9X9X9X9X9X9X9X9X0XwXeXeXeXeXeXeXeXeXeXeXeXeXeXeXeXeXwX4X<X6X9XeXtX3X<X(.E                     uXuXuXuXuXuXuXuXuXuXuXuXuXuXuXuXuXuXuX",
"uXuXuXuXuXuXuXuXuXuXuXuXuXuXuXuXuXuX      k :.>.>.>.>.>.>.>.>.>.>.>.>.>.>.>.>.>.>.>.>.>.>.>.>.>.>.>.>.>.:.>.>.>.>.>.>.>.>.>.>.>.:.>.>.>.>.>.>.>.>.>.>.>.>.>.>.>.>.>.>.>.>.>.>.>.>.>.>.>.>.>.>.-.a 5 l.<X<X<X<X<X<X<X9XrXwXyX).k.g.h.U./.,X7X9X9X9X9X9X0X9X9X9X9X9XwXeXeXeXeXeXeXeXeXeXeXeXeXeXeXeXeXeXeXeXeXrX9X9X9X9X9X9XtXeXeXeXeXeXwX9X9X9X9X9X9X9X9X9X9X0XeXeXeXeXeXeXeXeXeXeXeXeXeXeXeXeX9X`.Y.Y.R.E.,XtX0X6X'.w.  m :.>.:.V @       uXuXuXuXuXuXuXuXuXuXuXuXuXuXuXuXuXuXuX",
"uXuXuXuXuXuXuXuXuXuXuXuXuXuXuXuXuXuX      h >.>.>.>.>.>.>.>.>.>.>.>.>.>.>.>.>.>.>.>.>.>.>.>.>.>.>.>.>.>.>.>.>.>.>.>.>.>.>.>.>.>.>.>.>.>.>.>.>.>.>.>.>.>.>.>.>.>.>.>.>.>.>.>.>.>.>.>.>.>.>.>.>.&.u A Y.<X<X<X<X<X<X3X0XwX9X'.h.6   + E k.(.<X9X9X9X9X9X9X9X9X9X9X0XrXeXeXeXeXeXeXeXeXeXeXeXeXeXeXeXeXeXeXeXeXwX9X9X9X9X9X0XwXeXeXeXeXeXwX9X9X9X9X9X9X9X9X9X9X0XeXeXeXeXeXeXeXeXeXeXeXeXeXeXeX9X).5.@   G j.E.<XtX4X<Xh.  m >.>.>.+.O       uXuXuXuXuXuXuXuXuXuXuXuXuXuXuXuXuXuXuX",
"uXuXuXuXuXuXuXuXuXuXuXuXuXuXuXuXuXuX      a -.:.;.;.;.:.:.;.;.:.;.:.:.;.;.:.:.;.;.:.;.:.;.:.:.:.:.:.:.:.:.:.:.:.:.:.:.:.:.:.:.:.:.:.:.:.:.:.:.:.:.:.:.>.:.:.:.:.:.:.>.:.:.:.>.:.:.:.:.>.:.:.:.%.< G Y.<X<X<X<X<X<XyXwX0X4XR.Q       @ 8.E.'.9X9X9X9X9X9X9X9X9X9X0XeXeXeXeXeXeXeXeXeXeXeXeXeXeXeXeXeXeXeXeXrX9X9X9X9X9X9X0XeXeXeXeXeXrX0X9X9X9X9X9X9X9X9X9X9XwXeXeXeXeXeXeXeXeXeXeXeXeXeXeXeX5Xg.@       T Y.`.yX9X6Xj.  h >.>.>.+.O       uXuXuXuXuXuXuXuXuXuXuXuXuXuXuXuXuXuXuX",
"uXuXuXuXuXuXuXuXuXuXuXuXuXuXuXuXuXuX      < &.-.-.-.-.-.-.-.-.-.-.-.-.-.-.-.-.-.-.-.-.-.;.&.-.-.-.-.-.-.=.-.-.-.-.-.-.-.-.-.-.-.-.-.-.-.-.-.-.;.-.-.-.-.-.;.-.-.-.-.-.-.-.-.-.-.-.-.-.-.-.-.-.+.; D R.<X<X<X<X<X<XyXtX9X5XU.e         2.R.`.9X9X9X9X9X9X9X9X9X9XwXeXeXeXeXeXeXeXeXeXeXeXeXeXeXeXeXeXeXeXeXwX9X9X9X9X9X9XtXeXeXeXeXeXrX0X9X9X9X0X9X9X9X9X9X0XrXeXeXeXeXeXeXeXeXeXeXeXeXeXeXeX,X2.        Z h.(.3X0X3Xj.  a -.-.-.M o       uXuXuXuXuXuXuXuXuXuXuXuXuXuXuXuXuXuXuX",
"uXuXuXuXuXuXuXuXuXuXuXuXuXuXuXuXuXuX      < ,.-.-.-.-.-.-.-.-.-.-.-.-.-.-.-.-.-.-.-.-.-.-.-.-.-.-.-.-.-.-.-.-.-.-.-.-.-.-.-.-.-.-.-.-.-.-.-.-.-.-.-.-.-.-.-.-.-.-.-.-.-.-.-.-.-.-.-.-.-.-.-.-.+., D R.<X<X<X<X<X<X4X0X9X4XR.K       @ 0.E.'.9X9X0X9X9X9X9X9X9X0XrXeXeXeXeXeXeXeXeXeXeXeXeXeXeXeXeXeXeXeXeXwX9X9X9X9X9X0XwXeXeXeXeXeX0X9X9X9X9X9X9X9X9X9X9X0XeXeXeXeXeXeXeXeXeXeXeXeXeXeXeXeX<X5.        G l.).6X9X4Xj.  k -.-.-.M +       uXuXuXuXuXuXuXuXuXuXuXuXuXuXuXuXuXuXuX",
"uXuXuXuXuXuXuXuXuXuXuXuXuXuXuXuXuXuX      a &.-.-.-.-.-.-.-.-.-.-.-.-.-.-.-.-.-.-.-.-.-.-.-.-.-.-.-.-.-.-.-.-.-.-.-.-.-.-.-.=.-.-.-.-.-.-.-.-.-.-.-.-.-.-.-.-.-.-.-.-.-.-.-.-.-.-.-.-.-.-.-.-.+., F Y.<X<X<X<X<X<X4X0X9X9X>Xh.A 2 7 E k.(.<X9X9X9X9X9X9X9X9X9X0XeXeXeXeXeXeXeXeXeXeXeXeXeXeXeXeXeXeXeXeXwX0X9X9X9X0X9X0XrXeXeXeXeXrX0X9X9X9X9X9X0X9X9X9X9XwXeXeXeXeXeXeXeXeXeXeXeXeXeXeXeXeX9XU.S   # @ 5.R.`.4X9X3Xj.  u -.-.-.m +       uXuXuXuXuXuXuXuXuXuXuXuXuXuXuXuXuXuXuX",
"uXuXuXuXuXuXuXuXuXuXuXuXuXuXuXuXuXuX      < &.-.-.-.-.-.-.-.-.-.-.-.=.-.-.-.-.-.-.-.-.-.-.-.-.-.-.-.-.-.-.-.-.-.-.-.-.-.-.-.-.-.-.-.-.-.-.-.-.-.-.-.-.-.-.-.-.-.-.-.-.-.-.-.-.-.-.-.-.-.-.-.-.+.; D R.<X<X<X<X<X<X4X9X9X9X4X`.k.e.g.Y.(.,X9X9X9X9X9X9X9X9X9X9XwXeXeXeXeXeXeXeXeXeXeXeXeXeXeXeXeXeXeXeXeXwX9X9X9X9X9X9XtXeXeXeXeXeXwX9X9X9X9X9X9X9X9X9X9X9XrXeXeXeXeXeXeXeXeXeXeXeXeXeXeXeXeXrX<XU.5.<.g.R.).<X9X4X3Xj.# k -.-.-.M o       uXuXuXuXuXuXuXuXuXuXuXuXuXuXuXuXuXuXuX",
"uXuXuXuXuXuXuXuXuXuXuXuXuXuXuXuXuXuX      < &.-.-.-.-.-.-.-.-.-.-.-.-.-.-.-.-.-.-.-.-.-.-.-.-.-.-.-.-.-.-.-.-.-.-.-.-.-.-.-.-.-.-.-.-.-.-.-.-.-.-.-.-.-.-.-.-.-.-.-.-.-.-.-.-.-.-.-.-.-.-.-.-.+.; K Y.<X<X<X<X<X<X4X9X9X9X9X4X,X`.).`.<X4X9X9X9X9X9X9X9X9X9X0XwXeXeXeXeXeXeXeXeXeXeXeXeXeXeXeXeXeXeXeXeX0X9X9X9X9X9X0XrXeXeXeXeXeXwX9X9X9X9X9X9X9X9X9X9XtXeXeXeXeXeXeXeXeXeXeXeXeXeXeXeXeXeXeXrX5X).E.(.`.6X9X9X4X3Xh.  a -.-.-.m o       uXuXuXuXuXuXuXuXuXuXuXuXuXuXuXuXuXuXuX",
"uXuXuXuXuXuXuXuXuXuXuXuXuXuXuXuXuXuX      u &.,.=.-.-.-.-.-.-.-.-.-.-.-.-.-.-.-.-.-.-.-.-.-.-.-.-.-.-.-.-.-.-.-.-.-.-.-.-.-.-.-.-.-.-.-.-.-.-.-.-.-.-.-.-.-.-.-.-.-.-.-.-.-.-.-.-.-.-.-.-.-.-.+., F R.<X<X<X<X<X<X5X9X9X9X9X9X9X9X9X9X9X9X9X9X9X9X9X9X9X9X9XtXeXeXeXeXeXeXeXeXeXeXeXeXeXeXeXeXeXeXeXeXrX0X9X9X9X9X9X0XeXeXeXeXeXrX0X9X9X9X9X9X9X9X9X9X0XwXeXeXeXeXeXeXeXeXeXeXeXeXeXeXeXeXeXeXeXeXwX9X9X9X9X9X9X4X3Xh.. a -.-.-.m o       uXuXuXuXuXuXuXuXuXuXuXuXuXuXuXuXuXuXuX",
"uXuXuXuXuXuXuXuXuXuXuXuXuXuXuXuXuXuX      a &.-.=.=.-.-.-.-.-.-.=.-.-.-.-.-.-.-.-.-.-.-.-.-.-.-.-.-.-.-.-.-.-.-.-.-.-.-.-.-.-.-.-.-.-.-.-.-.-.-.-.-.-.-.-.-.-.-.-.-.-.-.-.-.-.-.-.-.-.-.-.-.-.+., F R.<X<X<X<X<X<X4X9X9X9X9X9X9X9X9X9X9X9X9X9X9X9X9X9X9X9X9XwXeXeXeXeXeXeXeXeXeXeXeXeXeXeXeXeXeXeXeXeXrX9X9X9X9X9X9XtXeXeXeXeXeXwX9X9X9X9X9X9X9X9X9X9X0XrXeXeXeXeXeXeXeXeXeXeXeXeXeXeXeXeXeXeXeXrX0X9X9X9X9X9X9X4X3Xh.  a &.-.-.m o       uXuXuXuXuXuXuXuXuXuXuXuXuXuXuXuXuXuXuX",
"uXuXuXuXuXuXuXuXuXuXuXuXuXuXuXuXuXuX      a %.-.-.-.-.-.-.-.-.-.-.-.-.-.-.-.-.-.-.-.-.-.-.-.-.-.-.-.-.-.-.-.-.-.-.-.-.-.-.-.-.-.-.-.-.-.-.-.-.-.-.-.-.-.-.-.-.-.-.-.-.-.-.-.-.-.-.-.-.-.-.-.-.V ; F R.1X<X<X<X<X<X5X9X9X0X9X9X9X9X9X9X9X9X9X9X9X9X9X9X9X9X0XrXeXeXeXrXeXeXeXeXeXeXeXeXeXeXeXeXeXeXeXeX0X9X9X9X9X9X0XrXeXeXeXeXeXwX9X9X9X9X9X9X9X9X9X9X0XeXeXeXeXeXeXeXeXeXeXeXeXeXeXeXeXeXeXeXeXrX0X9X9X9X9X0X9X9X<Xh.. k -.-.-.m #       uXuXuXuXuXuXuXuXuXuXuXuXuXuXuXuXuXuXuX",
"uXuXuXuXuXuXuXuXuXuXuXuXuXuXuXuXuXuX      u &.-.-.-.-.-.-.-.-.-.-.-.-.-.-.-.-.-.-.-.-.-.-.-.-.-.-.-.-.-.-.-.-.-.-.-.-.-.-.-.-.-.-.-.-.-.-.-.-.-.-.-.-.-.-.-.-.-.-.-.-.-.-.-.-.-.-.-.-.-.-.-.-.+.; F R.<X<X<X<X<X<X4X9X9X9X9X9X9X9X9X9X0X9X9X9X9X9X9X9X9X9X0XeXeXeXrXtX0X0XwXrXrXeXeXeXeXeXeXeXeXeXeXrX0X9X9X9X9X9XtXeXeXeXeXeXwX0X9X9X9X9X0X9X9X9X9X9XrXeXeXeXeXeXrXrXtX9X9XeXeXeXeXeXeXeXeXeXeXrX9X9X9X9X9X9X9X4X3Xh.# a -.-.-.m o       uXuXuXuXuXuXuXuXuXuXuXuXuXuXuXuXuXuXuX",
"uXuXuXuXuXuXuXuXuXuXuXuXuXuXuXuXuXuX      u &.-.-.-.-.-.-.-.-.-.-.-.-.-.-.-.-.-.-.-.-.-.-.-.-.-.-.-.-.-.-.-.-.-.-.-.-.-.-.-.-.-.-.-.-.-.-.-.-.-.-.-.-.-.-.-.-.-.-.-.-.-.-.-.-.-.-.-.-.-.-.-.-.V ; F R.<X<X<X<X<X<X4X9X9X9X9X9X9X9X9X9X9X9X9X9X9X9X0X9X9X0XwXeXeXeXeXrX4X<X<X<XyXtXwXrXeXeXeXeXeXeXeXwX9X9X9X9X9X9XtXeXeXeXeXeXwX9X9X9X9X9X9X9X9X9X9X0XrXeXeXrXrX0X<X).E.,XwXeXeXeXeXeXeXeXeXeXeX0X9X9X9X9X9X9X9X4X3Xh.  k -.-.-.m #       uXuXuXuXuXuXuXuXuXuXuXuXuXuXuXuXuXuXuX",
"uXuXuXuXuXuXuXuXuXuXuXuXuXuXuXuXuXuX      a &.-.-.-.-.-.-.-.-.-.-.-.-.-.-.-.-.-.-.-.-.-.-.-.-.-.-.-.-.-.-.-.-.-.-.-.-.-.-.-.-.-.-.-.-.-.-.-.-.-.-.-.-.-.-.-.-.-.-.-.-.-.-.-.-.-.-.-.-.-.-.-.-.V , F R.<X<X<X<X<X<X4X9X9X9X9X9X9X9X9X9X9X0X9X9X9X9X9X9X9X0XrXeXeXeXeXeXeX9X6X'.`.`.'.<X9X0XtXrXeXeXeXtX9X9X9X9X9X9XrXeXeXeXeXeXtX9X9X9X9X9X9X9X9X9X9X0XrX0X9X,X(.Y.Y.E.5XeXeXeXeXeXeXeXeXeXeXeXrX0X9X9X9X9X9X9X9X9X<Xh.. a -.-.-.m O       uXuXuXuXuXuXuXuXuXuXuXuXuXuXuXuXuXuXuX",
"uXuXuXuXuXuXuXuXuXuXuXuXuXuXuXuXuXuX      a %.-.-.-.-.-.-.-.-.-.-.-.-.-.-.-.-.-.-.-.-.-.-.-.-.-.-.-.-.-.-.-.-.-.-.-.-.-.-.-.-.-.-.-.-.-.-.-.-.-.-.-.-.-.-.-.-.-.-.-.-.-.-.-.-.-.-.-.-.-.-.-.-.V ; F R.<X<X<X<X<X<X5X9X0X9X9X9X9X9X9X9X9X9X9X9X9X9X9X9X9X0XeXeXeXeXeXeXeXeXrX4X,X`.`.`.(.).'.3X9X9X0X9X9X9X9X9X9XtXeXeXeXeXeXrX0X9X9X9X9X9X9X9XyXyX3X3X'.E.Y.R.E.E.`.9XeXeXeXeXeXeXeXeXeXeXeXeXrX9X9X9X9X9X9X9X9X4X3Xh.  k -.-.-.j o       uXuXuXuXuXuXuXuXuXuXuXuXuXuXuXuXuXuXuX",
"uXuXuXuXuXuXuXuXuXuXuXuXuXuXuXuXuXuX      a &.=.-.-.-.-.-.-.-.-.-.-.-.-.-.-.-.-.-.-.-.-.-.-.-.-.-.-.-.-.-.-.-.-.-.-.-.-.-.-.-.-.-.-.-.-.-.-.-.-.-.-.-.-.-.-.-.-.-.-.-.-.-.-.-.-.-.-.-.-.-.-.-.V , F R.<X<X<X<X<X<X4X9X9X9X9X9X9X9X9X9X9X9X9X9X9X9X9X9X9XwXeXeXeXeXeXeXeXeXeXeX0X6X'.`.`.`.`.(.E.(.'.,X<X4X4X9X9XtXeXeXeXeXeXwX9X9X9X9X9X9X4X3X,X).R.Y.R.(.).).(.,XwXeXeXeXeXeXeXeXeXeXeXeXeXrXwX9X9X9X9X9X9X9X0X4X3Xh.  a -.-.-.m o       uXuXuXuXuXuXuXuXuXuXuXuXuXuXuXuXuXuXuX",
"uXuXuXuXuXuXuXuXuXuXuXuXuXuXuXuXuXuX      a &.,.-.-.-.-.-.-.-.-.-.-.-.-.-.-.-.-.-.-.-.-.-.-.-.-.-.-.-.-.-.-.=.-.-.-.-.-.-.-.-.-.-.-.-.-.-.-.-.-.-.-.-.-.-.-.-.-.-.-.-.-.-.-.-.-.-.-.-.-.-.-.-.V ; K R.<X<X<X<X<X<X5X9X9X9X9X9X9X9X9X9X9X9X9X9X9X9X9X9X0XrXeXeXeXeXeXeXeXeXeXeXeXrXyX,X`.`.`.`.`.`.(.R.R.E.`.,X3X9XrXeXeXeXeX0X9X9X4X4X<X`.(.Y.Y.R.(.).`.`.).).5XeXeXeXeXeXeXeXeXeXeXeXeXeXeXrX9X9X9X9X9X9X9X9X9X4X3Xh.  k -.-.-.m #       uXuXuXuXuXuXuXuXuXuXuXuXuXuXuXuXuXuXuX",
"uXuXuXuXuXuXuXuXuXuXuXuXuXuXuXuXuXuX      a &.-.-.=.-.-.-.-.-.-.-.-.-.-.-.-.-.-.-.-.-.-.-.-.-.-.-.-.-.-.-.-.-.-.-.-.-.-.-.-.-.-.-.-.-.-.-.-.-.-.-.-.-.-.-.-.-.-.-.-.-.-.-.-.-.-.-.-.-.-.-.-.-.V ; K R.<X<X<X<X<X<X4X9X9X9X9X9X9X9X9X9X9X9X9X9X9X9X9X9XtXeXeXeXeXeXeXeXeXeXeXeXeXeXeXtX3X'.`.`.`.`.`.`.).(.R.Y.R.(.,X4X0XtX0X9X3X,X`.R.Y.Y.E.(.).`.`.`.`.).'.9XeXeXeXeXeXeXeXeXeXeXeXeXeXeXeXwX9X9X9X9X9X9X9X9X9X4X3Xh.  h &.-.-.m o       uXuXuXuXuXuXuXuXuXuXuXuXuXuXuXuXuXuXuX",
"uXuXuXuXuXuXuXuXuXuXuXuXuXuXuXuXuXuX      a %.-.-.-.-.-.-.-.-.-.-.-.-.-.-.-.-.-.-.-.-.-.-.-.-.-.-.-.-.-.-.-.-.-.-.-.-.-.-.-.-.-.-.-.-.-.-.-.-.-.-.-.-.-.-.-.-.-.-.-.-.-.-.-.-.-.-.-.-.-.-.-.-.V ; K R.<X<X<X<X<X<X3X9X9X9X9X9X9X9X9X9X9X9X9X9X9X9X9X9XwXeXeXeXeXeXeXeXeXeXeXeXeXeXeXeXrXyX,X`.`.`.`.`.`.`.`.).(.R.Y.Y.R.).`.(.R.U.Y.E.).).`.`.`.`.`.).).<XwXeXeXeXeXeXeXeXeXeXeXeXeXeXeXeXeXwX9X9X9X9X9X9X9X9X9X4X3Xh.  k &.-.-.m #       uXuXuXuXuXuXuXuXuXuXuXuXuXuXuXuXuXuXuX",
"uXuXuXuXuXuXuXuXuXuXuXuXuXuXuXuXuXuX      a &.-.-.-.-.-.-.-.-.-.-.-.-.-.-.-.-.-.-.-.-.=.-.-.-.-.-.-.-.-.-.-.-.-.-.-.-.-.-.-.-.-.-.-.-.-.-.-.-.-.-.-.-.-.-.-.-.-.-.-.-.-.-.-.-.-.-.-.-.-.-.-.-.V ; F R.<X<X<X<X<X<X4X9X9X9X9X9X0X9X9X9X0X0X9X9X9X9X9X0XrXeXeXeXeXeXeXeXeXeXeXeXeXeXeXeXeXeXtX3X'.`.`.`.`.`.`.`.`.`.`.(.R.Y.U.R.(.).`.`.).`.`.`.`.`.).`.4XeXeXeXeXeXeXeXeXeXeXeXeXeXeXeXeXeXrX0X9X9X9X0X9X9X9X9X9X4X3Xg.# k -.-.-.j o       uXuXuXuXuXuXuXuXuXuXuXuXuXuXuXuXuXuXuX",
"uXuXuXuXuXuXuXuXuXuXuXuXuXuXuXuXuXuX      a &.-.-.-.-.-.-.-.-.-.-.-.-.-.-.-.-.-.-.-.-.-.-.-.-.-.-.-.-.-.-.-.-.-.-.-.-.-.=.-.-.-.-.-.-.-.-.-.-.-.-.-.-.-.-.-.-.-.-.-.-.-.-.-.-.-.-.-.-.-.-.-.-.B ; F R.<X<X<X<X<X<X4X9X9X9X9X9X9X9X9X9X9X9X9X9X9X9X9XwXeXeXeXeXeXeXeXeXeXeXeXeXeXeXeXeXeXeXeXrX9X,X`.`.`.`.`.`.`.`.`.`.`.`.`.`.`.`.`.`.`.`.`.`.`.`.,X9XeXeXeXeXeXeXeXeXeXeXeXeXeXeXeXeXeXeXwX9X9X9X9X9X9X9X9X9X9X4X3Xh.  k -.-.-.j o       uXuXuXuXuXuXuXuXuXuXuXuXuXuXuXuXuXuXuX",
"uXuXuXuXuXuXuXuXuXuXuXuXuXuXuXuXuXuX      a &.-.-.-.-.-.-.-.-.-.-.-.-.-.-.-.-.-.-.-.-.-.-.-.-.-.-.-.-.-.-.-.-.-.-.-.-.-.=.;.-.-.-.&.-.-.-.-.-.-.-.-.-.-.-.-.-.-.-.-.-.-.-.-.-.-.-.-.-.-.-.-.-.V ; Y R.<X<X<X<X<X<X4X9X9X9X9X9X9X9X9X9X9X9X9X9X9X9X9XwXeXeXeXeXeXeXeXeXeXeXeXeXeXeXeXeXeXeXeXeXeX0X3X'.`.`.`.`.`.`.`.`.`.`.`.`.`.`.`.`.`.`.`.`.`.<XwXeXeXeXeXeXeXeXeXeXeXeXeXeXeXeXeXeXeXeX0X9X9X9X0X9X9X0X9X9X9X4X6Xg.  h -.-.-.j o       uXuXuXuXuXuXuXuXuXuXuXuXuXuXuXuXuXuXuX",
"uXuXuXuXuXuXuXuXuXuXuXuXuXuXuXuXuXuX      a &.-.-.-.-.-.-.-.-.-.-.-.-.-.-.-.-.-.-.-.-.-.-.-.-.-.-.-.-.-.-.-.-.-.-.-.-.-.-.=.-.=.-.-.-.-.-.-.-.-.-.-.-.-.-.-.-.-.-.-.-.-.-.-.-.-.-.-.-.-.-.-.-.V ; Q R.6X<X<X<X<X<X4X0X9X9X9X9X9X9X9X9X9X9X9X9X9X9X0XrXeXeXeXeXeXeXeXeXeXeXeXeXeXeXeXeXeXeXeXeXwXwXrX9X,X'.`.`.`.`.`.`.`.`.`.`.`.`.`.`.`.`.`.'.4XeXeXeXeXeXeXeXeXeXeXeXeXeXeXeXeXeXeXeXeXrX9X9X9X9X9X9X9X9X9X9X9X4X3Xh.  h &.-.-.j o       uXuXuXuXuXuXuXuXuXuXuXuXuXuXuXuXuXuXuX",
"uXuXuXuXuXuXuXuXuXuXuXuXuXuXuXuXuXuX      a &.-.-.-.-.-.-.-.-.-.-.-.-.-.-.-.-.-.-.-.-.-.-.-.-.-.-.-.-.-.-.-.-.-.-.-.-.-.-.-.-.=.-.-.-.-.-.-.-.-.-.-.-.-.-.-.-.-.-.-.-.-.-.-.-.-.-.-.-.-.-.-.-.B ; Y R.<X<X<X<X<X<X4X9X9X9X9X9X9X9X9X9X9X9X9X9X9X9X0XeXeXeXeXeXeXeXeXeXeXeXeXeXeXeXeXeXeXeXeXrX9X9X0XeXwX3X`.`.`.`.`.`.`.`.`.`.`.`.`.`.`.`.,X9XeXeXeXeXeXeXeXeXeXeXeXeXeXeXeXeXeXeXeXeXeXwX9X9X9X9X9X9X9X9X9X9X9X4X6Xg.  h -.-.-.j o       uXuXuXuXuXuXuXuXuXuXuXuXuXuXuXuXuXuXuX",
"uXuXuXuXuXuXuXuXuXuXuXuXuXuXuXuXuXuX      a &.-.-.-.-.-.-.-.-.-.-.-.-.-.-.-.-.-.-.-.-.-.-.-.-.-.-.-.-.-.-.-.-.-.-.-.-.-.-.-.=.=.-.-.-.-.-.-.-.-.=.-.-.-.-.-.-.-.-.-.-.-.-.-.-.-.-.-.-.-.-.-.;.V ; Q R.<X<X<X<X<X<X4X9X9X9X9X9X9X9X0X9X9X9X9X9X9X9XwXeXeXeXeXeXeXeXeXeXeXeXeXeXeXeXeXeXeXeXeXwX9X9X9X0XrXrX9X,X'.`.`.`.`.`.`.`.`.`.`.`.`.3XwXrXeXeXeXeXeXeXeXeXeXeXeXeXeXeXeXeXeXeXeXeXeXtX9X9X9X9X9X9X9X9X9X0X9X4X<Xg.# k -.-.-.j o       uXuXuXuXuXuXuXuXuXuXuXuXuXuXuXuXuXuXuX",
"uXuXuXuXuXuXuXuXuXuXuXuXuXuXuXuXuXuX      a &.-.-.=.-.-.-.-.=.=.-.-.-.-.-.-.-.-.-.-.-.-.-.-.-.-.-.-.-.-.-.-.-.-.=.=.-.-.-.-.;.=.-.-.-.-.-.-.-.-.=.;.-.-.-.-.-.=.-.-.-.-.-.-.-.-.-.-.-.-.-.-.&.V ; F R.<X<X<X<X<X<X4X9X9X9X9X9X9X9X9X9X9X9X9X0X9X0XrXeXeXeXeXeXeXeXeXeXeXeXeXeXeXeXeXeXeXeXeX0X9X9X9X9X0XwXeXwX3X'.`.`.`.`.`.`.`.`.`.,X9XrXwX0XeXeXeXeXeXeXeXeXeXeXeXeXeXeXeXeXeXeXeXeXrX0X9X9X9X9X9X9X9X9X9X9X9X4X3Xg.  k -.-.-.j o       uXuXuXuXuXuXuXuXuXuXuXuXuXuXuXuXuXuXuX",
"uXuXuXuXuXuXuXuXuXuXuXuXuXuXuXuXuXuX      a &.-.=.=.=.=.-.-.-.;.-.-.-.=.=.=.-.-.-.-.-.-.-.-.-.-.-.;.=.-.=.;.-.-.;.=.-.=.=.=.=.=.-.-.-.;.-.-.-.-.=.=.-.=.-.;.-.;.-.;.-.-.=.=.-.-.;.=.-.-.-.;.&.V ; L R.<X<X<X<X<X<X4X9X9X9X9X9X9X9X9X9X9X9X9X9X9X0XeXeXeXeXeXeXeXeXeXeXeXeXeXeXeXeXeXeXeXeXwX0X9X9X9X9X9X0XeXeXeX9X<X'.`.`.`.`.`.'.<X0XrX0X0XwXeXeXeXeXeXeXeXeXeXeXeXeXeXeXeXeXeXeXeXeXwX9X9X9X9X9X9X9X9X9X9X9X9X4X<Xg.# k -.-.-.j o       uXuXuXuXuXuXuXuXuXuXuXuXuXuXuXuXuXuXuX",
"uXuXuXuXuXuXuXuXuXuXuXuXuXuXuXuXuXuX      a $.%.%.%.%.%.%.%.%.%.%.%.%.%.%.=.%.%.%.%.%.%.%.%.%.%.%.%.%.%.%.%.%.%.%.&.%.%.%.=.%.=.%.%.&.%.%.&.%.%.=.%.%.%.%.%.%.%.%.%.%.%.%.=.%.=.%.&.&.&.&.%.&.B ; Q E.<X<X<X<X<X<X4X9X9X9X9X9X9X9X9X9X9X9X9X9X9XrXeXeXeXeXeXeXeXeXeXeXeXeXeXeXeXeXeXeXeXeXwX0X9X9X9X9X9XtXeXeXeXeXwX3X'.`.`.`.,X4XrXrX0X9X0XrXeXeXeXeXeXeXeXeXeXeXeXeXeXeXeXeXeXeXeXeXtX9X9X9X9X9X9X9X9X9X9X9X9XyX3Xg.. k -.-.-.j o       uXuXuXuXuXuXuXuXuXuXuXuXuXuXuXuXuXuXuX",
"uXuXuXuXuXuXuXuXuXuXuXuXuXuXuXuXuXuX      < b b v b b v b b b b v b b b o.b b b b b b b b b b b b b b o.o.b b b b b o.b B b b b b b b b b b b b o.o.b o.b o.o.b o.o.b o.o.o.o.o.b o.o.b o.o.o.d = Q R.<X6X<X<X<X<X4X9X9X9X9X9X9X9X9X9X9X9X9X9X0XrXeXeXeXeXeXeXeXeXeXeXeXeXeXeXeXeXeXeXeXeX0X9X9X9X9X9X0XwXeXeXeXeXeXeX9X<X'.<X9XeXwX0X9X9XtXeXeXeXeXeXeXeXeXeXeXeXeXeXeXeXeXeXeXeXeXwX0X9X9X9X9X0X9X9X9X9X9X9X9X4X6Xg.  u O.$.*.f +       uXuXuXuXuXuXuXuXuXuXuXuXuXuXuXuXuXuXuX",
"uXuXuXuXuXuXuXuXuXuXuXuXuXuXuXuXuXuX      > x x x x x x x x x x x x x x x x x x x x x x x x x x x x x x x x x x x x x x x x x x n x n x n n n n x x x x x x x n x x x x n n x x x x n x x x n s O U E.<X<X<X<X<X<X4X9X9X9X9X9X4X4X3X4X9X9X9X9XwXeXeXeXeXeXeXeXeXeXeXeXeXeXeXeXeXeXeXeXeXrX0X9X9X9X9X9X0XrXeXeXeXeXeXeXeXtX0XwXeXwX0X9X9X9XwXeXeXeXeXeXeXeXeXeXeXeXeXeXeXeXeXeXeXeXeXwX9X9X9X9X9X9X9X9X9X9X9X9X9X4X6Xg.  > c n n y O       uXuXuXuXuXuXuXuXuXuXuXuXuXuXuXuXuXuXuX",
"uXuXuXuXuXuXuXuXuXuXuXuXuXuXuXuXuXuX      > n x x x x x x x x x x x x x x x x x x x x x x x x x x x x x x x x x x x x x x x x x x x x x x x n x x x x x x x x x x x x x x x x x x x x x n x x s O Y E.<X<X<X<X<X<X4X9X9X9X9X5X,X).).'.<X4X9X9XwXeXeXeXeXeXeXeXeXeXeXeXeXeXeXeXeXeXeXeXeXrX9X9X9X9X9X0XwXeXeXeXeXeXwX0XrXeXeXeXtX9X9X9X9X0XeXeXeXeXeXeXeXeXeXeXeXeXeXeXeXeXeXeXeXeXeX0X9X9X9X9X9X4X,X'.'.<XyX9X9X4X6Xg.  > x x x y O       uXuXuXuXuXuXuXuXuXuXuXuXuXuXuXuXuXuXuX",
"uXuXuXuXuXuXuXuXuXuXuXuXuXuXuXuXuXuX      > x x x x x x x x x x x x x x x x x x x x x x x x x x x x x x x x x x x x x x x x x x x x x x x x x x x x x x x x x x x x x x x x x x x x x x x x x s = Q E.<X<X<X<X<X<X4X9X9X9X3X(.h.e.g.U.E.,X9X0XrXeXeXeXeXeXeXeXeXeXeXeXeXeXeXeXeXeXeXeXeX0X9X9X9X9X9X9XrXeXeXeXeXeX0X9X0XwXrXwX9X9X9X9X9X0XeXeXeXeXeXeXeXeXeXeXeXeXeXeXeXeXeXeXeXeXrX0X9X9X9X9X<XE.U.k.R.E.'.4X9X4X6Xg.  > l x x p O       uXuXuXuXuXuXuXuXuXuXuXuXuXuXuXuXuXuXuX",
"uXuXuXuXuXuXuXuXuXuXuXuXuXuXuXuXuXuX      > x x x x x x x x x x x x x x x x x x x x x x x x x x x x x x x x x x x x x x x x x x x x x x x x x x x x x x x x x x x x x x x x x x x x x x x x x s = Y E.1X<X<X<X<X<X4X9X9XyX`.9.2   @ E k.).<XtXeXeXeXeXeXeXeXeXeXeXeXeXeXeXeXeXeXeXeXeXrX0X9X9X9X9X9X0XrXeXeXeXeXrX0X9X9X0X9X9X9X9X9X9X0XrXeXeXeXeXeXeXeXeXeXeXeXeXeXeXeXeXeXeXeXeXtX9X9X9X9X5XR.R #   G j.E.,X9X4X3Xg.  : x x x p O       uXuXuXuXuXuXuXuXuXuXuXuXuXuXuXuXuXuXuX",
"uXuXuXuXuXuXuXuXuXuXuXuXuXuXuXuXuXuX      > v x x x x x x x x x x x x x x x x x x x x x x x x x x x x x x x x x x x x x x x x x x x x x x x x x x x x x x x x x x x x x x n x x x x x x x x x s O Q E.<X<X<X<X<X<X4X9X9X4XU.A       @ e.E.,XwXeXeXeXeXeXeXeXeXeXeXeXeXeXeXeXeXeXeXeXeXtX9X9X0X9X9X9XwXeXeXeXeXeXwX9X9X9X9X9X9X9X9X9X9XtXrXeXeXeXeXeXeXeXeXeXeXeXeXeXeXeXeXeXeXeXeX0X9X9X9X9X'.5.#       ' U.`.3X4X6Xg.  > x x x y O       uXuXuXuXuXuXuXuXuXuXuXuXuXuXuXuXuXuXuX",
"uXuXuXuXuXuXuXuXuXuXuXuXuXuXuXuXuXuX      > z c c c c c c c c x c c x c x x c x c x c c x x c x c c n x c c x z c c x c c c x z c c c c z x c c c c x c c c c c x c c c c c c c c c x c c c x s O Q E.<X<X<X<X<X<X5X7X9X3Xl.6         0.R.,XwXeXeXeXeXeXeXeXeXeXeXeXeXeXeXeXeXeXeXeXeX0X9X9X9X9X9X0XrXeXeXeXeXeX0X9X9X9X9X9X9X9X9X9X9XtXeXeXeXeXeXeXeXeXeXeXeXeXeXeXeXeXeXeXeXeXwX0X9X9X9X9X).R         D l.).3X4X<Xe.  > x x x p o       uXuXuXuXuXuXuXuXuXuXuXuXuXuXuXuXuXuXuX",
"uXuXuXuXuXuXuXuXuXuXuXuXuXuXuXuXuXuX      O - - - - - ; - - ; ; ; - ; : ; - ; ; ; ; - ; ; : ; ; : : : : > : ; > : > , : ; > > > > > < > < > > > > < > > < > > > > < y > > u > > u y < y y u > ; o G R.<X<X<X<X<X<X6X4X9X5XR.F       % g.E.<XrXeXeXeXeXeXeXeXeXeXeXeXeXeXeXeXeXeXeXeXrX0X9X9X9X9X9X0XrXeXeXeXeXwX0X9X9X9X9X0X9X9X9X9X9XwXeXeXeXeXeXeXeXeXeXeXeXeXeXeXeXeXeXeXeXeXwX0X9X9X9X9X`.1.        Y k.`.3X3X<Xw.  > z z z > o       uXuXuXuXuXuXuXuXuXuXuXuXuXuXuXuXuXuXuX",
"uXuXuXuXuXuXuXuXuXuXuXuXuXuXuXuXuXuX                                                                                                                                                              7 U.<X<X<X<X<X<X<X3X9X9X'.g.S 3 6 5.U.).9XeXeXeXeXeXeXeXeXeXeXeXeXeXeXeXeXeXeXeXeXtX0X9X9X9X9X9XwXeXeXeXeXeXwX0X9X9X9X9X9X9X9X9X9X0XrXeXeXeXeXeXeXeXeXeXeXeXeXeXeXeXeXeXeXeXrXtX9X9X9X9X9X<Xl.A # o 2 e.R.'.5X6X'.5.                    uXuXuXuXuXuXuXuXuXuXuXuXuXuXuXuXuXuXuX",
"uXuXuXuXuXuXuXuXuXuXuXuXuXuXuXuXuXuX                                                                                                                                                              # g.,X<X<X<X<X<X<X<X4X9X3X`.U.g.j.Y.).<XwXeXeXeXeXeXeXeXeXeXeXeXeXeXeXeXeXeXeXeXeX0X9X9X9X9X9X0XwXeXeXeXeXeX0X9X9X9X9X9X9X9X9X9X9XwXeXeXeXeXeXeXeXeXeXeXeXeXeXeXeXeXeXeXeXeXrX0X9X9X9X9X9X9X'.U.0.7.l.E.).<X3X<X(.W                     uXuXuXuXuXuXuXuXuXuXuXuXuXuXuXuXuXuXuX",
"uXuXuXuXuXuXuXuXuXuXuXuXuXuXuXuXuXuX                O O O O O O O O O O O O O O O O o O o O o o o O o o o O o O o O o O o O o O o O o o o O o o o o o O O O O o o O o o o O o o o O o o o O o O o   E (.<X<X<X<X<X<X<X6X4X9X4X,X`.`.'.6X0XeXeXeXeXeXeXeXeXeXeXeXeXeXeXeXeXeXeXeXeXwX0X9X0X9X9X9X0XrXeXeXeXeXrX0X9X9X9X9X9X9X9X9X9X9XrXeXeXeXeXeXeXeXeXeXeXeXeXeXeXeXeXeXeXeXeXwX9X9X9X9X9X9X9X9X,X)./.(.'.3X5X<X<Xl.5                     uXuXuXuXuXuXuXuXuXuXuXuXuXuXuXuXuXuXuX",
"uXuXuXuXuXuXuXuXuXuXuXuXuXuXuXuXuX                O > s s s s s s s s s s p p > > > > > > > > > > > > > > > : > > : : > : > : > : > : > : > > p p p p p y p y p p y y p p y y p p y y p y y : - O   2 j.>X<X<X<X<X<X<X<X<X3X4X9X9X9X9X9XwXeXeXeXeXeXeXeXeXeXeXeXeXeXeXeXeXeXeXeXeXwX9X9X9X9X9X9XtXeXeXeXeXeXwX9X9X9X9X9X9X9X9X9X9X0XrXeXeXeXeXeXeXeXeXeXeXeXeXeXeXeXeXeXeXeXeX0X9X9X9X9X9X9X9X9X9X9X9X9X4X6X<X<X`.2.  O - =             uXuXuXuXuXuXuXuXuXuXuXuXuXuXuXuXuXuXuXuX",
"uXuXuXuXuXuXuXuXuXuXuXuXuXuXuXuX            o - p s x x x x x x x x x x x x x s s s s s s s s s s s s s s s s s s s s s s s s s s s s s d l x x x x x x x x x x x x x x x x x x x x x l s y : O       Y Y.,X<X<X<X<X<X<X<X<X6X3X4X4X4X4X0X0XtX0XtXtXtXtX0XtX0XwX0XwXwX0XwXtXtXtXtX9X4X4X4XyX4X4X0XwXwXwXwXwX9X4X4XyXyXyX4XyX4X9X9X9XtXwXrXwXwXwXwXwXrXrXrXwXrXrXrXrXrXrXwXrXwX9X7X9X4X9X4X9X4XyX9X4X4X<X<X<X<X,Xh.3 O s x p O       uXuXuXuXuXuXuXuXuXuXuXuXuXuXuXuXuXuXuXuXuXuX",
"uXuXuXuXuXuXuXuXuXuXuXuXuXuXuX          o - p s x x x x n x x x x x x x x x x x d s s s s s s s s s s s s s s s s s s s s s s s s d d d x x x x x x x x x x x x x x x x x x x x x l s > = o             <.E.,X<X<X<X<X<X<X<X<X<X<X<X<X<X<X<X<X<X<X<X<X<X<X<X<X<X<X<X<X<X<X<X<X<X<X<X<X<X<X<X<X<X<X<X<X<X<X<X<X<X<X<X<X<X<X<X<X<X<X<X<X<X<X<X<X<X<X<X<X<X<X<X<X<X<X<X<X<X<X<X<X<X<X<X<X<X<X<X<X<X<X<X<X<X<X<X<XU.A o y x x p O       uXuXuXuXuXuXuXuXuXuXuXuXuXuXuXuXuXuXuXuXuXuX",
"uXuXuXuXuXuXuXuXuXuXuXuXuX            - > s x x x x x x x x x x x x x x x x x x x d s s s s s s s s s s s s s s s s s s s s s s d l x x x x x x x x x x x x x x x x x x x x x l s > O               O # # E U.'.<X<X<X<X<X<X6X<X<X<X<X<X<X<X<X<X<X<X<X<X<X<X<X<X<X<X<X<X<X<X<X<X<X<X<X<X<X<X<X<X<X<X<X<X<X<X<X<X<X<X<X<X<X<X<X<X<X<X<X<X<X<X<X<X<X<X<X<X<X<X<X<X<X<X<X<X<X<X<X<X<X<X<X<X<X<X<X<X<X<X<X<X<X,Xk.A   : l x x y o       uXuXuXuXuXuXuXuXuXuXuXuXuXuXuXuXuXuXuXuXuXuX",
"uXuXuXuXuXuXuXuXuXuXuXuX          o - p s x x x x x x x x x x x x x x x x x x x x x d s s s s s s s s s s s s s s s s s s s d d x x x x x x x x x x x x x x x x x x x x x x d y O             O @ 3 6 6 @ o e g.Y.).'.,X,X,X,X,X,X,X,X,X,X,X,X,X,X<X,X,X,X<X,X,X,X,X,X,X,X<X,X<X<X,X,X,X<X,X,X<X,X<X,X,X,X<X,X,X<X<X,X,X,X<X,X,X,X,X<X,X<X<X,X<X<X<X,X<X<X,X<X,X<X,X<X<X<X,X<X<X<X<X,X<X<X1X<X<X<X<X<X,X(.0.$   : d x x x p O       uXuXuXuXuXuXuXuXuXuXuXuXuXuXuXuXuXuXuXuXuXuX",
"uXuXuXuXuXuXuXuXuXuXuX          O > s s d x x x x x x x x x x x x x x x x x x x x x d s s s s s s s s s s s s s s s s s d d x x x x x x x x x x x x x x x x x x x x x x l s -             @ 3 8 G Q Y Y G 5 O o 6 3.g.j.l.l.k.k.k.k.k.U.m.k.U.U.U.U.U.U.U.U.U.U.U.U.Y.U.U.Y.Y.Y.Y.Y.Y.Y.Y.Y.Y.R.Y.R.R.R.R.R.R.R.R.R.R.R.R.R.E.R.R.E.E.E.E.E.E.E.E.E.(.E.(.E.(.(.(.(.(.(.(.(.(.(.(.(.).).(.).).).(.R.l.2.%   o > l x x x x p O       uXuXuXuXuXuXuXuXuXuXuXuXuXuXuXuXuXuXuXuXuXuX",
"uXuXuXuXuXuXuXuXuXuX          O y s s d l x x x x x x x x x x x x x x x x x x x x x x d s s s s s s s s s s s s s s s d d x x x x x x x x x x x x x x x x x x x x x x l > O           # & A K Y Y W P Q I Q A 3 @ +   o                           . .   # #   # X .   # .   #     # . # # #   # #     #     #   #   # # . . # # # #   #     #                                                             = s l x x x x x y o       uXuXuXuXuXuXuXuXuXuXuXuXuXuXuXuXuXuXuXuXuXuX",
"uXuXuXuXuXuXuXuXuXuX        O y s s s d x x x x x x x x x x x x x x x x x x x x x x x x s s s s s s s s s s s s s s d x x x x x x x x x x x x x x x x x x x x x x x d : o         # @ 3 k K P Q W P W Q Y Q W Q G 8 5 7 3 2 ; 7 & ; 2 2 2 @   # & H } | { | | { { { } } } } } } } ] ] } ] ] ] ] [ [ [ [ [ [ [ ^ [ P [ P ` ' P P P P P P P I I I I I L L I L H H H H H 8 @ # . + # # O # # + O + .         - l x x x x x x y O       uXuXuXuXuXuXuXuXuXuXuXuXuXuXuXuXuXuXuXuXuXuX",
"uXuXuXuXuXuXuXuXuX        = p s s s d l x x x x x x x x x x x x x x x x x x x x x x x x x s s s s s s s s s s s s s x x x x x x x x x x x x x x x x x x x x x x l s - o         + ; 5 6 G W Q Y Q Y Q Y Y Q Y Q W Y Y Y P Q Y Q Y Y Y Y Y F 6 + & | Z.@X=X=X=X=X=X=X=X=X=X=X=X=X=X=X=X=X=X=X=X=X=X=X=X=X=X=X=X=X=X=X=X=X=X=X=X=X=X=X=X=X=X=X=X=X=X=X-X=X=X=X=X=X=X=X@Xa.& 6 K Y Y Y Y Q Y Y P Q Y 3 #     o p x x x x x x p o       uXuXuXuXuXuXuXuXuXuXuXuXuXuXuXuXuXuXuXuXuXuX",
"uXuXuXuXuXuXuXuX        O y s s s s d x x x x x x x x x x x x x x x x x x x x x x x x x x s s s s s s s s s s s d x x x x x x x x x x x x x x x x x x x x x x x s -         # @ 7 5 6 w F Y Q W Q W P W Q Y P Q P Q W Y Q P Y Y Y Y W Y Q W Q S 2 o r v.|.&X;X=X=X=X=X=X=X=X=X=X=X=X=X=X=X=X=X=X=X=X=X=X=X=X=X=X=X=X=X=X=X=X=X=X=X=X=X=X=X=X=X=X=X=X=X=X=X=X=X=X-X+Xa.2 6 Y Q Q W Y Q P W Q W Y Q F ;       - d x x x x x p o       uXuXuXuXuXuXuXuXuXuXuXuXuXuXuXuXuXuXuXuXuXuX",
"uXuXuXuXuXuXuX        O y s s s s s l x x x x x x x x x x x x x x x x x x x x x x x x x x d s s s s s s s s s d x x x x x x x x x x x x x x x x x x x x x x x d -         # 2 3 6 6 6 k Q Y W Q Q Y Q Y W Q Q W Q Y W Q Q W Q W P Q Q W P Q Q Y Q 8 + @ ] C.+X-X=X=X=X=X=X=X=X=X=X=X=X=X=X=X=X=X=X=X=X=X=X=X=X=X=X=X=X=X=X=X=X=X=X=X=X=X=X=X=X=X=X=X=X=X=X=X=X;X+Xy.& 6 Q Q P Y W Q Q W P Q Q Y Y Y w #       p x x x x x y o       uXuXuXuXuXuXuXuXuXuXuXuXuXuXuXuXuXuXuXuXuXuX",
"uXuXuXuXuXuXuX      o : s s s s s d l x x x x x x x x x x x x x x x x x x x x x x x x x x d s s s s s s s s l x x x x x x x x x x x x x x x x x x x x x x x d - o       O 2 5 5 6 5 6 G Q W Y Y P W Q Q W Q W Y Q W P Q W Y Q Q Y Y Q Q Q W P W Y Q G 2 X 8 s.}.&X;X=X=X=X=X=X=X=X=X=X=X=X=X=X=X=X=X=X=X=X=X=X=X=X=X=X=X=X=X=X=X=X=X=X=X=X=X=X=X=X=X=X=X=X=X=XXXy.2 8 Y W W Q W Q P W Q Q Y P Q P Y F 2       - d x x x x y o       uXuXuXuXuXuXuXuXuXuXuXuXuXuXuXuXuXuXuXuXuXuX",
"uXuXuXuXuXuX        - p s s s s s d x x x x x x x x x x x x x x x x x x x x x x x x x x x x d s s s s s s d x x x x x x x x x x x x x x x x x x x x x x x l > o         2 6 6 7 6 6 6 G F I Q P W Q W Y Q Y P Q W Q Y Y Y Q P W Q W P Y Y Q W Q Q Y W Q A @ # P C.XX-X=X=X=X=X=X=X=X=X=X=X=X=X=X=X=X=X=X=X=X=X=X=X=X=X=X=X=X=X=X=X=X=X=X=X=X=X=X=X=X=X=X=X=XXXy.& 6 Q Y Q P Y Q W Q Y Y W W Q Y Q W W 5 #     o s x x x x y o       uXuXuXuXuXuXuXuXuXuXuXuXuXuXuXuXuXuXuXuXuXuX",
"uXuXuXuXuXuX      O p s s s s s d d x x x x x x x x x x x x x x x x x x x x x x x x x x x x l s s s s s d x x x x x x x x x x x x x x x x x x x x x x x x p O         ; 7 6 6 6 6 6 4 6 k A F Q Q Y Y W W P Q W Y P Q W Q W P Q Y W P Q P W Q Y W Y Q W Y G 3 @ & a.D.&X=X=X=X=X=X=X=X=X=X=X=X=X;X=X=X=X=X=X=X=X=X=X=X=X=X=X=X=X=X=X;X=X=X=X=X=X=X=X=X=X-XXXu.$ 8 Q Q P Q W P W W Q Q W Q Y Q Y Y P W A @       : x x x x p o       uXuXuXuXuXuXuXuXuXuXuXuXuXuXuXuXuXuXuXuXuXuX",
"uXuXuXuXuX        - s s s s s s s l x x x x x x x x x x x x x x x x x x x x x x x x x x x x x s s s s s x x x x x x x x x x x x x x x x x x x x x x x x d O         + 3 5 6 7 5 6 6 5 6 6 6 8 A G F Q Y Y Q Q W Q W W Q Y Q W Y Q Q W Y Q W P Q Q W P Q Y Y Y k 2   H N.XX&X=X=X=X=X=X=X=X=X;X=X=X=X=X=X=X=X=X=X=X=X=X=X=X=X=X=X=X=X=X=X=X=X=X=X=X=X=X=XXXu.1 Z Q W Y Y Q W Q Y Y Y W P Q P W P Y Q Q G ;       - d x x x > o       uXuXuXuXuXuXuXuXuXuXuXuXuXuXuXuXuXuXuXuXuXuX",
"uXuXuXuXuX      O p s s s s s s d l x x x x x x x x x x x x x x x x x x x x x x x x x x x x x d s s s x x x x x x x x x x x x x x x x x x x x x x x x x : o         2 6 6 6 6 6 6 5 6 6 6 6 5 6 6 8 G G Q Q Y Q Y Q Q Y P Q Q Y Y Q W Q Q Y Y Q W Q W Q Q Y P Y F 7 + @ | S.@X=X=X=X=X=X=X=X=X=X=X=X=X=X=X=X=X=X=X=X=X=X=X=X=X=X=X=X=X=X=X=X=X=X=X=X-XXX| & e Q Y P W Q Y P Q Q Q W W Q W Y Q Q Q F 6 6 2 #     o s x x x > o       uXuXuXuXuXuXuXuXuXuXuXuXuXuXuXuXuXuXuXuXuXuX",
"uXuXuXuX        ; s s s s s s s d x x x x x x x x x x x x x x x x x x x x x x x x x x x x x x d s s s x x x x x x x x x x x x x x x x x x x x x x x x s O         # $ 7 6 7 6 6 5 6 6 7 6 6 4 6 6 6 6 6 e G F Q W Q P W Q W W Q W P W Q P W Q W P Q Y P Q Y Q Y Y Y G 2   r Z.&X=X=X=X=X=X=X=X=X=X=X=X=X=X=X=X=X=X=X=X=X=X=X=X=X=X=X=X=X=X=X=X=X=X-XXX| ; 8 W Q Y Q Q W Y Q W W P Q Q Y W Q Y Q G 6 7 6 5 +       > x x x : o       uXuXuXuXuXuXuXuXuXuXuXuXuXuXuXuXuXuXuXuXuXuX",
"uXuXuXuX      O p s s s s s s s d x x x x x x x x x x x x x x x x x x x x x x x x x x x x x x x s d x x x x x x x x x x x x x x x x x x x x x x x x x :       r | P 7 @ % 2 7 6 6 5 6 6 5 6 5 6 6 6 6 6 6 6 k A F F Q W Y P Y Q P W Q Y Y Q Q P W Q Y Y Y P Q W P Q Y F 2 . N.-X=X=X=X=X=X=X=X=X=X=X=X=X=X=X=X=X=X=X=X=X=X=X=X=X=X=X=X=X=X=X=X=X=X+Xu.@ A Q W Y Q Y W Q Q Y W Q Y W Y Y Q Q D 8 5 6 7 6 6 @       - l x x > o       uXuXuXuXuXuXuXuXuXuXuXuXuXuXuXuXuXuXuXuXuXuX",
"uXuXuX        - s s s s s s s s s x x x x x x x x x x x x x x x x x x x x x x x x x x x x x x x d x x x x x x x x x x x x x x x x x x x x x x x x x d O     $ v.XX~.v.| r & @ 2 3 5 6 6 6 6 6 6 6 7 6 6 6 7 5 6 6 e A F Q Q Q W Q Y W Q W P Y W Q W P Q Q W W Q W Y Q Y 2 2 Z.=X=X=X=X=X=X=X=X=X=X=X=X=X=X=X=X=X=X=X=X=X=X=X=X=X=X=X=X=X=X=X=X=X=X|.^ 6 Q P Y Q P Y Q W P Q W Y Q I Y Y G i 6 7 6 7 6 6 6 ; #     O s x n :       uXuXuXuXuXuXuXuXuXuXuXuXuXuXuXuXuXuXuXuXuXuXuX",
"uXuXuX      o > s s s s s s s s d x x x x x x x x x x x x x x x x x x x x x x x x x x x x x x x x x x x x x x x x x x x x x x x x x x x x x x x x x > o     P }.=X=X=X+XZ.s.[ 4 @ $ $ 3 7 6 6 6 7 6 7 6 6 6 6 6 6 6 6 8 A G Q Q Q Y Y P Q Y P Q P Q Q W W Q Q Y Q W Y H % L ~.=X=X=X=X=X=X=X=X=X=X=X=X=X=X=X=X=X=X=X=X=X=X=X=X=X=X=X=X=X=X=X=X=X=XXX} Z Y Q Q P Q W Q P W Q Q P Y Q F k 6 6 6 6 6 6 7 6 5 3 #     O p x x : o     uXuXuXuXuXuXuXuXuXuXuXuXuXuXuXuXuXuXuXuXuXuXuX",
"uXuXuX      O p s s s s s s s s d x x x x x x x x x x x x x x x x x x x x x x x x x x x x x x x x x x n x x x x x x x x x x x x x x x x x x x x x x -       v.@X=X=X=X=X=X-X|.N.u.L & @ ; 2 7 5 6 6 6 6 6 7 6 6 6 6 5 6 5 6 6 G F Q Q Y W Q Q W W Y Q W P Q Y W Q Y Y A % | XX=X=X=X=X=X=X=X=X=X=X=X=X;X=X=X=X;X=X=X=X=X=X=X=X=X=X=X=X=X=X=X=X=X=X&X| w Q W W Q Q W Y Y Q W Y Y Q G 6 6 6 6 6 6 6 6 6 6 5 +         p x x -       uXuXuXuXuXuXuXuXuXuXuXuXuXuXuXuXuXuXuXuXuXuXuX",
"uXuXuX      : s s s s s s s s s d x x x x x x x x x x x x x x x x x x x x x x x x x x x x x x x x x x x x x x x x x x x x x x x x x x x x x x x x d O     4 Z.=X=X=X=X=X=X=X=X=X%XS.f.} e @ @ 2 7 6 6 5 6 6 6 7 6 6 7 6 6 6 6 6 6 k D F Q Y Q Y Q W Y Q P W W Q P Y Q 8 . f.%X=X=X=X=X=X=X=X=X=X=X=X=X=X=X=X=X=X=X=X=X=X=X=X=X=X=X=X=X=X=X=X=X=X=X=Xa.w F Y Y Y Y W Q W Y Q Q G 8 7 6 6 6 7 6 7 6 5 5 % # 8 *       > x x -       uXuXuXuXuXuXuXuXuXuXuXuXuXuXuXuXuXuXuXuXuXuXuX",
"uXuX        : s s s s s s s s s d x x x x x x x x x x x x x x x x x x x x x x x x x x x x x x x x x x x x x x x x x x x x x x x x x x x x x x x x y o     ] |.=X=X=X=X=X=X=X=X=X=X=X-XXXC.y.I 4 + ; 2 5 6 7 6 6 6 6 6 6 6 7 6 7 6 6 6 w A G Q Y Y Q Q Y Q Y P Q Q W Q 3 @ C.=X=X=X=X=X=X=X=X=X=X=X=X=X=X=X=X=X=X;X=X=X=X=X=X=X=X=X=X=X=X=X=X=X=X=X=Xf.H Q Y Q W Q P Q Y Y K e 6 5 6 6 6 6 6 6 6 6 2 X e v.Z.P       : x l -       uXuXuXuXuXuXuXuXuXuXuXuXuXuXuXuXuXuXuXuXuXuXuX",
"uXuX      o > s s s s s s s s s d x x x x x x x x x x x x x x x x x x x x x x x x x x x x x x x x x x x x x x x x x x x x x x x x x x x x x x x x :       s.+X=X=X=X=X=X=X=X=X=X=X=X=X=X;X&XZ.L # + + $ , 3 5 5 6 7 6 6 6 6 6 6 6 7 7 6 6 6 8 G H K Y Y Y P W Y Q Y Q 2 r D.=X=X=X=X=X=X=X=X=X=X=X=X=X=X=X=X=X=X=X=X=X=X=X=X=X=X=X=X;X=X=X=X=X=X=X=XB.F G Y Q Q Y W Q Q k w 6 6 7 6 7 6 6 6 6 5 @   L D.=X}.P       : l l =       uXuXuXuXuXuXuXuXuXuXuXuXuXuXuXuXuXuXuXuXuXuXuX",
"uXuX      O y s s s s s s s s s s x x x x x x x x x x x x x x x x x x x x x x x x x x x x x x x x x x x x x x x x x x x x x x x x x x x x x x x x -       B.-X=X=X=X=X=X=X=X=X=X=X=X=X=X=X|.s.8 G e.g.2.A @ $ 2 7 6 6 7 6 6 7 6 6 6 6 6 6 7 6 6 i k G K Q Q Y Q Y W G @ } XX=X=X=X=X=X=X=X=X=X=X=X=X=X=X=X=X=X=X=X=X=X=X=X=X=X=X=X=X=X=X=X=X=X=X=X=XS.P G Y P W Q Q G 8 6 7 6 6 6 6 6 6 5 5 ; @ Y 6 O f.+X}.P       - d d =       uXuXuXuXuXuXuXuXuXuXuXuXuXuXuXuXuXuXuXuXuXuXuX",
"uXuX      - p s s s s s s s s s s x x x x x x x x x x x x x x x x x x x x x x x x x x x x x x x x x x x x x x x x x x x x x x x x x x x n x x x l -     X Z.=X=X=X=X=X=X=X=X=X=X=X=X=X-X}.{ $ U E.9XrX6XE.g.Y 3 O 2 2 3 6 4 6 5 6 6 6 6 6 6 < 6 5 6 6 k A F Q Q Q P 8 + d.@X=X=X=X=X=X=X=X=X=X=X=X=X=X=X=X=X=X=X=X=X=X=X=X=X=X=X=X=X=X=X=X=X=X=X=X=X}.) A W Q Q G e 6 6 6 6 6 6 6 6 7 6 2 @ G R.qX`.Y & C.~.L       = d s O       uXuXuXuXuXuXuXuXuXuXuXuXuXuXuXuXuXuXuXuXuXuXuX",
"uX        - p s s s s s s s s s s x x x x x x x x x x x x x x x x x x x x x x x x x x x x x x x x x n x x x x x x x x x x x x x x x x x x x x x l =     4 S.=X=X=X=X=X=X=X=X=X=X=X=X=X|.} @ F (.0XeXeXeXeX0X.Xk.5.G ; @ 2 2 5 6 6 7 7 6 6 6 6 6 6 6 6 7 6 6 e G Q Q 3 . B.&X=X=X=X=X=X=X=X=X=X=X=X=X=X=X=X=X=X=X=X=X=X=X=X=X=X=X=X=X=X=X=X=X=X=X=X=XXX] A I F A 6 6 6 7 6 7 6 6 6 5 5 @ 5 g.2XeXeXeXU.7 ^ N.L       = d s O       uXuXuXuXuXuXuXuXuXuXuXuXuXuXuXuXuXuXuXuXuXuXuX",
"uX        - s s s s s s s s s s s d x x x x x x x x x x x x x x x x x x x x x x x x x x x x x x x x x x x x x x x x x x x x x x x x x x x x x x d O     4 D.=X=X=X=X=X=X=X=X;X=X=X=XXXu.$ 5 R.9XeXeXeXeXeXeXeXeXyX(.h.F X O 2 2 5 5 5 5 7 6 6 6 5 6 6 6 6 6 6 6 6 A ; 4 S.=X=X=X=X=X=X=X=X=X=X=X=X=X=X=X=X=X=X=X=X=X=X=X=X=X=X=X=X=X=X=X=X=X=X=X=X=X&X{ 8 A 6 6 6 6 6 6 6 6 7 6 5 $ $ 7..X_.!.2XrXeX4X5.# | H       O d p O       uXuXuXuXuXuXuXuXuXuXuXuXuXuXuXuXuXuXuXuXuXuXuX",
"uX        : s s s s s s s s s s s d x x x x x x x x x x x x x x x x x x x x x x x x x x x x x x x x x x x x x x x x x x x x x x x x x x x x x x d =     e D.=X=X=X=X=X=X=X=X=X=X=X&Xv.4 # g.4XeXeXeXeXeXeXeXeXeXeXeXrX_.) * X o @ 2 7 5 6 6 6 7 4 6 6 6 6 7 7 6 6 6 + ^ |.=X=X=X=X=X=X=X=X=X=X=X=X=X=X=X=X=X=X=X=X=X;X=X=X=X=X=X=X=X=X=X=X=X=X=X=X=X=Xy.6 6 6 6 6 5 5 6 7 6 5 , @ Y /.0XeX.Xp.( _.tXeXU.6 r &       O d y o       uXuXuXuXuXuXuXuXuXuXuXuXuXuXuXuXuXuXuXuXuXuXuX",
"uX        : s s s s s s s s s s s d x x x x x x x x x x x x x x x x x x x x x x x x x x x x x x x x x x x x x x x x x x x x x x x x x x x x x x l O     4 S.=X=X=X=X=X=X=X=X=X=X=X~.H   G '.rXeXeXeXeXeXeXeXeXeXeXeXeX0Xn.! 0 9 $ O # & 2 7 5 5 5 6 6 6 6 6 7 6 6 6 @ y.XX=X=X=X=X=X=X=X=X=X=X=X;X=X=X=X=X=X=X;X;X8X;X;X;X=X=X=X=X=X=X=X=X=X=X=X=X=X=Xf.k w 6 6 7 6 6 5 6 2 @ k k.yXeXeXeX5Xi.~ ( [.rX1XW #         O d > o       uXuXuXuXuXuXuXuXuXuXuXuXuXuXuXuXuXuXuXuXuXuXuX",
"uX        : s s s s s s s s s s s s l x x x x x x x x x x x x x x x x x x x x x x x x x x x x x x x x x x x x x x x x x x n x x x x x x x x x x l =     X Z.=X=X=X=X=X=X=X=X=X=X&Xa.$   j.9XeXeXeXeXeXeXeXeXeXeXeXeXeXeXm.~ ~ ! ! 9 9 G 7 @ 2 3 5 6 6 7 6 6 6 6 7 5 + v.&X=X=X=X=X=X=X=X=X=X=X=X=X=X=X=X=X=X=X;X8X8XtX7X*X&X&X=X=X=X=X=X=X=X=X=X=X;X=XB.H 6 5 6 6 6 5 5 $ 2 q.<XrXeXeXeXeX7Xn.~ ! n.2XrXr.o         - d :       uXuXuXuXuXuXuXuXuXuXuXuXuXuXuXuXuXuXuXuXuXuXuXuX",
"uX        - p s s s s s s s s s s s d x x x x x x x x x x x x x x x x x x x x x x x x x x x x x x x x x x x x x x x x x x x x x x x x x x x x x x -       B.-X=X=X=X=X=X=X=X=X=X}.L   2 ).rXeXeXeXeXeXeXeXeXeXeXeXeXeXrXn.! ! ~ ~ ~ p.Q.k.5.7 . @ 2 7 5 5 6 6 5 6 $ @ Z.=X=X=X=X=X=X=X=X=X=X=X=X;X;X=X=X&X@X:X:X.X^.Y.V.l.l.B.S. X@X-X=X=X=X=X=X=X=X=XZ.P 5 7 6 6 6 $ @ E (.tXeXeXeXeXeXeXqXz.~ ~ ~ [.rXm.2         - d -       uXuXuXuXuXuXuXuXuXuXuXuXuXuXuXuXuXuXuXuXuXuXuXuX",
"uXuX      - p s s s s s s s s s s s s x x x x x x x x x x x x x x x x x x x x x x x x x x x x x x x x x x x x x x x n x x x x x x x x x x x x x n :       d.@X=X=X=X=X=X=X=X=X=Xv.4   E <XeXeXeXeXeXeXeXeXeXeXeXeXeXeXqXi.9 0 ! ~ ~ ! !.qX9Xj.I H 4 @ ; 2 7 6 5 6 O H {.=X=X=X=X=X=X=X=X=X=X=X=X=X&X+XoXZ.s.' 3 . .         # . 3 | C.XX-X=X=X=X=X=X=X}.) 7 6 6 2 $ 4 r.3XeXeXeXeXeXeXeXeX5Xp.0 ! ~ m.7XE.A         - s O       uXuXuXuXuXuXuXuXuXuXuXuXuXuXuXuXuXuXuXuXuXuXuXuX",
"uXuX      = p s s s s s s s s s s s s d x x x x x x x x x x x x x x x x x x x x x x x x x x x x x x x x x x x x x x x x x x x x x x x x x x x x x y o     ]  X=X=X=X=X=X=X=X=X&Xu.    e.4XeXeXeXeXeXeXeXeXeXeXeXeXeXeX[.,.t 9 0 ! ~ ~ i.2XeX`.N.Z.v.{ r & @ & 3 5 + | XX=X=X=X=X=X=X=X=X=X=X=X%XXXV.u.8 #                           # ^ Z.@X=X=X=X=X=XXX] 2 3 @ & u.v.[.tXeXeXeXeXeXeXeXeX].t.9 ! ~ i.5X].Y         : p O       uXuXuXuXuXuXuXuXuXuXuXuXuXuXuXuXuXuXuXuXuXuXuXuX",
"uXuX      O > s s s s s s s s s s s s d l x x x x x x x x x x x x x x x x x x x x x x x x x x x x x x x x x x x x x x x x x x x x x x x x x x x x s O     8 S.=X=X=X=X=X=X=X=XXX^     l.9XeXeXeXeXeXeXeXeXeXeXeXeXeX7Xz.0 9 9 9 0 ~ ~ _ 1XeX<Xz.}.=X&XD.s.^ e @ @   f.@X=X=X=X=X=X=X=X=X-X+X}.f.r #                     o               @ a. X&X=X=X=X&X} . & ^ S.-XB.'.rXeXeXeXeXeXeXeXrXY.J 9 0 ~ _ 1X,XW         > p O       uXuXuXuXuXuXuXuXuXuXuXuXuXuXuXuXuXuXuXuXuXuXuXuX",
"uXuX        > s s s s s s s s s s s s s d x x x x x x x x x x x x x x x x x x x x x x x x x x x x x x x x x x x x x x x x x x x x x x x x x x x x x -       v.%X=X=X=X=X=X=X=X}.L     U.9XeXeXeXeXeXrXeXeXeXeXeXrX7XV.! 9 9 9 9 0 ~ ~ ~ .XeX3Xr.~.=X=X=X=XXXC.t.H 4 C.-X=X=X=X=X=X=X-X@X~.a.7             o o o O - : : > : - O o           ^ S.&X=X=X=Xa.H B.@X=X=XF.'.eXeXeXeXeXeXeXeX2Xp.9 9 0 ! ( .X3XE         p > o       uXuXuXuXuXuXuXuXuXuXuXuXuXuXuXuXuXuXuXuXuXuXuXuX",
"uXuX        > s s s s s s s s s s s s s d x x x x x x x x x x x x x x x x x x x x x x x x x x x x x x x x x x x x x x x x x x x x x x x x x x x x x : o     ^ |.=X=X=X=X=X=X=XD.H     U.0XeXeXeXeXeXqX2X7X9X9X7X.Xz.^ j 9 9 9 9 ! ~ ~ ~ .XeX5X5.S.=X=X=X=X=X=X-X|.v.XX=X=X=X=X=X=X@X~.a.4             o O - p s l x x x x x x x s - o         e C.&X=X=X|.+X=X=X=X=Xf.].rXeXeX0X0XrXrX7Xi.0 9 9 0 ! ( .X6XE         s :         uXuXuXuXuXuXuXuXuXuXuXuXuXuXuXuXuXuXuXuXuXuXuXuX",
"uXuXuX      - p s s s s s s s s s s s s s d x x x x x x x x x x x x x x x x x x x x x x x x x x x x x x x x x x x x x x x x x x x x x x x x x x x x s O     + B.&X=X=X=X=X=X=XZ.r     j.9XeXeXeXeXeX<Xm.m.Q.Q.n.( 9 9 9 9 9 9 9 0 ~ ~ _ 1XeX<X) S.=X=X=X=X=X=X=X=X=X=X=X=X=X;X&X|.f.8           o O : s l x x x x x x x x x x x x x p =         4 B.%X=X=X=X=X=X=X=Xf.`.rXeXeX7XQ.!.!.p.9 9 9 9 0 ~ _ .X<XW       O s =       uXuXuXuXuXuXuXuXuXuXuXuXuXuXuXuXuXuXuXuXuXuXuXuXuX",
"uXuXuX      O y s s s s s s s s s s s s s s d x x x x x x x x x x x x x x x x x x x x x x x x x x x x x x x x x x x x x x x x x x x x x x x x x x x x -       P }.-X=X=X=X=X=XS.r     r.4XeXeXeXeXeXqXn.~ ~ ~ ~ ! 0 9 9 9 9 9 J ~ ~ ~ n.5XeX`.W S.=X=X=X=X=X=X=X=X=X=X=X=X-XXXB.L #         o O > d x x x x x x x x x x x x x x x x x d : o       4 B.&X-X=X=X=X=X=Xf.^.wXeXeXwXn.~ ~ ! 9 9 9 9 ! ~ i.5X'.Q       - s O       uXuXuXuXuXuXuXuXuXuXuXuXuXuXuXuXuXuXuXuXuXuXuXuXuX",
"uXuXuX        > s s s s s s s s s s s s s s d d x x x x x x x x x x x x x x x x x x x x x x x x x x x x x x x x x x x x x x x x x x x n x x x x x x x s O     # d.@X=X=X=X=X=X}.L     Y ,XeXeXeXeXeXrX!._ ~ ~ ~ ~ ! 0 9 9 0 J ( _ ~ ~ !.tXeXU.Y ~.=X=X=X=X=X=X=X=X=X=X-X%X~.{ @         o O y l n x x x x x x x x x x x x x x x x x x x l > o       4 C.&X=X=X=X=X=Xv.R.9XeXeXeXm.~ ~ ~ 0 9 9 0 ~ ~ m.7XE.S       : y O       uXuXuXuXuXuXuXuXuXuXuXuXuXuXuXuXuXuXuXuXuXuXuXuXuX",
"uXuXuXuX      - s s s s s s s s s s s s s s s d l x x x x x x x x x x x x x x x x x x x x x x x x x x x x x x x n x x x x x x x x x x x x x x x x x x x - o     e C.&X=X=X=X=X+X^     @ (.rXeXeXeXeXrX5Xn.~ ~ ~ ~ ~ ! ! ! ! i.!.!.i.n.5XeXtX0.^ |.=X=X=X=X=X=X=X=X=X&XXXf.8         o O > d x x x x x x x x x x x x x x x x x x x x x x n x > o       e Z.&X=X=X=X=XB.j.5XeXeXeX.Xp.~ ~ ~ ! ! p.m.p.}.tXl.2       s :         uXuXuXuXuXuXuXuXuXuXuXuXuXuXuXuXuXuXuXuXuXuXuXuXuX",
"uXuXuXuX      o > s s s s s s s s s s s s s s s d x x x x x x x x x x x x x x x x x x x x x x x x x x x x x x x x x x x x x x x x x x x x x x x x x x x s O       [ ~.-X=X=X=X&X| #     g.4XeXeXeXeXeXeX[.i.( ~ ~ ~ ~ ~ ~ i.2XrXeX2X2XwXeX'.Q | XX=X=X=X=X=X=X=X=X@XZ.[ X         O : d x x x x x x n x x x x x x x x x x x x x x x x x x x x > o       H D.-X=X=X=XS.0.,XeXeXeXqXn.~ ~ ~ ~ ( .XrX>X9XrX7.#     O d -       uXuXuXuXuXuXuXuXuXuXuXuXuXuXuXuXuXuXuXuXuXuXuXuXuXuX",
"uXuXuXuX        - s s s s s s s s s s s s s s s s d l x x x x x x x x x x x x x x x x x x x x x x x x x x x x x x x x x x x x x x x x x x x x x x x x x x y O       t.|.=X=X=X=Xv.4     6 ).rXeXeXeXeXeXrX[.i.( ~ ~ ~ ~ ~ Q.qXeXeXeXeXeX0Xh.2 N.&X=X=X=X=X=X=X&X Xf.8         o - s x x x x x x x x x x x x x x x x x x x x x x x x x x x x x x : o       [ |.=X=X=X XP (.rXeXeXrX.Xp.~ ~ ~ i.2XrXrXrX<XR       - p O       uXuXuXuXuXuXuXuXuXuXuXuXuXuXuXuXuXuXuXuXuXuXuXuXuXuX",
"uXuXuXuXuX      O y s s s s s s s s s s s s s s s s d l x x x x x x x x x x x x x x x x x x x x x x x x x x x x x x x x x x x x x x x x x x x x x x x x x l : o     # y.|.-X=X=X|.L       0.3XeXeXeXeXeXeXrX.Xm.i.( ( ~ ~ m.qXeXeXeXeXrX).G e ~.=X=X=X=X=X=X@XZ.[ X         O y d x x x x x x x x x x x x x x x x x x x x x x x x x x x x x x x x - o       u.XX-X=X-X] h.4XeXeXeXrX_.p.~ ~ i.5XeXeXeXk.2       p y o       uXuXuXuXuXuXuXuXuXuXuXuXuXuXuXuXuXuXuXuXuXuXuXuXuXuX",
"uXuXuXuXuX        - p s s s s s s s s s s s s s s s s s l x x x x x x x x x x x x x x x x x x x x x x x x x x x x x x x x x x x x x x x x x x x x x x x x x d -       + u.|.-X=X&Xa.$     @ l.9XeXeXeXeXeXeXeXtX.X!.m.m.m._.9XeXeXeXeX<X2.+ s.XX=X=X=X=X-X Xf.4         o - s x x x x x x x x x x x x x x x x x x x x x x x x x x x x x x x x x x l -         d.+X=X=Xf.H `.eXeXeXeXeX.Xm.p.n.5XeXeXqX,.      O d -         uXuXuXuXuXuXuXuXuXuXuXuXuXuXuXuXuXuXuXuXuXuXuXuXuXuX",
"uXuXuXuXuXuX      o > s s s s s s s s s s s s s s s s s d d x x x x x x x x x x x x x x n x x x x x x x x x x x x x x x x x x x x x x x x x x x x x x x x x x d -       # { D.&X=X{.L       5 Y.9XeXeXeXeXeXeXeXrXeXeXeXeXeXeXeXeXeX3X0.@ e D.-X=X=X=X+XZ.[ X         O y l x x x x x x x x x x x x x x x x x x x x x n x x x x x x x x x x x x x x l =       X N.%X=XD.r g.4XeXeXeXeXeXeXeXeXeXeXrXk.3       > s O       uXuXuXuXuXuXuXuXuXuXuXuXuXuXuXuXuXuXuXuXuXuXuXuXuXuXuX",
"uXuXuXuXuXuX        O y s s s s s s s s s s s s s s s s s s d l x x x x x x x x x x x x x x x x x x x x x x x x x x x x x n x x x x x x x x x x x x x x x x x x s O         ^ C.+X&Xv.4       6 U.5XrXeXeXeXeXeXeXeXeXeXeXeXeXeXwX,X0.$ @ v.@X=X=X&X|.d.8         o : d x x n x x x x x x x x x x x x x x x x x x x x x x x x x x x x x x x x x x x x s O       4 C.&X&X} @ E.wXeXeXeXeXeXeXeXeXeX,XY       O s y o       uXuXuXuXuXuXuXuXuXuXuXuXuXuXuXuXuXuXuXuXuXuXuXuXuXuXuX",
"uXuXuXuXuXuXuX        - p s s s s s s s s s s s s s s s s s s s d x x x x x x x x n x x x x x x x x x x x x x x x x x x x x x x x x x x x x x x x x x x x x x x x s -         e d.}.XXu.@       2 g.`.9XeXeXeXeXeXeXeXeXeXeXrX4XE.W + X { XX=X-XXXC.P X       o O p l x x x x x x x x x x x x x x x x x x x x x x x x x x x x x x x x x x x x x x x x x p O       r S.-XV.e 6 ).wXeXeXeXeXeXeXeX5X@.        > l =         uXuXuXuXuXuXuXuXuXuXuXuXuXuXuXuXuXuXuXuXuXuXuXuXuXuXuX",
"uXuXuXuXuXuXuXuX      o : s s s s s s s s s s s s s s s s s s s s s d d x x x x x x x x x x x x x x x x x x x x x x x x x x x x x x x x x x x x x x x x x x x x x n s - o       X ^ B.B.] @         Q l.`.<X9XrXeXeXrXwX9X<X(.e.3   X ^ }.-X@XD.y.4         o - d x x x x x x x x x x x x x x x x x x x x x x x x x x x x x x x x x x x x x x x x x x x x > o       H D.@X{ # 5 E.9XrXeXeXrXwX'.' #       O s s O       uXuXuXuXuXuXuXuXuXuXuXuXuXuXuXuXuXuXuXuXuXuXuXuXuXuXuXuX",
"uXuXuXuXuXuXuXuX        O > p s s s s s s s s s s s s s s s s s s s s s d d d x l x x x x x x x x l l l l l x x x x x x x x x x x x x x x x x x x x x x x x x x x x x d : O         & } u.H X           A 5.l.E.(.).(.Y.h.E $     @ [ {.@X}.f.e           O p l x x x x x x x x x x x x x x x x x x x x x x x x x x x x x x x n x x x x x x x x x x x x x x >         I {.S.H   # 2.E.<X<X`.g.2         o y l - o       uXuXuXuXuXuXuXuXuXuXuXuXuXuXuXuXuXuXuXuXuXuXuXuXuXuXuXuX",
"uXuXuXuXuXuXuXuXuX        o y s s s s s s s s s s s s s s s s s s s s s s s s d d d d l l l l d l l l l d l l n x x x x x x x x x x x x x x x x x x x x x x x x x x x x l p =           & H & #                                 8 u.S.{.v.H X         O : d x x x x x x x x x x x x x x x x x x x x x x x x x x x x x x x x x x x x x x x x x x x x x x x x l :         P }.v.4                         - d d O       uXuXuXuXuXuXuXuXuXuXuXuXuXuXuXuXuXuXuXuXuXuXuXuXuXuXuXuXuX",
"uXuXuXuXuXuXuXuXuXuX        O > s s s s s s s s s s s s s s s s s s s s s s s s s s s d s s s s s s s s s s s l l n n n x x x x x x x x x n x x x x x x x x x x x x x x x x s : O           # #                             4 H y.B.f.H X         o - p x x x x x x x x x x x x x x x x x x x x x x x x x x x x x x x x x x x x x x x x x x x x x x x x x x x l -         L S.d.4                     O s l > o       uXuXuXuXuXuXuXuXuXuXuXuXuXuXuXuXuXuXuXuXuXuXuXuXuXuXuXuXuX",
"uXuXuXuXuXuXuXuXuXuXuX        o : p s s s s s s s s s s s s s s s s s s s s s s s s s s s s s s s s s s s s s l l l l x x x x x x x x x x x x x x x x x x x x x x x x x x x x x p - O                                 X @ & L u.} 4           o O > d x x x x x x x x x x x x x x x x x x x x n x x x x x x x x x x x x x x x x x x x x x x x x x x x x x x x x l -         4 v.v.e                 O s l s O       uXuXuXuXuXuXuXuXuXuXuXuXuXuXuXuXuXuXuXuXuXuXuXuXuXuXuXuXuXuX",
"uXuXuXuXuXuXuXuXuXuXuXuX        o - p s s s s s s s s s s s s s s s s s s s s s s s s s s s s s s s s s s s s s s d l l x x x n x x x x x x x x x x x x x x x x x x x x x x x x l l p - O                           # $ 4 4 #             o O : d x x x x x x x x x x x x x x x x x x x x x x x x x x x x x x x x x x x x x x x x x x x x x x x x x x x x x x x x l = o         8 I 4 #           o s d s :         uXuXuXuXuXuXuXuXuXuXuXuXuXuXuXuXuXuXuXuXuXuXuXuXuXuXuXuXuXuX",
"uXuXuXuXuXuXuXuXuXuXuXuXuX          O > s s s s s s s s s s s s s s s s s s s s s s s s s s s s s s s s s s s s s s s s l l l n x x x x x x x x x x x x x x x x x x x x x x x x n n n l s : = O o                                     o O : d l x x x x x x x x x x x x x x x x x x x x x x x x x x x x x x x x x x x x x x x x x x x x x x x x x x x x x x x x x x l - o                       O s d s p O       uXuXuXuXuXuXuXuXuXuXuXuXuXuXuXuXuXuXuXuXuXuXuXuXuXuXuXuXuXuXuX",
"uXuXuXuXuXuXuXuXuXuXuXuXuXuX          O - p s s s s s s s s s s s s s s s s s s s s s s s s s s s s s s s s s s s s s s s s s l l l x x n n x x n x x x x n x x x x x x x x x x n x x x n l l p : - O o o                       o O = > d x x x x x x x x x x x x x x x x x x x x x x x x x x x x x x x x n x x x x x x x x x x x x x x x x x x x x x x x x x x x x x x > o                 o - d d s s O         uXuXuXuXuXuXuXuXuXuXuXuXuXuXuXuXuXuXuXuXuXuXuXuXuXuXuXuXuXuXuX",
"uXuXuXuXuXuXuXuXuXuXuXuXuXuXuX            O - p s s s s s s s s s s s s s s s s s s s s s s s s s s s s s s s s s s s s s s s s d d l l l l x x x x x x x x x x x x x x x x x x x x x x x x x x x l d p > - = = O O O O O O = - > s l x x x x x x x x x x x x x x x x x x x x x x x x x x x x x x x x x x x x x x x x x x x x x x x x x x x x x x x x x x x x x x x x x x d : o   o     O - d d d s s : o       uXuXuXuXuXuXuXuXuXuXuXuXuXuXuXuXuXuXuXuXuXuXuXuXuXuXuXuXuXuXuXuX",
"uXuXuXuXuXuXuXuXuXuXuXuXuXuXuXuXuX          o O - : s s s s s s s s s s s s s s s s s s s s s s s s s s s s s s s s s s s s s s s s s s d l l l l n l x x x n n x x x x n x x x x x x x x x x x x x x x x x x l d d s s d d l x x x x x x x x x x x x x x x x x x x x x x x x x x x x x x x x x x x x x x x x x x x x x x x x x x x x x x x x x x x x x x x x x x x x x x x x l s p s d x l d s s s y o         uXuXuXuXuXuXuXuXuXuXuXuXuXuXuXuXuXuXuXuXuXuXuXuXuXuXuXuXuXuXuXuX",
"uXuXuXuXuXuXuXuXuXuXuXuXuXuXuXuXuXuX              O O - > p p s s s s s s s s s s s y p s s s s s s s s s s s s s s s s s s s s s s s s s s s s s s l l l l l l x x x n x x x n x x x x x x x x x x x x x x x x x x x x x x x x x x x x x x x x x x x x x x x x x x x x x x x x x x x x x x x x x x x x x x x x x x x n x x x x x x x x x x x x x x x x x x x x x x x x x x x x x x x l d s s s s p O         uXuXuXuXuXuXuXuXuXuXuXuXuXuXuXuXuXuXuXuXuXuXuXuXuXuXuXuXuXuXuXuXuX",
"uXuXuXuXuXuXuXuXuXuXuXuXuXuXuXuXuXuXuXuX                o O = - = - - : - - - - - O O - y s s s s s s s s s s s s s s s s s s s s s s s s s s s s s s s s d l d l l l x l l x l x l n n x n x x x x x x x x x x x x x x x x x x x x x x x x x x x x x x x x x x x x x x x x x x x x x x x x x x x x x x x x x x x x x x x x x x x x x x x x x x x x x x x x x x x x x x x x x x l l d s s s s s p O         uXuXuXuXuXuXuXuXuXuXuXuXuXuXuXuXuXuXuXuXuXuXuXuXuXuXuXuXuXuXuXuXuXuX",
"uXuXuXuXuXuXuXuXuXuXuXuXuXuXuXuXuXuXuXuXuXuX                        o   o               O : p s s s s s s s s s s s s s s s s s s s s s s s s s s s s s s s s s s s s s s l d l l l l l l l x l x l x c x x x x x x x x x x x x x x x x x x x x x x x x x x x x x x x x x x x x x x x x x x x x x x x x x x x x x x x x x x x x x x x x x x x x x x x x x x x x x x x x x x l l d s s s s s s s O         uXuXuXuXuXuXuXuXuXuXuXuXuXuXuXuXuXuXuXuXuXuXuXuXuXuXuXuXuXuXuXuXuXuXuX",
"uXuXuXuXuXuXuXuXuXuXuXuXuXuXuXuXuXuXuXuXuXuXuXuX                                          o = > s s s s s s s s s s s s s s s s s s s s s s s s s s s s s s s s s s s s s s s s s s s s d d d l l l l l l l l l l l x l x x x x x x x x x x x x x x x x x x x x x x x x x x x x x x x x x x x x x x x x x x x x x x x x x x x x x x x x x x x x x x x x x x l n x x l l d s s s s s s s s s p O         uXuXuXuXuXuXuXuXuXuXuXuXuXuXuXuXuXuXuXuXuXuXuXuXuXuXuXuXuXuXuXuXuXuXuXuX",
"uXuXuXuXuXuXuXuXuXuXuXuXuXuXuXuXuXuXuXuXuXuXuXuXuXuXuXuX                                      O = > s s s s s s s s s s s s s s s s s s s s s s s s s s s s s s s s s s s s s s s s s s s s s s s s s s s s s d d d d d d d d d d l d l l l l x l x l x l l x x x x l x l x l x x x x x x x x x x x x n x x x x x x x x x x x x x x x l x x x x x x x x l l l l s s s s s s s s s s s s s p O           uXuXuXuXuXuXuXuXuXuXuXuXuXuXuXuXuXuXuXuXuXuXuXuXuXuXuXuXuXuXuXuXuXuXuXuX",
"uXuXuXuXuXuXuXuXuXuXuXuXuXuXuXuXuXuXuXuXuXuXuXuXuXuXuXuXuXuXuXuXuXuXuX    uXuXuXuXuXuX            O = > y s s s s s s s s s s s s s s s s s s s s s s s s s s s s s s s s s s s s s s s s s s s s s s s s s s s s s s s s s s s s s s s s s s s s s s s d d s s d d s d d d d d d d d d d d d d d d d d d d d d d d d d d d d d l l d d d l s d s d s s s s s s s s s s s s s s s s s s y o           uXuXuXuXuXuXuXuXuXuXuXuXuXuXuXuXuXuXuXuXuXuXuXuXuXuXuXuXuXuXuXuXuXuXuXuXuX",
"uXuXuXuXuXuXuXuXuXuXuXuXuXuXuXuXuXuXuXuXuXuXuXuXuXuXuXuXuXuXuXuXuXuXuXuXuXuXuXuXuXuXuXuX              o = - > y s s s s s s s s s s s s s s s s s s s s s s s s s s s s s s s s s s s s s s s s s s s s s s s s s s s s s s s s s s s s s s s s s s s s s s s s s s s s s s s s s s s s s s s s s s s s s s s s s s d s s s s s s s s s s s s s s s s s s s s s s s s s s s s s s s p :             uXuXuXuXuXuXuXuXuXuXuXuXuXuXuXuXuXuXuXuXuXuXuXuXuXuXuXuXuXuXuXuXuXuXuXuXuXuX",
"uXuXuXuXuXuXuXuXuXuXuXuXuXuXuXuXuXuXuXuXuXuXuXuXuXuXuXuXuXuXuXuXuXuXuXuXuXuXuXuXuXuXuXuXuXuX                o O - : > p s s s s s s s s s s s s s s s s s s s s s s s s s s s s s s s s s s s s s s s s s s s s s s s s s s s s s s s s s s s s s s s s s s s s s s s s s s s s s s s s s s s s s s s s s s s s s s s s s s s s s s s s s s s s s s s s s s s s s s s s s s s s s y O           uXuXuXuXuXuXuXuXuXuXuXuXuXuXuXuXuXuXuXuXuXuXuXuXuXuXuXuXuXuXuXuXuXuXuXuXuXuXuXuX",
"uXuXuXuXuXuXuXuXuXuXuXuXuXuXuXuXuXuXuXuXuXuXuXuXuXuXuXuXuXuXuXuXuXuXuXuXuXuXuXuXuXuXuXuXuXuXuXuX                    O = - - > p s d s s s s s s s s s s s s s s s s s s s s s s s s s s s s s s s s s s s s s s s s s s s s s s s s s s s s s s s s s s s s s s s s s s s s s s s s s s s s s s s s s s s s s s s s s s s s s s s s s s s s s s s s s s s s s s s s s s s s s p =             uXuXuXuXuXuXuXuXuXuXuXuXuXuXuXuXuXuXuXuXuXuXuXuXuXuXuXuXuXuXuXuXuXuXuXuXuXuXuXuXuX",
"uXuXuXuXuXuXuXuXuXuXuXuXuXuXuXuXuXuXuXuXuXuXuXuXuXuXuXuXuXuXuXuXuXuXuXuXuXuXuXuXuXuXuXuXuXuXuXuXuXuXuX                      O O - - - : > p s s s s s s s s s s s s s s s s s s s s s s s s s s s s s s s s s s s s s s s s s s s s s s s s s s s s s s s s s s s s s s s s s s s s s s s s s s s s s s s s s s s s s s s s s s s s s s s s s s s s s s s s s s s s s s p p -               uXuXuXuXuXuXuXuXuXuXuXuXuXuXuXuXuXuXuXuXuXuXuXuXuXuXuXuXuXuXuXuXuXuXuXuXuXuXuXuXuXuX",
"uXuXuXuXuXuXuXuXuXuXuXuXuXuXuXuXuXuXuXuXuXuXuXuXuXuXuXuXuXuXuXuXuXuXuXuXuXuXuXuXuXuXuXuXuXuXuXuXuXuXuXuXuX                            o O - - - - : > p p s s d s s s s s s s s s s s s s s s s s s s s s s s s s s s s s s s s s s s s s s s s s s s s s s s s s s s s s s s s s s s s s s s s s s s s s s s s s s s s s s s s s s s s s s s s s s s s s s s s s s p y O               uXuXuXuXuXuXuXuXuXuXuXuXuXuXuXuXuXuXuXuXuXuXuXuXuXuXuXuXuXuXuXuXuXuXuXuXuXuXuXuXuXuXuXuX",
"uXuXuXuXuXuXuXuXuXuXuXuXuXuXuXuXuXuXuXuXuXuXuXuXuXuXuXuXuXuXuXuXuXuXuXuXuXuXuXuXuXuXuXuXuXuXuXuXuXuXuXuXuXuXuXuXuX                                o o O - - - - - : > > > p p s s s s s s d s s s s s s s s s s s s s s s s s s s s s s s s s s s s s s s s s s s s s s s s s s s s s s s s s s s s s s s s s s s s s s s s s s s s s s s s s s s s s s s s p p y - o                 uXuXuXuXuXuXuXuXuXuXuXuXuXuXuXuXuXuXuXuXuXuXuXuXuXuXuXuXuXuXuXuXuXuXuXuXuXuXuXuXuXuXuXuXuX",
"uXuXuXuXuXuXuXuXuXuXuXuXuXuXuXuXuXuXuXuXuXuXuXuXuXuXuXuXuXuXuXuXuXuXuXuXuXuXuXuXuXuXuXuXuXuXuXuXuXuXuXuXuXuXuXuXuXuXuXuXuX                                          o O O - - - - : : : : : > > y p y p p s s s s s s s s s s s s d s s s s s s s s s s s s s s s s s s s s s s s s s s s s s s s s s s s s s s s s s s s s s s s s s s s s s s s s p p y > =                     uXuXuXuXuXuXuXuXuXuXuXuXuXuXuXuXuXuXuXuXuXuXuXuXuXuXuXuXuXuXuXuXuXuXuXuXuXuXuXuXuXuXuXuXuXuXuX",
"uXuXuXuXuXuXuXuXuXuXuXuXuXuXuXuXuXuXuXuXuXuXuXuXuXuXuXuXuXuXuXuXuXuXuXuXuXuXuXuXuXuXuXuXuXuXuXuXuXuXuXuXuXuXuXuXuXuXuXuXuXuXuXuXuXuX                                                        o o O O - - - - - : : : : > > : > : > > > > > y > p > p p p p p p p p p p p s p p s s s p s s s s s s s p s s s s s s s p s s s s p s p p y p y p > > - o                         uXuXuXuXuXuXuXuXuXuXuXuXuXuXuXuXuXuXuXuXuXuXuXuXuXuXuXuXuXuXuXuXuXuXuXuXuXuXuXuXuXuXuXuXuXuXuXuXuX",
"uXuXuXuXuXuXuXuXuXuXuXuXuXuXuXuXuXuXuXuXuXuXuXuXuXuXuXuXuXuXuXuXuXuXuXuXuXuXuXuXuXuXuXuXuXuXuXuXuXuXuXuXuXuXuXuXuXuXuXuXuXuXuXuXuXuXuXuXuXuXuXuX                                                                                        o o o O O O O O - O - - - - - - - - - - - - - - - : - - - : - - : : - - - : - - - - - - = O O o                                 uXuXuXuXuXuXuXuXuXuXuXuXuXuXuXuXuXuXuXuXuXuXuXuXuXuXuXuXuXuXuXuXuXuXuXuXuXuXuXuXuXuXuXuXuXuXuXuXuXuXuXuX",
"uXuXuXuXuXuXuXuXuXuXuXuXuXuXuXuXuXuXuXuXuXuXuXuXuXuXuXuXuXuXuXuXuXuXuXuXuXuXuXuXuXuXuXuXuXuXuXuXuXuXuXuXuXuXuXuXuXuXuXuXuXuXuXuXuXuXuXuXuXuXuXuXuXuXuXuXuXuXuXuX                                                                                                                                                                                                  uXuXuXuXuXuXuXuXuXuXuXuXuXuXuXuXuXuXuXuXuXuXuXuXuXuXuXuXuXuXuXuXuXuXuXuXuXuXuXuXuXuXuXuXuXuXuXuXuXuXuXuXuXuXuX",
"uXuXuXuXuXuXuXuXuXuXuXuXuXuXuXuXuXuXuXuXuXuXuXuXuXuXuXuXuXuXuXuXuXuXuXuXuXuXuXuXuXuXuXuXuXuXuXuXuXuXuXuXuXuXuXuXuXuXuXuXuXuXuXuXuXuXuXuXuXuXuXuXuXuXuXuXuXuXuXuX                        6 w 5 5 3 2 2 1 % @ % @ + . # #   #                                                                                                                                 uXuXuXuXuXuXuXuXuXuXuXuXuXuXuXuXuXuXuXuXuXuXuXuXuXuXuXuXuXuXuXuXuXuXuXuXuXuXuXuXuXuXuXuXuXuXuXuXuXuXuXuXuXuXuXuXuXuX",
"uXuXuXuXuXuXuXuXuXuXuXuXuXuXuXuXuXuXuXuXuXuXuXuXuXuXuXuXuXuXuXuXuXuXuXuXuXuXuXuXuXuXuXuXuXuXuXuXuXuXuXuXuXuXuXuXuXuXuXuXuXuXuXuXuXuXuXuXuXuXuXuXuXuXuXuX                                3.7.4.3.<.' R R T T R T Y K K F D Z w 6 5 5 3 3 +     o O O O O O O O O O O o     + . + + + + + . # # + # # + # +   #                                   uXuXuXuXuXuXuXuXuXuXuXuXuXuXuXuXuXuXuXuXuXuXuXuXuXuXuXuXuXuXuXuXuXuXuXuXuXuXuXuXuXuXuXuXuXuXuXuXuXuXuXuXuXuXuXuXuXuXuXuXuXuXuXuX",
"uXuXuXuXuXuXuXuXuXuXuXuXuXuXuXuXuXuXuXuXuXuXuXuXuXuXuXuXuXuXuXuXuXuXuXuXuXuXuXuXuXuXuXuXuXuXuXuXuXuXuXuXuXuXuXuXuXuXuXuXuXuXuXuXuXuXuXuXuXuXuXuXuX                        # 5 K '       3.7.6.7.6.6.7.7.7.7.w.w.w.w.w.w.w.9.7.6.6.6.4.4.6     - d s s s p p p p y p y     6 w Z 6 Z Z Z w w 6 6 5 6 Z Z Z w w 6             uXuXuXuXuXuXuXuXuXuXuXuXuXuXuXuXuXuXuXuXuXuXuXuXuXuXuXuXuXuXuXuXuXuXuXuXuXuXuXuXuXuXuXuXuXuXuXuXuXuXuXuXuXuXuXuXuXuXuXuXuXuXuXuXuXuXuXuXuXuXuXuXuXuX",
"uXuXuXuXuXuXuXuXuXuXuXuXuXuXuXuXuXuXuXuXuXuXuXuXuXuXuXuXuXuXuXuXuXuXuXuXuXuXuXuXuXuXuXuXuXuXuXuXuXuXuXuXuXuXuXuXuXuXuXuXuXuXuXuXuXuXuXuXuX                          % A T 3.6.6.6.      4.6.7.7.7.7.7.7.6.8.w.w.w.w.w.w.w.8.7.6.7.7.7.7.w     > x x x x x x x x x x x     U T T T Y T T T U U T U ' 7.7.6.7.7.7.      uXuXuXuXuXuXuXuXuXuXuXuXuXuXuXuXuXuXuXuXuXuXuXuXuXuXuXuXuXuXuXuXuXuXuXuXuXuXuXuXuXuXuXuXuXuXuXuXuXuXuXuXuXuXuXuXuXuXuXuXuXuXuXuXuXuXuXuXuXuXuXuXuXuXuXuXuX",
"uXuXuXuXuXuXuXuXuXuXuXuXuXuXuXuXuXuXuXuXuXuXuXuXuXuXuXuXuXuXuXuXuXuXuXuXuXuXuXuXuXuXuXuXuXuXuXuXuXuXuXuXuXuXuXuXuXuXuXuXuXuXuXuXuXuXuXuX                      5 K <.4.6.6.7.7.7.6.      4.6.7.7.7.7.7.7.6.8.w.w.w.w.w.w.w.9.7.7.7.7.7.7.w     > x x x x x x x x x x x     Y Y Y T U U T T T T T T <.7.7.7.7.7.7.      uXuXuXuXuXuXuXuXuXuXuXuXuXuXuXuXuXuXuXuXuXuXuXuXuXuXuXuXuXuXuXuXuXuXuXuXuXuXuXuXuXuXuXuXuXuXuXuXuXuXuXuXuXuXuXuXuXuXuXuXuXuXuXuXuXuXuXuXuXuXuXuXuXuXuXuXuX",
"uXuXuXuXuXuXuXuXuXuXuXuXuXuXuXuXuXuXuXuXuXuXuXuXuXuXuXuXuXuXuXuXuXuXuXuXuXuXuXuXuXuXuXuXuXuXuXuXuXuXuXuXuXuXuXuXuXuXuXuXuXuXuXuXuXuXuXuXuX            @ Z T 6.6.6.7.7.7.7.7.7.7.6.      6.7.7.7.7.7.7.7.7.8.w.w.w.w.w.w.w.9.7.7.7.7.7.7.w     > x x x x x n x x x x x     Y T U T T T T T U T U T ' 7.7.7.7.7.6.        uXuXuXuXuXuXuXuXuXuXuXuXuXuXuXuXuXuXuXuXuXuXuXuXuXuXuXuXuXuXuXuXuXuXuXuXuXuXuXuXuXuXuXuXuXuXuXuXuXuXuXuXuXuXuXuXuXuXuXuXuXuXuXuXuXuXuXuXuXuXuXuXuXuXuXuX",
"uXuXuXuXuXuXuXuXuXuXuXuXuXuXuXuXuXuXuXuXuXuXuXuXuXuXuXuXuXuXuXuXuXuXuXuXuXuXuXuXuXuXuXuXuXuXuXuXuXuXuXuXuXuXuXuXuXuXuXuXuXuXuXuXuXuXuXuXuX        3 <.7.7.7.7.7.7.7.7.7.7.7.7.7.6.      <.7.7.7.7.7.7.7.7.9.w.w.w.w.w.w.w.9.7.7.7.7.7.6.6     : x x x x x x x x x x x     U T T U T Y U T T T U T ' 7.7.7.7.7.6.          uXuXuXuXuXuXuXuXuXuXuXuXuXuXuXuXuXuXuXuXuXuXuXuXuXuXuXuXuXuXuXuXuXuXuXuXuXuXuXuXuXuXuXuXuXuXuXuXuXuXuXuXuXuXuXuXuXuXuXuXuXuXuXuXuXuXuXuXuXuXuXuXuXuXuX",
"uXuXuXuXuXuXuXuXuXuXuXuXuXuXuXuXuXuXuXuXuXuXuXuXuXuXuXuXuXuXuXuXuXuXuXuXuXuXuXuXuXuXuXuXuXuXuXuXuXuXuXuXuXuXuXuXuXuXuXuXuXuXuXuXuXuXuXuXuX        @ 6.7.7.7.7.7.7.7.7.7.7.7.7.7.6.%     U 7.7.7.7.7.7.7.7.7.w.w.w.w.w.w.w.q.7.7.7.7.7.6.w     > x x x x x x x x x x x     T T T T U U T T T Y T U <.6.7.7.7.7.6.              uXuXuXuXuXuXuXuXuXuXuXuXuXuXuXuXuXuXuXuXuXuXuXuXuXuXuXuXuXuXuXuXuXuXuXuXuXuXuXuXuXuXuXuXuXuXuXuXuXuXuXuXuXuXuXuXuXuXuXuXuXuXuXuXuXuXuXuXuXuXuXuXuX",
"uXuXuXuXuXuXuXuXuXuXuXuXuXuXuXuXuXuXuXuXuXuXuXuXuXuXuXuXuXuXuXuXuXuXuXuXuXuXuXuXuXuXuXuXuXuXuXuXuXuXuXuXuXuXuXuXuXuXuXuXuXuXuXuXuXuXuXuXuXuX        T 7.7.7.7.7.7.7.7.7.7.7.7.7.6.Z     3 6.7.7.7.7.7.7.7.8.w.w.w.w.w.w.w.9.7.7.7.7.7.6.w     > x x x x x x x x x x l     T T U T T T Y U T T U U <.7.7.7.7.7.6.                uXuXuXuXuXuXuXuXuXuXuXuXuXuXuXuXuXuXuXuXuXuXuXuXuXuXuXuXuXuXuXuXuXuXuXuXuXuXuXuXuXuXuXuXuXuXuXuXuXuXuXuXuXuXuXuXuXuXuXuXuXuXuXuXuXuXuXuXuXuXuXuX",
"uXuXuXuXuXuXuXuXuXuXuXuXuXuXuXuXuXuXuXuXuXuXuXuXuXuXuXuXuXuXuXuXuXuXuXuXuXuXuXuXuXuXuXuXuXuXuXuXuXuXuXuXuXuXuXuXuXuXuXuXuXuXuXuXuXuXuXuXuX          2 6.7.7.7.7.7.7.7.7.7.7.7.7.6.'       ' 6.7.7.7.7.7.7.8.w.w.w.w.w.w.w.9.7.7.7.7.7.6.6     > x x x x x x x x x x l     T Y T U T U Y U T T Y U <.7.7.7.7.7.6.      .                     uXuXuXuXuXuXuXuXuXuXuXuXuXuXuXuXuXuXuXuXuXuXuXuXuXuXuXuXuXuXuXuXuXuXuXuXuXuXuXuXuXuXuXuXuXuXuXuXuXuXuXuXuXuXuXuXuXuXuXuXuXuXuXuXuXuX",
"uXuXuXuXuXuXuXuXuXuXuXuXuXuXuXuXuXuXuXuXuXuXuXuXuXuXuXuXuXuXuXuXuXuXuXuXuXuXuXuXuXuXuXuXuXuXuXuXuXuXuXuXuXuXuXuXuXuXuXuXuXuXuXuXuXuXuXuX              ' 7.7.7.7.7.7.7.7.7.7.7.7.7.3.3     3 6.7.7.7.7.7.7.9.w.w.w.w.w.w.w.9.7.7.7.7.7.6.6     > x x x x x x x x x x l     U T T T T T T T T U T T <.7.7.7.7.7.1.      T 3         o o o           uXuXuXuXuXuXuXuXuXuXuXuXuXuXuXuXuXuXuXuXuXuXuXuXuXuXuXuXuXuXuXuXuXuXuXuXuXuXuXuXuXuXuXuXuXuXuXuXuXuXuXuXuXuXuXuXuXuXuXuXuXuXuX",
"uXuXuXuXuXuXuXuXuXuXuXuXuXuXuXuXuXuXuXuXuXuXuXuXuXuXuXuXuXuXuXuXuXuXuXuXuXuXuXuXuXuXuXuXuXuXuXuXuXuXuXuXuXuXuXuXuXuXuXuXuXuXuXuXuXuXuX                Z 7.7.7.7.7.7.7.7.7.7.7.7.7.7.'     # K 7.7.7.7.7.7.8.w.w.w.w.w.w.w.9.7.7.7.7.6.4.w     > x x x x x x x x x x l     T T U T Y U T T T T T T <.6.6.7.7.7.4.    # 4.4.2       - z M p ; O           uXuXuXuXuXuXuXuXuXuXuXuXuXuXuXuXuXuXuXuXuXuXuXuXuXuXuXuXuXuXuXuXuXuXuXuXuXuXuXuXuXuXuXuXuXuXuXuXuXuXuXuXuXuXuXuXuXuXuXuX",
"uXuXuXuXuXuXuXuXuXuXuXuXuXuXuXuXuXuXuXuXuXuXuXuXuXuXuXuXuXuXuXuXuXuXuXuXuXuXuXuXuXuXuXuXuXuXuXuXuXuXuXuXuXuXuXuXuXuXuXuXuXuXuX            o             3.7.6.6.7.7.7.7.7.7.7.7.7.7.3.w     % 1.7.7.7.7.7.8.w.w.w.w.w.w.w.8.7.7.7.7.7.6.6     > x x x x x x x x x x l     Y T U U T T T T U T U T ' 6.6.7.7.7.1.      4.6.R       O x b #.$.+.u O         uXuXuXuXuXuXuXuXuXuXuXuXuXuXuXuXuXuXuXuXuXuXuXuXuXuXuXuXuXuXuXuXuXuXuXuXuXuXuXuXuXuXuXuXuXuXuXuXuXuXuXuXuXuXuXuXuXuXuX",
"uXuXuXuXuXuXuXuXuXuXuXuXuXuXuXuXuXuXuXuXuXuXuXuXuXuXuXuXuXuXuXuXuXuXuXuXuXuXuXuXuXuXuXuXuXuXuXuXuXuXuXuXuXuXuXuXuXuXuXuX          o O < M s s y p - O O . K 4.6.7.7.7.7.7.7.7.7.7.7.7.' +     Z 6.7.7.7.7.8.w.w.w.w.w.w.w.8.7.7.7.7.7.4.6   o > x x x n x x x x x x l   # U U T T T U T U T T Y T <.7.7.7.7.7.4.    # 3.7.6.+     o s x v #.%.%.B < o         uXuXuXuXuXuXuXuXuXuXuXuXuXuXuXuXuXuXuXuXuXuXuXuXuXuXuXuXuXuXuXuXuXuXuXuXuXuXuXuXuXuXuXuXuXuXuXuXuXuXuXuXuXuXuXuXuX",
"uXuXuXuXuXuXuXuXuXuXuXuXuXuXuXuXuXuXuXuXuXuXuXuXuXuXuXuXuXuXuXuXuXuXuXuXuXuXuXuXuXuXuXuXuXuXuXuXuXuXuXuXuXuXuXuXuXuX          o > N $.#.B v x x x x l s > O 2 ' 7.7.7.7.7.7.7.7.7.7.7.6.K     + U 7.7.7.7.8.w.w.w.w.w.w.w.8.7.7.7.7.6.4.6     y x x x x x x x x x n l     5 T T T U T T T T U T T <.7.7.7.7.7.1.    . 4.7.9.U       : x x n o.&.-.$.j O         uXuXuXuXuXuXuXuXuXuXuXuXuXuXuXuXuXuXuXuXuXuXuXuXuXuXuXuXuXuXuXuXuXuXuXuXuXuXuXuXuXuXuXuXuXuXuXuXuXuXuXuXuXuXuXuX",
"uXuXuXuXuXuXuXuXuXuXuXuXuXuXuXuXuXuXuXuXuXuXuXuXuXuXuXuXuXuXuXuXuXuXuXuXuXuXuXuXuXuXuXuXuXuXuXuXuXuXuXuXuXuXuXuXuX          < N %.&.%.v x x x x x x x x l d : o D 6.7.7.7.7.7.7.8.6.6.7.1.6     % ' 7.7.7.8.w.w.w.w.w.w.w.8.7.7.7.7.7.4.6     > x x x x x x x x x x l     + F T T T Y T U Y T U T <.6.8.6.6.7.1.    . 4.7.9.3.      O x x x v b %.-.=.N <         uXuXuXuXuXuXuXuXuXuXuXuXuXuXuXuXuXuXuXuXuXuXuXuXuXuXuXuXuXuXuXuXuXuXuXuXuXuXuXuXuXuXuXuXuXuXuXuXuXuXuXuXuXuXuX",
"uXuXuXuXuXuXuXuXuXuXuXuXuXuXuXuXuXuXuXuXuXuXuXuXuXuXuXuXuXuXuXuXuXuXuXuXuXuXuXuXuXuXuXuXuXuXuXuXuXuXuXuXuXuXuXuX        - h %.-.&.O.v x x x x x x x x x x x l s 7 A <.7.7.7.7.7.6.6.7.7.6.U       5 3.7.7.7.w.w.w.w.w.w.w.7.7.7.7.7.7.1.2   o y x x x x x x x x x x l O     1 T T U Y T T T T T U <.6.6.7.7.7.<.    + 1.7.q.8.@       d x x x x b %.-.=.&.; O       uXuXuXuXuXuXuXuXuXuXuXuXuXuXuXuXuXuXuXuXuXuXuXuXuXuXuXuXuXuXuXuXuXuXuXuXuXuXuXuXuXuXuXuXuXuXuXuXuXuXuXuXuXuX",
"uXuXuXuXuXuXuXuXuXuXuXuXuXuXuXuXuXuXuXuXuXuXuXuXuXuXuXuXuXuXuXuXuXuXuXuXuXuXuXuXuXuXuXuXuXuXuXuXuXuXuXuXuXuXuX      o - $.&.-.%.o.n x x x x x x x x x x x x x l s u Q 7.7.7.7.7.6.1.U Z % +       . Z 6.6.7.8.w.w.w.w.w.8.7.7.7.7.7.7.<..   o s x x x x x x x x x x l p o     S T T T T U T Y Y T <.7.7.7.7.6.T     # D ' 7.7.F     o : x x x x c v %.-.=.$.a         uXuXuXuXuXuXuXuXuXuXuXuXuXuXuXuXuXuXuXuXuXuXuXuXuXuXuXuXuXuXuXuXuXuXuXuXuXuXuXuXuXuXuXuXuXuXuXuXuXuXuXuXuX",
"uXuXuXuXuXuXuXuXuXuXuXuXuXuXuXuXuXuXuXuXuXuXuXuXuXuXuXuXuXuXuXuXuXuXuXuXuXuXuXuXuXuXuXuXuXuXuXuXuXuXuXuXuX          a $.-.&.%.b x x x x x x x x x x x x x x x x n s > F 4.1.T Z 1 + #               @ Z 6.7.7.9.q.q.9.9.7.7.7.7.7.6.6.K     O l x x x x x x x x x x x l >     @ U U T U T Y Y T T <.7.7.7.7.4.Z           @ w A       O x x x x n x b &.-.=.$.a       uXuXuXuXuXuXuXuXuXuXuXuXuXuXuXuXuXuXuXuXuXuXuXuXuXuXuXuXuXuXuXuXuXuXuXuXuXuXuXuXuXuXuXuXuXuXuXuXuXuXuXuXuX",
"uXuXuXuXuXuXuXuXuXuXuXuXuXuXuXuXuXuXuXuXuXuXuXuXuXuXuXuXuXuXuXuXuXuXuXuXuXuXuXuXuXuXuXuXuXuXuXuXuXuXuXuXuX      o a %.-.&.%.b x x x x x x x x x x x x x x x x x x x x u 1 +   +               1 S     + S 6.7.7.7.8.7.7.7.7.7.7.7.6.R @     : x x x x x x x x x x x x l d O   o w T T T T U T T T <.6.7.6.6.R +                       o s l x x x x x O.%.-.-.&.;       uXuXuXuXuXuXuXuXuXuXuXuXuXuXuXuXuXuXuXuXuXuXuXuXuXuXuXuXuXuXuXuXuXuXuXuXuXuXuXuXuXuXuXuXuXuXuXuXuXuXuXuX",
"uXuXuXuXuXuXuXuXuXuXuXuXuXuXuXuXuXuXuXuXuXuXuXuXuXuXuXuXuXuXuXuXuXuXuXuXuXuXuXuXuXuXuXuXuXuXuXuXuXuXuXuX      O a -.-.-.%.b x x x x x x x x x x x x x x x x x x x x x l y o           @ 5.Y.`.,X`.5.    @ Z 3.7.7.7.7.6.7.7.7.7.6.U 2     O d x x x x x x x x x x x x n l y     + Z Y T Y T Y Y T <.7.7.4.R 2     3 S 6 2 O               O : p l x x x #.%.-.=.+.o       uXuXuXuXuXuXuXuXuXuXuXuXuXuXuXuXuXuXuXuXuXuXuXuXuXuXuXuXuXuXuXuXuXuXuXuXuXuXuXuXuXuXuXuXuXuXuXuXuXuXuX",
"uXuXuXuXuXuXuXuXuXuXuXuXuXuXuXuXuXuXuXuXuXuXuXuXuXuXuXuXuXuXuXuXuXuXuXuXuXuXuXuXuXuXuXuXuXuXuXuXuXuXuXuX      g $.-.=.%.b n x x x x x x x x x x x x x x x x x x x x x l s -     5 5.k.(.<X4X9X9X7X'.2.    . 3 D Y T T Y T Y Y D w @     o y x x x x x x x x x x x x x x n l =     + S U U T U U T ' 1.<.U @     8 Y.4X,XR.7.6 2 @                 = p x v #.-.-.-.j O     uXuXuXuXuXuXuXuXuXuXuXuXuXuXuXuXuXuXuXuXuXuXuXuXuXuXuXuXuXuXuXuXuXuXuXuXuXuXuXuXuXuXuXuXuXuXuXuXuXuXuX",
"uXuXuXuXuXuXuXuXuXuXuXuXuXuXuXuXuXuXuXuXuXuXuXuXuXuXuXuXuXuXuXuXuXuXuXuXuXuXuXuXuXuXuXuXuXuXuXuXuXuXuX      < $.-.-.=.b x x x x x x x x x x x x x x n x x x x x x x n l s l 5.E.'.'.,X<X3X9X9X9X9XyX`.0.      . @ @ @ % % % % .       o y l x x x x x n x x x x x x n x n l -       + w i Z Z Z Z 6 5 @       i h.6X9X9X9X9X4X.XY.2.2 + #         o y x x b %.-.-.-.< o     uXuXuXuXuXuXuXuXuXuXuXuXuXuXuXuXuXuXuXuXuXuXuXuXuXuXuXuXuXuXuXuXuXuXuXuXuXuXuXuXuXuXuXuXuXuXuXuXuXuX",
"uXuXuXuXuXuXuXuXuXuXuXuXuXuXuXuXuXuXuXuXuXuXuXuXuXuXuXuXuXuXuXuXuXuXuXuXuXuXuXuXuXuXuXuXuXuXuXuXuXuXuX      $.-.-.&.#.x x x x x x x x x x x x x x x x x x x x x x x x x d d 0.>X<X<X<X<X6X9X9X9X9X9X9X'.j.5                           O - > > : > > > > > > > y y y > p y y O         #                   @ F k.<X5X9X9X9X9X9X9X9X9X4X'.U.U       o s x x n O.%.-.-.+.O     uXuXuXuXuXuXuXuXuXuXuXuXuXuXuXuXuXuXuXuXuXuXuXuXuXuXuXuXuXuXuXuXuXuXuXuXuXuXuXuXuXuXuXuXuXuXuXuXuXuX",
"uXuXuXuXuXuXuXuXuXuXuXuXuXuXuXuXuXuXuXuXuXuXuXuXuXuXuXuXuXuXuXuXuXuXuXuXuXuXuXuXuXuXuXuXuXuXuXuXuXuX      j -.-.-.%.v x x x x x x x x x x x x x x x x x x x x x x x x x d s l W.,X<X<X<X6X4X9X9X9X9X9X9X3X).j.8.) E F                   o               o   o       o           # A F k 5 5 5 3 3 3 5 6 F e.(.<X<X4X9X9X9X9X9X0X9X9X9X9X9X3Xj.    O l x x x v %.-.-.-.a     uXuXuXuXuXuXuXuXuXuXuXuXuXuXuXuXuXuXuXuXuXuXuXuXuXuXuXuXuXuXuXuXuXuXuXuXuXuXuXuXuXuXuXuXuXuXuXuXuXuX",
"uXuXuXuXuXuXuXuXuXuXuXuXuXuXuXuXuXuXuXuXuXuXuXuXuXuXuXuXuXuXuXuXuXuXuXuXuXuXuXuXuXuXuXuXuXuXuXuXuX      - -.-.-.&.o.x x x x x x x x x x x x x x x x x x x x x x x x x x s s s x.>X<X<X<X<X3X9X9X9X9X9X9X9X9X3X,X>X(.E                                                           @ 5.Y.U.l.l.j.j.j.j.k.R.].<X<X<X<X4X9X9X9X9X9X9X9X9X9X0X9X<X5.    O x x x x x O.=.-.-.%.o   uXuXuXuXuXuXuXuXuXuXuXuXuXuXuXuXuXuXuXuXuXuXuXuXuXuXuXuXuXuXuXuXuXuXuXuXuXuXuXuXuXuXuXuXuXuXuXuXuXuX",
"uXuXuXuXuXuXuXuXuXuXuXuXuXuXuXuXuXuXuXuXuXuXuXuXuXuXuXuXuXuXuXuXuXuXuXuXuXuXuXuXuXuXuXuXuXuXuXuXuXuX    N -.-.=.#.x x x x x x x x x x x x x x x x x x x x x x x x x x x d s s ,.].<X<X<X<X6XyX9X9X9X9X9X9X9X9X9X4XR.2                                                             Z l.`.<X<X<X<X<X<X<X<X<X<X<X<X6XyX9X9X9X9X9X9X9X9X9X9X9X`.3   o : x x x x x n %.-.-.%.a     uXuXuXuXuXuXuXuXuXuXuXuXuXuXuXuXuXuXuXuXuXuXuXuXuXuXuXuXuXuXuXuXuXuXuXuXuXuXuXuXuXuXuXuXuXuXuXuXuX",
"uXuXuXuXuXuXuXuXuXuXuXuXuXuXuXuXuXuXuXuXuXuXuXuXuXuXuXuXuXuXuXuXuXuXuXuXuXuXuXuXuXuXuXuXuXuXuXuXuX    ; &.-.=.%.b x x x x x x x x x x x x x x x x x x x x x x x x x x x s s s +./.<X<X<X<X6X4X9X9X9X9X9X9X9X9X9X).G     + S F F D D D D S S S A A A A Z Z Z Z w w w w 6 6 6 1       5 h.`.<X<X<X<X<X<X<X<X<X<X<X6X9X9X9X9X9X9X9X9X9X9X9X9X).    o > x x x x x n O.-.-.-.p     uXuXuXuXuXuXuXuXuXuXuXuXuXuXuXuXuXuXuXuXuXuXuXuXuXuXuXuXuXuXuXuXuXuXuXuXuXuXuXuXuXuXuXuXuXuXuXuXuX",
"uXuXuXuXuXuXuXuXuXuXuXuXuXuXuXuXuXuXuXuXuXuXuXuXuXuXuXuXuXuXuXuXuXuXuXuXuXuXuXuXuXuXuXuXuXuXuXuXuX    M &.-.=.#.x x x x x x x x x x x x x x x x x x x x x x x x x x x l d s s s /.<X<X<X<X<X3X9X9X9X9X9X9X9X9X,X3.    + S 4.4.4.4.4.4.4.4.4.4.4.4.4.4.4.4.4.4.4.3.4.3.4.3.3.R 5       2 r.).<X<X<X<X<X<X<X<X<X<X3X9X9X9X9X9X9X9X9X9X9X9X4XR.    O p x x x x x x b &.-.-.N     uXuXuXuXuXuXuXuXuXuXuXuXuXuXuXuXuXuXuXuXuXuXuXuXuXuXuXuXuXuXuXuXuXuXuXuXuXuXuXuXuXuXuXuXuXuXuXuXuX",
"uXuXuXuXuXuXuXuXuXuXuXuXuXuXuXuXuXuXuXuXuXuXuXuXuXuXuXuXuXuXuXuXuXuXuXuXuXuXuXuXuXuXuXuXuXuXuXuXuX  O M -.-.-.b x x x x x x x x x x x x x x x x x x x x x x x x x x x l s s s z I.<X<X<X<X<X6X4X9X9X9X9X9X9X3Xl.@     6 1.7.7.6.7.7.7.7.7.7.7.7.7.7.6.7.7.7.7.7.7.7.7.7.7.7.6.<.Z .     + 5.(.<X<X<X<X<X<X<X<X<X3X9X9X9X9X9X9X9X9X9XqX9X4Xl.    O d x x x x x x v %.-.-.V O   uXuXuXuXuXuXuXuXuXuXuXuXuXuXuXuXuXuXuXuXuXuXuXuXuXuXuXuXuXuXuXuXuXuXuXuXuXuXuXuXuXuXuXuXuXuXuXuXuX",
"uXuXuXuXuXuXuXuXuXuXuXuXuXuXuXuXuXuXuXuXuXuXuXuXuXuXuXuXuXuXuXuXuXuXuXuXuXuXuXuXuXuXuXuXuXuXuXuXuX  o $.-.-.%.v x x x x x x x x x x x x x x x x x x x x x x x x x x n l s s s s R.<X<X<X<X<X<X4X9X9X9X9X9XyXE.5     1 E 6.6.6.6.6.6.7.6.7.6.6.6.7.6.6.6.6.6.7.6.6.7.6.6.7.6.6.6.<.A +     # W E.,X<X<X<X<X<X<X6X4X9X9X9X9X0X9X9X9X9X9XqX,Xq.    = x x x x x x x n $.-.-.$.o   uXuXuXuXuXuXuXuXuXuXuXuXuXuXuXuXuXuXuXuXuXuXuXuXuXuXuXuXuXuXuXuXuXuXuXuXuXuXuXuXuXuXuXuXuXuXuXuXuX",
"uXuXuXuXuXuXuXuXuXuXuXuXuXuXuXuXuXuXuXuXuXuXuXuXuXuXuXuXuXuXuXuXuXuXuXuXuXuXuXuXuXuXuXuXuXuXuXuX    < %.-.=.#.n x x x x x x x x x x x x x x x x x x x x x x x x x x x s s s s z I.<X<X<X<X<X<X5X9X9X9X9X9X`.Y     + Z R ' ' <.E ' ' ' ' ' ' <.' <.<.<.<.<.<.<.<.<.<.<.<.<.<.<.<.1.' Z .     # F Y.>X<X<X<X<X<X<X4X9X9X9X9X9X9X9X9X9X9X5XR.6     : x x x x x x x n O.=.=.$.>   uXuXuXuXuXuXuXuXuXuXuXuXuXuXuXuXuXuXuXuXuXuXuXuXuXuXuXuXuXuXuXuXuXuXuXuXuXuXuXuXuXuXuXuXuXuXuXuXuX",
"uXuXuXuXuXuXuXuXuXuXuXuXuXuXuXuXuXuXuXuXuXuXuXuXuXuXuXuXuXuXuXuXuXuXuXuXuXuXuXuXuXuXuXuXuXuXuXuXuX  u &.-.&.b x x x x x x x x x x x x x x x x x x x x x x x x x x x l s s s s f /.<X<X<X<X<X<X3X4X9X9X9X,Xe.#     3 U T T U U T Y T T U T Y T U T Y U U T U T U T Y Y T T U T T T T U w @       Z V.'.<X<X<X<X3X4X9X9X9X9X9X9X9X4X<XR.Y       o > x x x x n x x x O.=.=.$.+   uXuXuXuXuXuXuXuXuXuXuXuXuXuXuXuXuXuXuXuXuXuXuXuXuXuXuXuXuXuXuXuXuXuXuXuXuXuXuXuXuXuXuXuXuXuXuXuXuX",
"uXuXuXuXuXuXuXuXuXuXuXuXuXuXuXuXuXuXuXuXuXuXuXuXuXuXuXuXuXuXuXuXuXuXuXuXuXuXuXuXuXuXuXuXuXuXuXuX    k -.-.=.v x x x x x x x x x x x x x x x x x x x x x x x x x x x l s s s f +.W.<X<X<X<X<X<X<X4X9X9X5XY.2     1 F T T T T U Y Y T T T Y T T Y T Y Y T U T U T Y Y Y Y Y T T T T Y T U A %     o 5 h.'.<X<X<X3X9X9X9X9X9X9X4X,XY.S           O p x x x x x x x x b &.=.B o     uXuXuXuXuXuXuXuXuXuXuXuXuXuXuXuXuXuXuXuXuXuXuXuXuXuXuXuXuXuXuXuXuXuXuXuXuXuXuXuXuXuXuXuXuXuXuXuX",
"uXuXuXuXuXuXuXuXuXuXuXuXuXuXuXuXuXuXuXuXuXuXuXuXuXuXuXuXuXuXuXuXuXuXuXuXuXuXuXuXuXuXuXuXuXuXuXuX    p &.-.%.b x x x x x x x x x x x x x x x x x x x x x x x x x x l s s s s s z `.<X<X<X<X<X<X<X3X9X9X(.A     + S U Y U U T T T T U Y Y T T U T T U T T T T T T T Y Y T T T U T U Y Y T Y D 1       2 g.`.<X<X3X9X9X9X9X3X'.k.w             O d x x x x x x x x x o.=.=.$.- o       uXuXuXuXuXuXuXuXuXuXuXuXuXuXuXuXuXuXuXuXuXuXuXuXuXuXuXuXuXuXuXuXuXuXuXuXuXuXuXuXuXuXuXuXuXuX",
"uXuXuXuXuXuXuXuXuXuXuXuXuXuXuXuXuXuXuXuXuXuXuXuXuXuXuXuXuXuXuXuXuXuXuXuXuXuXuXuXuXuXuXuXuXuXuX      < $.-.%.n x x x x x x x x x x x x x x x x x x x x x x x x x l d s s s s s u G 5.h.R.`.<X<X<X6X4X'.2.    # 6 Y T Y T U T U T T T T U U U T T Y T U U T U U T Y Y T U T T T U T T U T T U D 2 +     % 0.).,X5X9X9X3X`.h.2                 = x x x x x x x x x x b &.-.=.+.z         uXuXuXuXuXuXuXuXuXuXuXuXuXuXuXuXuXuXuXuXuXuXuXuXuXuXuXuXuXuXuXuXuXuXuXuXuXuXuXuXuXuXuXuXuX",
"uXuXuXuXuXuXuXuXuXuXuXuXuXuXuXuXuXuXuXuXuXuXuXuXuXuXuXuXuXuXuXuXuXuXuXuXuXuXuXuXuXuXuXuXuXuX      O m &.=.%.v x x x x x x x x x x x x x x x x x x x x x x x x x l s s s s s p -   + @ 2 6 G W 5.e.h.5.+     @ 6 Z Z Z A Z A S S F U T T T T T Y T T T T T T T Y T Y T T U T T T T Y T T T T U S 1       + 2./.'.,X).e.@           @ 6 +     = l x n x x x x x x x v O.&.=.-.=.M <       uXuXuXuXuXuXuXuXuXuXuXuXuXuXuXuXuXuXuXuXuXuXuXuXuXuXuXuXuXuXuXuXuXuXuXuXuXuXuXuXuXuXuXuX",
"uXuXuXuXuXuXuXuXuXuXuXuXuXuXuXuXuXuXuXuXuXuXuXuXuXuXuXuXuXuXuXuXuXuXuXuXuXuXuXuXuXuXuXuXuX      a B &.-.-.%.n x x x x x x x x x x x x x x x x x x x x x x x n l d s s s s s p O             # + @ & +         + + + + + @ + @ @ 1 3 A U Y T U T T U U T Y Y T T Y T U U T T U U U Y T T F Z w 5 1 #         6 E S             . 3 A w #     O d x n x x x x x x x x n b #.&.=.=.B <       uXuXuXuXuXuXuXuXuXuXuXuXuXuXuXuXuXuXuXuXuXuXuXuXuXuXuXuXuXuXuXuXuXuXuXuXuXuXuXuXuXuXuX",
"uXuXuXuXuXuXuXuXuXuXuXuXuXuXuXuXuXuXuXuXuXuXuXuXuXuXuXuXuXuXuXuXuXuXuXuXuXuXuXuXuXuXuXuX    O j %.-.-.-.#.b x x x x x x x x n x x x x x x x n x x x x x x n l d s s s s s s y                                                       @ 6 U T U T Y T T T U T U T Y Y T T T Y T T T T K Z 1 .                                                     - s x x x x x x x x x x x b *.%.&.$.O     uXuXuXuXuXuXuXuXuXuXuXuXuXuXuXuXuXuXuXuXuXuXuXuXuXuXuXuXuXuXuXuXuXuXuXuXuXuXuXuXuXuXuX",
"uXuXuXuXuXuXuXuXuXuXuXuXuXuXuXuXuXuXuXuXuXuXuXuXuXuXuXuXuXuXuXuXuXuXuXuXuXuXuXuXuXuXuX    O N =.-.&.%.o.n x x x x x x x x n x x x x x x x x x x x x x x n x d s s s s s s s = + # @ 1 2 2 1 1 1 1 % 1 % % % % % @ & @ @ % @ @ +       . 5 K Y T Y U T T T T U Y T T T T U T T T T U Z +         # + #     #     +                                 # y x x x x x x x x x x x x b %.%.M o     uXuXuXuXuXuXuXuXuXuXuXuXuXuXuXuXuXuXuXuXuXuXuXuXuXuXuXuXuXuXuXuXuXuXuXuXuXuXuXuXuXuX",
"uXuXuXuXuXuXuXuXuXuXuXuXuXuXuXuXuXuXuXuXuXuXuXuXuXuXuXuXuXuXuXuXuXuXuXuXuXuXuXuXuXuX      M %.%.$.b x x x x x x x x x x x x x x x x x x x x x x x x x x l l s s s s s s s y w U T <.3.3.1.1.1.1.<.<.<.<.' ' ' ' ' ' ' E ' R R T D 1     . 6 U T Y T T U U T T T Y U T U T T U U U Z @ @ 2 3 3 6 Z Z A Z Z Z Z Z Z Z Z 6 Z w w 6 w 5 5 5 5 % .       o > x x x x x x x x x x x x n v %.<       uXuXuXuXuXuXuXuXuXuXuXuXuXuXuXuXuXuXuXuXuXuXuXuXuXuXuXuXuXuXuXuXuXuXuXuXuXuXuXuXuX",
"uXuXuXuXuXuXuXuXuXuXuXuXuXuXuXuXuXuXuXuXuXuXuXuXuXuXuXuXuXuXuXuXuXuXuXuXuXuXuXuXuX    o u &.%.b n x x x x x x x x x x x x x x x x x x x x x x x x x x x d s s s s s s s p 5 Y T T 1.7.7.6.6.7.7.7.7.7.7.7.7.7.7.6.7.7.6.7.7.6.6.3.R w     @ D U T U T Y U Y T U Y T U T T U T T S @ + Z T T T 1.7.7.7.7.7.7.7.7.7.7.7.7.7.7.7.7.7.7.7.7.7.7.3.F @     O s x x x x x x x x x x x x x v c O     uXuXuXuXuXuXuXuXuXuXuXuXuXuXuXuXuXuXuXuXuXuXuXuXuXuXuXuXuXuXuXuXuXuXuXuXuXuXuXuXuX",
"uXuXuXuXuXuXuXuXuXuXuXuXuXuXuXuXuXuXuXuXuXuXuXuXuXuXuXuXuXuXuXuXuXuXuXuXuXuXuXuXuX    - B b n x x x x x x x x x x x x x x x x x x x x x x x x x x x l d s s s s s s s s > 2 T T U <.6.7.7.7.7.7.7.7.7.7.7.7.7.7.7.7.7.7.7.7.7.7.6.6.' 3     w <.<.<.<.<.<.<.<.<.<.' <.' ' <.' R Z   1 U U T Y ' 4.7.7.7.7.7.7.7.7.7.7.7.7.7.7.7.7.7.7.7.7.7.7.7.R 1     - l x x x x x x x x x x x x x x >     uXuXuXuXuXuXuXuXuXuXuXuXuXuXuXuXuXuXuXuXuXuXuXuXuXuXuXuXuXuXuXuXuXuXuXuXuXuXuXuXuX",
"uXuXuXuXuXuXuXuXuXuXuXuXuXuXuXuXuXuXuXuXuXuXuXuXuXuXuXuXuXuXuXuXuXuXuXuXuXuXuXuX    o p n x x x x x x x x x x x x x x x x x x x x x x x x x x x l l s s s s s s s s s > @ T Y U T <.6.6.6.6.7.7.7.7.7.7.7.7.7.7.7.7.7.7.7.7.7.7.7.7.6.K +   3 <.6.7.7.6.6.6.6.6.6.6.6.6.6.6.6.' 3   3 T U T T R 4.7.7.7.7.7.7.7.7.7.7.7.7.7.7.7.7.7.7.7.7.7.7.7.6.U +   O s x x x x x x x x x x x x x x l O     uXuXuXuXuXuXuXuXuXuXuXuXuXuXuXuXuXuXuXuXuXuXuXuXuXuXuXuXuXuXuXuXuXuXuXuXuXuXuXuX",
"uXuXuXuXuXuXuXuXuXuXuXuXuXuXuXuXuXuXuXuXuXuXuXuXuXuXuXuXuXuXuXuXuXuXuXuXuXuXuXuX    O x x n x x x x x x x x x x x x x x x x x x x x x x x l l l d s s s s s s s s s > = 1 U Y T U <.6.6.8.6.7.7.7.7.7.7.7.7.7.7.7.7.7.7.7.7.7.7.7.7.6.' 3   1 R 7.7.7.7.7.7.8.6.6.6.6.8.7.7.7.T @   3 T T T U ' 4.7.7.7.7.7.7.7.7.7.7.7.7.7.7.7.7.7.7.7.7.7.7.7.7.<.w   o > x x x x x x x x x x x x x x l >     uXuXuXuXuXuXuXuXuXuXuXuXuXuXuXuXuXuXuXuXuXuXuXuXuXuXuXuXuXuXuXuXuXuXuXuXuXuXuXuX",
"uXuXuXuXuXuXuXuXuXuXuXuXuXuXuXuXuXuXuXuXuXuXuXuXuXuXuXuXuXuXuXuXuXuXuXuXuXuXuXuX    p x x s s s d d s s s d x x x x x x x x x x x x x l l s s s s s s s s s s s s > o + F T T U U <.6.8.7.7.6.6.7.7.7.7.7.7.7.7.7.7.7.7.7.7.7.7.7.7.7.<.w   % T 7.7.7.6.7.6.7.6.7.6.6.7.6.7.6.U #   3 U T U T R 1.7.7.7.7.7.7.7.7.7.7.7.7.7.7.7.7.7.7.7.7.7.7.7.7.6.D     > x x x x x x x x x x x x x x x p O   uXuXuXuXuXuXuXuXuXuXuXuXuXuXuXuXuXuXuXuXuXuXuXuXuXuXuXuXuXuXuXuXuXuXuXuXuXuXuXuX",
"uXuXuXuXuXuXuXuXuXuXuXuXuXuXuXuXuXuXuXuXuXuXuXuXuXuXuXuXuXuXuXuXuXuXuXuXuXuXuX    O d p : ; O o       O O O = : s l l x x x x x x x l s s s s s s s s s s s s s p o   1 K U T T Y <.6.6.6.6.8.8.7.7.7.7.7.7.7.7.7.7.7.7.7.7.7.7.7.7.7.<.w   @ K 4.4.6.4.6.4.4.6.6.4.6.6.4.6.6.F     5 T T T U ' 4.7.7.7.7.7.7.7.7.7.7.7.7.7.7.7.7.7.7.7.7.7.7.7.7.7.K     : x x x x x x x x x x x x x x x l O   uXuXuXuXuXuXuXuXuXuXuXuXuXuXuXuXuXuXuXuXuXuXuXuXuXuXuXuXuXuXuXuXuXuXuXuXuXuXuXuX",
"uXuXuXuXuXuXuXuXuXuXuXuXuXuXuXuXuXuXuXuXuXuXuXuXuXuXuXuXuXuXuXuXuXuXuXuXuXuXuX    O O                             o : p d x x x x x d s s s s s s s s s s s s ; = +   1 K T T Y T <.6.6.7.7.7.6.7.7.7.7.7.7.7.6.7.7.7.7.7.7.7.7.6.7.7.1.6   @ S E <.<.E E <.E <.' ' <.' ' <.<.Z     5 T T T T R 4.7.7.7.7.7.7.7.7.7.7.7.7.7.7.7.7.7.7.7.7.7.7.7.7.7.K     : x x x x x x x x x x x x x x x x :   uXuXuXuXuXuXuXuXuXuXuXuXuXuXuXuXuXuXuXuXuXuXuXuXuXuXuXuXuXuXuXuXuXuXuXuXuXuXuXuX",
"uXuXuXuXuXuXuXuXuXuXuXuXuXuXuXuXuXuXuXuXuXuXuXuXuXuXuXuXuXuXuXuXuXuXuXuXuXuX            # - ; , < < , , < ; O         o - > d x x x s s s s s s s s s s s y - . 2 5   1 K T Y Y U <.6.6.7.7.7.7.7.7.7.7.7.7.6.6.6.7.7.7.7.7.6.7.6.8.7.1.w   @ Z U U U T U T U T U T T T Y U T w     6 T T U U ' 4.7.7.7.7.7.7.7.7.7.7.7.7.6.6.7.7.7.7.7.7.7.7.7.7.7.K .   : x x x x x x x x x x x x x x x x > o uXuXuXuXuXuXuXuXuXuXuXuXuXuXuXuXuXuXuXuXuXuXuXuXuXuXuXuXuXuXuXuXuXuXuXuXuXuXuXuX",
"uXuXuXuXuXuXuXuXuXuXuXuXuXuXuXuXuXuXuXuXuXuXuXuXuXuXuXuXuXuXuXuXuXuXuXuXuX          @ < j N +.%.&.;.;.-.$.+.B m < O o     o = p x d s s s s s s s s s y : o   Z U 6   1 K U T Y T <.6.7.7.7.7.7.7.7.7.7.7.<.Z 2 w R 6.7.7.7.7.7.7.6.7.<.6   + A T T T T T T U T T T U U T U U 6     5 T T U T ' 1.7.7.7.7.7.7.7.7.7.7.6.1.<.<.1.7.7.7.7.7.7.7.7.7.7.F     = > > > > > > p p d d x x x x x x p   uXuXuXuXuXuXuXuXuXuXuXuXuXuXuXuXuXuXuXuXuXuXuXuXuXuXuXuXuXuXuXuXuXuXuXuXuXuXuXuX",
"uXuXuXuXuXuXuXuXuXuXuXuXuXuXuXuXuXuXuXuXuXuXuXuXuXuXuXuXuXuXuXuXuXuXuXuX      o , m %.-.-.;.:.:.>.>.>.:.;.;.;.=.&.$.j - O     o - s s s s s s p p > O O   1 D 6.<.6   2 K T Y Y T <.6.7.7.7.7.7.7.7.7.7.<.Z #     5 ' 7.7.7.7.7.7.7.7.1.6   @ Z U T U T T U T T T Y T T T T T w     5 U Y T T R 6.7.7.7.7.7.7.7.7.7.7.<.Z .   Z <.7.7.7.7.7.7.7.7.7.F                     o = - > s d x x x s O uXuXuXuXuXuXuXuXuXuXuXuXuXuXuXuXuXuXuXuXuXuXuXuXuXuXuXuXuXuXuXuXuXuXuXuXuXuXuXuX",
"uXuXuXuXuXuXuXuXuXuXuXuXuXuXuXuXuXuXuXuXuXuXuXuXuXuXuXuXuXuXuXuXuXuX      o < z &.-.-.-.:.:.>.>.>.>.:.:.:.;.=.%.=.=.%.O.g :       = s s s s y O o     @ w <.6.7.<.5   1 F T T T T <.6.6.7.7.7.7.7.7.7.7.U %         F 7.7.7.7.7.7.7.7.<.w   + S T T T U U T T T T U T T U Y T 5     6 T T U U ' 1.7.7.7.7.7.7.7.6.6.6.Z         Z 6.7.7.7.7.7.7.7.7.D       o O O O O # o         O ; y d x s o uXuXuXuXuXuXuXuXuXuXuXuXuXuXuXuXuXuXuXuXuXuXuXuXuXuXuXuXuXuXuXuXuXuXuXuXuXuXuXuX",
"uXuXuXuXuXuXuXuXuXuXuXuXuXuXuXuXuXuXuXuXuXuXuXuXuXuXuXuXuXuXuXuXuX      O p N &.-.-.:.:.:.;.;.-.-.-.-.-.-.=.=.O.v v o.O.b x p o   O p s s f :     + S R 1.7.7.7.' w   2 K U T U Y <.6.6.7.7.7.7.7.7.7.7.D           Z 3.7.7.7.7.7.7.7.1.6   + Z T U T T Y T T U T T Y U T T T 6     6 T T Y Y ' 6.7.7.7.7.7.7.7.7.6.' 2         3 ' 7.7.7.7.7.7.7.7.D .   @ h j j m j j a < ; O o     o - p y O uXuXuXuXuXuXuXuXuXuXuXuXuXuXuXuXuXuXuXuXuXuXuXuXuXuXuXuXuXuXuXuXuXuXuXuXuXuXuXuX",
"uXuXuXuXuXuXuXuXuXuXuXuXuXuXuXuXuXuXuXuXuXuXuXuXuXuXuXuXuXuXuXuX      O d O.%.=.-.-.-.-.-.-.-.-.-.-.-.-.=.=.=.=.%.o.n x x x c -     > s s s O   3 R 4.7.7.7.7.7.<.5   2 K U T U T <.7.7.7.7.7.7.7.7.7.6.S           w <.7.7.7.7.6.7.6.<.6   + S T U T U U T T U Y T T Y T T T 5     w T T U Y ' 1.7.7.7.6.7.7.7.7.7.Y %         % T 7.6.7.7.7.7.7.7.D     j ;.;.;.;.;.-.-.&.V M p - O     o -   uXuXuXuXuXuXuXuXuXuXuXuXuXuXuXuXuXuXuXuXuXuXuXuXuXuXuXuXuXuXuXuXuXuXuXuXuXuXuXuX",
"uXuXuXuXuXuXuXuXuXuXuXuXuXuXuXuXuXuXuXuXuXuXuXuXuXuXuXuXuXuXuX      - c O.=.-.-.-.-.-.-.-.-.-.-.-.-.-.-.=.:.:.;.=.=.#.b v n c > o   : s s y O   Z 3.7.7.7.7.7.7.<.5   2 K T T T T <.7.7.7.7.7.7.7.7.7.7.D           S 1.7.7.7.7.6.8.6.1.5   @ Z T T T T T Y T T T U T U T U T 5     w Y T T T ' 6.7.7.7.7.7.7.7.7.7.Y %         % T 7.7.7.7.7.7.7.6.D #   m >.>.>.>.:.:.;.-.;.-.%.B f = O       uXuXuXuXuXuXuXuXuXuXuXuXuXuXuXuXuXuXuXuXuXuXuXuXuXuXuXuXuXuXuXuXuXuXuXuXuXuXuXuX",
"uXuXuXuXuXuXuXuXuXuXuXuXuXuXuXuXuXuXuXuXuXuXuXuXuXuXuXuXuXuX      : l #.#.%.*.%.&.-.-.-.-.-.-.-.-.-.;.;.;.:.;.;.:.-.-.%.#.b n s ;   O p p y o . D 4.7.7.7.7.7.7.<.3   3 K T T Y T <.4.6.6.7.7.7.7.7.7.7.T 1       + U 6.7.7.7.7.7.7.7.<.5   @ S U T Y T U Y Y T T T T T T U U 6     6 T U T T E 1.7.7.7.7.7.7.7.6.7.' w         3 ' 6.7.7.7.7.7.7.7.S     j :.:.:.>.:.:.:.:.;.-.-.=.*.b s =       uXuXuXuXuXuXuXuXuXuXuXuXuXuXuXuXuXuXuXuXuXuXuXuXuXuXuXuXuXuXuXuXuXuXuXuXuXuXuX",
"uXuXuXuXuXuXuXuXuXuXuXuXuXuXuXuXuXuXuXuXuXuXuXuXuXuXuXuXuX      ; l b B #.b #.%.=.=.-.-.-.-.-.-.&.&.-.-.-.-.-.-.-.-.=.=.%.o.v l >   o > s -   @ ' 4.7.7.7.7.7.7.' 3   2 K U T U U T R ' 1.4.6.7.7.7.7.6.4.D +   . Z 1.7.7.7.6.6.7.7.6.<.3   + S Y T Y T T T T U U Y U T T T T 5     w T T T T E <.4.4.4.7.7.7.7.6.8.1.Z .     . D 6.7.7.6.6.7.7.7.7.S .   j -.-.-.-.=.=.-.=.-.-.-.-.=.%.o.z : +       uXuXuXuXuXuXuXuXuXuXuXuXuXuXuXuXuXuXuXuXuXuXuXuXuXuXuXuXuXuXuXuXuXuXuXuXuX",
"uXuXuXuXuXuXuXuXuXuXuXuXuXuXuXuXuXuXuXuXuXuXuXuXuXuXuXuXuX    = d x x x x v *.&.=.=.-.&.%.#.O.#.%.-.-.-.-.-.-.-.=.-.%.#.o.v n x s     - p     A ' 4.7.7.7.7.7.7.<.3   3 K Y T T T T U T T R E <.4.6.6.6.7.3.T F Y <.6.7.7.6.7.6.4.1.<.R 3   @ D T T R T T T T R T T T T T T T 5     w U U T T T R T <.<.1.4.6.7.6.6.6.<.w @ . Z 1.7.7.7.6.8.7.6.7.6.Z     j -.-.-.-.-.-.-.-.-.-.=.=.%.&.%.o.n y O       uXuXuXuXuXuXuXuXuXuXuXuXuXuXuXuXuXuXuXuXuXuXuXuXuXuXuXuXuXuXuXuXuXuXuXuX",
"uXuXuXuXuXuXuXuXuXuXuXuXuXuXuXuXuXuXuXuXuXuXuXuXuXuXuXuXuX    ; x x x x v *.&.&.-.=.%.*.B b #.%.-.-.-.-.-.-.-.-.-.-.=.#.n n x x l     o O   1 U ' 4.7.7.7.7.7.7.' 3   2 K T U T U ' <.R T U T T T ' <.1.6.6.6.4.6.7.7.6.6.1.<.' R T T T 3   @ U 3.1.1.1.3.1.<.<.1.1.1.<.1.<.1.6     Z T T T U R R T U T T R <.1.6.6.6.8.6.' <.6.7.7.7.6.6.4.4.<.R T w     m -.-.-.-.-.=.-.-.-.-.=.%.O.o.O.O.v l s O     uXuXuXuXuXuXuXuXuXuXuXuXuXuXuXuXuXuXuXuXuXuXuXuXuXuXuXuXuXuXuXuXuXuXuXuX",
"uXuXuXuXuXuXuXuXuXuXuXuXuXuXuXuXuXuXuXuXuXuXuXuXuXuXuXuXuX    > x x x b #.&.%.#.#.x x x b *.&.;.-.-.-.-.-.-.-.-.-.-.-.-.*.b x x x =         F T <.4.7.7.7.7.7.7.' 3   3 U T T U T 1.6.6.1.<.R T T T T T R ' 1.4.4.1.<.' ' T T T T T T T 3   % R 7.7.7.7.7.7.7.7.7.7.7.7.7.7.7.Z     Z T U T T ' 1.<.<.R R T U T ' ' <.1.6.7.7.6.6.6.4.<.' T T U Y Y w     m ;.-.=.=.=.=.-.=.-.-.=.=.#.v x x x x x p       uXuXuXuXuXuXuXuXuXuXuXuXuXuXuXuXuXuXuXuXuXuXuXuXuXuXuXuXuXuXuXuXuXuXuX",
"uXuXuXuXuXuXuXuXuXuXuXuXuXuXuXuXuXuXuXuXuXuXuXuXuXuXuXuXuX    a x x n O.*.B b n x x x #.%.=.-.-.-.-.-.-.-.-.=.-.-.=.-.-.=.%.o.n c p o     6 U T ' 4.7.7.7.7.6.7.<.2   3 K U T T U 1.7.6.6.6.4.4.' R T T T T R R ' R R T Y T T R ' <.1.' 2   % R 7.7.7.7.7.7.7.7.7.7.7.7.7.7.7.Z     Z U Y T U ' 4.7.4.1.<.E R T T U T T @.1.1.<.' T T T T U Y T T ' w #   m -.-.%.%.%.%.%.&.=.=.=.=.=.%.o.n x x x s o     uXuXuXuXuXuXuXuXuXuXuXuXuXuXuXuXuXuXuXuXuXuXuXuXuXuXuXuXuXuXuXuXuXuXuX",
"uXuXuXuXuXuXuXuXuXuXuXuXuXuXuXuXuXuXuXuXuXuXuXuXuXuXuXuXuX    g x x n n x x x x x x o.*.*.%.&.-.-.-.$.+.N M M N $.&.&.&.=.=.%.#.v g O   @ U T T ' 4.7.7.7.7.8.6.' 2   2 K U T Y T 1.6.6.6.7.7.6.6.6.1.' R T T U T Y T T ' ' <.4.4.6.7.<.3   % ' 7.7.7.7.7.7.7.7.7.7.7.7.7.7.7.Z     Z T T T Y ' 4.7.7.7.7.7.1.<.' T T U T T T T T T T T T R <.4.6.7.Z #   m -.-.=.*.o.o.o.O.#.#.%.%.%.=.%.o.n x x d ;     uXuXuXuXuXuXuXuXuXuXuXuXuXuXuXuXuXuXuXuXuXuXuXuXuXuXuXuXuXuXuXuXuXuXuX",
"uXuXuXuXuXuXuXuXuXuXuXuXuXuXuXuXuXuXuXuXuXuXuXuXuXuXuXuXuX    d x x n x x x x x x x x x n c d < -     o # O O = + + , j M B $.O.v z =   2 U T U ' 4.7.7.7.7.7.6.<.2   5 U T T U Y 1.6.8.7.7.7.7.7.6.6.6.4.1.<.R ' ' <.3.4.6.6.7.6.6.7.<.2   % T 4.3.3.3.4.3.4.3.1.4.4.4.4.4.1.Z     A T U T T ' 4.7.7.7.7.7.7.7.6.1.<.' T T T T T R ' 1.6.6.6.7.7.7.A     m -.-.=.=.=.%.O.v n x n v o.O.#.#.o.n x z >     uXuXuXuXuXuXuXuXuXuXuXuXuXuXuXuXuXuXuXuXuXuXuXuXuXuXuXuXuXuXuXuXuXuXuX",
"uXuXuXuXuXuXuXuXuXuXuXuXuXuXuXuXuXuXuXuXuXuXuXuXuXuXuXuX      s x x x x x x x x x n c f u ;   #       #                   ; u z n d ;   2 U T U <.1.7.7.7.7.7.7.' 2   5 K T Y T T 1.7.7.7.7.7.7.7.7.7.7.7.6.6.4.4.6.6.6.7.7.7.7.7.7.6.' 2   @ K R R R E R E E E E E E R E R ' 3     Z T T T U ' 4.7.7.7.7.7.7.7.7.7.7.6.1.<.<.<.4.6.7.7.7.6.7.7.7.7.w #   C -.-.-.-.-.-.&.%.O.v x x x x x n n x x x p     uXuXuXuXuXuXuXuXuXuXuXuXuXuXuXuXuXuXuXuXuXuXuXuXuXuXuXuXuXuXuXuXuXuXuX",
"uXuXuXuXuXuXuXuXuXuXuXuXuXuXuXuXuXuXuXuXuXuXuXuXuXuXuXuX      y x x x x x x x x c > o         @ 4 e L ] u.a.s.y.] 4 $ & #     o ; y O   1 U T T <.4.7.7.7.7.7.7.' 2   3 K Y T T T 1.7.7.7.7.7.7.7.7.6.7.7.7.6.7.7.7.7.7.7.7.7.7.7.7.6.<.2   @ D Y T T T T U U T T U T T T T T 2     Z T T U T ' 4.7.7.7.7.7.7.7.7.7.7.7.7.7.7.7.7.7.7.7.7.7.7.7.7.7.w     m -.-.-.-.-.&.%.%.O.b x x x x x x x x x x s       uXuXuXuXuXuXuXuXuXuXuXuXuXuXuXuXuXuXuXuXuXuXuXuXuXuXuXuXuXuXuXuXuXuX",
"uXuXuXuXuXuXuXuXuXuXuXuXuXuXuXuXuXuXuXuXuXuXuXuXuXuXuXuX      > x x x x x c d > O     @ r } f.S.oX&X=X=X=X-X@X+X+X%X Xv.u.I &           5 T T T <.4.7.7.7.7.7.7.' 1   5 U T U U U 4.7.7.7.7.7.7.7.7.7.7.7.7.7.7.7.7.7.7.7.7.7.7.7.7.7.<.1   @ D T T T U T U T T T T Y T U U T 2 .   Z T U T T <.4.7.7.7.7.7.7.7.7.7.7.7.7.7.7.7.7.7.7.7.7.7.7.7.7.7.w #   a M M M M M N c v c c x x x x x x x x x x f       uXuXuXuXuXuXuXuXuXuXuXuXuXuXuXuXuXuXuXuXuXuXuXuXuXuXuXuXuXuXuXuXuXuX",
"uXuXuXuXuXuXuXuXuXuXuXuXuXuXuXuXuXuXuXuXuXuXuXuXuXuXuXuXuX  o : x x x x x p ; o     4 y.Z.XX-X=X;X=X=X=X=X=X=X=X=X=X=X=X-X}.B.| #       Z T U T ' 4.7.7.7.7.7.7.' 2   5 K T T T U 1.7.7.7.7.7.7.7.7.7.7.7.7.7.7.7.7.7.7.7.7.7.7.7.7.7.<.2   @ S Y U Y T T T T U U T Y T T T T 1     Z T U T U ' 6.7.7.7.7.7.7.7.7.7.7.7.7.7.7.7.7.7.7.7.7.7.7.7.7.7.w     o         O O : < p p d x c x x x x x x x s       uXuXuXuXuXuXuXuXuXuXuXuXuXuXuXuXuXuXuXuXuXuXuXuXuXuXuXuXuXuXuXuXuXuX",
"uXuXuXuXuXuXuXuXuXuXuXuXuXuXuXuXuXuXuXuXuXuXuXuXuXuXuXuXuX    - x x x l y O   # r N.+X=X=X=X=X=X=X=X=X=X=X=X=X=X=X=X=X=X=X=X=XXXC.#     D T T T <.6.7.7.7.7.7.7.' 1   5 U U U T T 1.8.7.7.7.7.7.7.7.7.7.7.7.7.7.7.7.7.7.7.7.7.7.7.7.7.<.2   @ F T T T U T T U T Y U T U U T T 2     S T T T T <.4.7.7.7.7.7.7.7.7.7.7.7.7.7.7.7.7.7.7.7.7.7.7.7.7.7.w       @ @ @ @ #           O < s d x x x x x x s o     uXuXuXuXuXuXuXuXuXuXuXuXuXuXuXuXuXuXuXuXuXuXuXuXuXuXuXuXuXuXuXuXuXuX",
"uXuXuXuXuXuXuXuXuXuXuXuXuXuXuXuXuXuXuXuXuXuXuXuXuXuXuXuXuX    O n x x u     * s. X&X=X=X=X=X=X=X=X=X=X=X=X=X=X=X=X=X=X=X=X=X=X=X X4   @ K T T U <.4.7.7.7.7.7.7.' 1   5 U T T Y T 1.7.7.7.7.7.7.7.7.7.7.7.7.7.7.7.7.7.7.7.7.7.7.7.7.6.' 1   @ F T U T T U T U T T T T T T T U 2     Z T U T U <.6.7.7.7.7.7.7.7.7.7.7.7.7.7.7.7.7.7.7.7.7.7.7.7.7.7.w     P a.s.s.a.y.| [ L 8 $       ; s d x x x x s o     uXuXuXuXuXuXuXuXuXuXuXuXuXuXuXuXuXuXuXuXuXuXuXuXuXuXuXuXuXuXuXuXuXuX",
"uXuXuXuXuXuXuXuXuXuXuXuXuXuXuXuXuXuXuXuXuXuXuXuXuXuXuXuXuX      c n ;     t c.oX=X=X=X=X=X=X=X=X=X=X=X=X=X=X=X=X=X=X=X=X=X=X=X=X|.H   S U T T T ' 1.7.7.7.7.7.7.E 1   6 U U T T U 4.7.7.7.7.7.7.7.7.7.7.7.7.7.7.7.7.7.7.7.7.7.7.7.6.6.<.1   % D U T T T U T T T T U U T T Y T 1     S T U T T @.4.7.7.7.7.7.7.7.7.7.7.7.7.7.7.7.7.7.7.7.7.7.7.7.7.7.w     Z.=X=X=X=X=X-X+X{.B.s.[ r #     ; s c x x s o     uXuXuXuXuXuXuXuXuXuXuXuXuXuXuXuXuXuXuXuXuXuXuXuXuXuXuXuXuXuXuXuXuXuX",
"uXuXuXuXuXuXuXuXuXuXuXuXuXuXuXuXuXuXuXuXuXuXuXuXuXuXuXuXuX      p -   # t F.K.OX-X=X=X=X=X=X=X=X=X=X=X=X=X=X=X=X=X=X=X=X=X=X=X=X~.I . A T T U U <.6.7.7.7.7.7.7.' 1   6 U T U T Y 1.7.7.7.7.7.7.7.7.7.7.7.7.7.7.7.7.7.7.7.7.7.7.7.6.6.' %   @ D T T U T T T T U Y T T T U T U 2     S U T T U <.6.7.7.7.7.7.7.7.7.7.7.7.7.7.7.7.7.7.7.7.7.7.7.7.7.7.6     S.=X=X=X=X=X=X=X=X=X&X+XC.u.H #   # < d n s       uXuXuXuXuXuXuXuXuXuXuXuXuXuXuXuXuXuXuXuXuXuXuXuXuXuXuXuXuXuXuXuXuXuX",
"uXuXuXuXuXuXuXuXuXuXuXuXuXuXuXuXuXuXuXuXuXuXuXuXuXuXuXuXuXuX    o     t M.K.L.OX$X=X=X=X=X=X=X=X=X=X=X=X=X=X=X=X=X=X=X=X=X=X=X=XD.L @ Z T U T T ' 6.6.7.7.7.7.7.' %   6 U U T T T 1.7.7.7.7.7.7.7.7.7.7.7.7.7.7.7.7.7.7.7.7.7.7.7.7.7.<.1   @ F T T T U T T T Y T T T T Y Y T 1     S T U T T <.6.7.7.7.7.7.7.7.7.7.7.7.7.7.7.7.7.7.7.7.7.7.7.7.7.7.5     S.=X=X=X=X=X=X=X=X=X=X=X=X&XA...q #   - f p       uXuXuXuXuXuXuXuXuXuXuXuXuXuXuXuXuXuXuXuXuXuXuXuXuXuXuXuXuXuXuXuXuXuX",
"uXuXuXuXuXuXuXuXuXuXuXuXuXuXuXuXuXuXuXuXuXuXuXuXuXuXuXuXuXuX        * F.K.L.L.L.$X=X=X=X=X=X=X=X;X=X=X=X=X=X=X=X=X=X=X=X=X=X=X=X{.H + A T T T U ' 6.7.7.7.7.7.7.' %   w U T T Y T 1.7.7.7.7.7.7.7.7.7.7.7.7.7.7.7.7.7.7.7.7.7.7.7.7.6.' @   @ K T U T T T U U T T T U T Y Y T 1     S T T T U <.6.7.7.7.7.7.7.7.7.7.7.7.7.7.7.7.7.7.7.7.7.7.7.7.7.7.6     D.=X=X=X=X=X=X=X=X=X=X=X=X-XOXH.c.t #   O =     uXuXuXuXuXuXuXuXuXuXuXuXuXuXuXuXuXuXuXuXuXuXuXuXuXuXuXuXuXuXuXuXuXuXuX",
"uXuXuXuXuXuXuXuXuXuXuXuXuXuXuXuXuXuXuXuXuXuXuXuXuXuXuXuXuXuXuX      } K.L.L.L.L.#X=X=X=X=X=X=X=X=X=X=X=X=X=X=X=X=X=X=X=X=X=X=X=X|.4 . S Y T T Y <.6.7.7.7.7.7.7.R @   5 U T U T T 1.7.7.7.7.7.7.7.7.7.7.7.7.7.7.7.7.7.7.7.7.7.7.7.7.6.' %   % K R R R R R R R E R R R R T R R 1     S T U T U <.4.6.7.7.7.7.7.7.7.7.7.7.7.7.7.7.7.7.7.7.7.7.7.7.7.7.6     D.=X=X=X=X=X=X=X=X=X=X=X=X-XOXL.K.G.` X         uXuXuXuXuXuXuXuXuXuXuXuXuXuXuXuXuXuXuXuXuXuXuXuXuXuXuXuXuXuXuXuXuXuXuX",
"uXuXuXuXuXuXuXuXuXuXuXuXuXuXuXuXuXuXuXuXuXuXuXuXuXuXuXuXuXuXuXuX    ` G.L.L.L.L.OX=X=X=X=X=X=X=X=X=X=X=X=X=X=X=X=X=X=X=X=X=X=X=X+X#   F U T U T ' 6.7.7.7.7.7.6.' @   w U T U T T 4.7.7.7.7.7.7.7.7.7.7.7.7.7.7.7.7.7.7.7.7.7.7.7.6.6.' %   1 ' 4.3.4.1.3.4.3.1.4.1.1.1.1.1.1.2     S T T T U <.6.7.7.7.7.7.7.7.7.7.7.7.7.7.7.7.7.7.7.7.7.7.7.7.7.7.5     D.=X=X=X=X=X=X=X=X=X=X=X=X-XOXL.L.K.G. .      uXuXuXuXuXuXuXuXuXuXuXuXuXuXuXuXuXuXuXuXuXuXuXuXuXuXuXuXuXuXuXuXuXuXuXuX",
"uXuXuXuXuXuXuXuXuXuXuXuXuXuXuXuXuXuXuXuXuXuXuXuXuXuXuXuXuXuXuXuX    e G.L.L.L.L.L.;X=X=X=X=X=X=X=X=X=X=X=X=X=X=X=X=X=X=X=X=X=X=XXXX   U T U T T ' 6.7.7.7.7.7.7.' %   6 K U T T T 1.7.7.7.7.7.7.7.7.7.7.7.7.7.7.7.7.7.7.7.7.7.7.7.7.7.' +   3 <.7.7.7.7.7.7.7.7.7.7.7.7.7.7.7.2     D U T T T <.6.6.7.7.7.7.7.7.7.7.7.7.7.7.7.7.7.7.7.6.7.7.7.7.7.7.5     ~.=X=X=X=X=X=X=X=X=X;X=X=X-XOXL.L.K.K.F.      uXuXuXuXuXuXuXuXuXuXuXuXuXuXuXuXuXuXuXuXuXuXuXuXuXuXuXuXuXuXuXuXuXuXuXuX",
"uXuXuXuXuXuXuXuXuXuXuXuXuXuXuXuXuXuXuXuXuXuXuXuXuXuXuXuXuXuXuXuXuX  X F.L.L.L.L.L.;X=X=X=X=X=X=X=X=X=X-X&X+XoX|.|.|.+XXX|.|. X%X|.4   F T T Y Y <.6.7.7.7.7.7.7.<.@   6 U T T U T 1.7.7.7.7.7.7.7.7.7.7.7.7.7.7.7.7.7.7.7.7.7.7.7.7.7.R %   5 <.7.7.7.7.7.7.7.7.7.7.7.7.7.7.7.3     D T T U U <.6.6.7.7.7.7.7.7.7.7.7.7.7.7.7.7.7.7.7.7.7.7.7.7.7.7.3     }.=X=X=X=X=X=X=X=X=X=X=X=X$XL.L.L.L.K.b.      uXuXuXuXuXuXuXuXuXuXuXuXuXuXuXuXuXuXuXuXuXuXuXuXuXuXuXuXuXuXuXuXuXuXuXuX",
"uXuXuXuXuXuXuXuXuXuXuXuXuXuXuXuXuXuXuXuXuXuXuXuXuXuXuXuXuXuXuXuXuXuX  ..K.L.L.L.L.-X=X=X=X=X=X=X=X=X-X}.B.s.| ^ H 4 . # 4 P ] | ] & + A U Y T U <.6.7.7.7.7.7.7.1.%   1 K Y T T U 4.7.7.7.7.7.7.7.7.7.6.7.7.7.7.7.7.7.7.7.7.7.7.7.7.7.K .   w 1.7.7.7.7.7.7.7.7.7.7.7.7.7.7.7.6     F Y T T T <.6.7.7.7.7.7.7.7.7.7.7.7.7.7.7.7.7.7.7.7.7.7.7.7.7.6.%   X |.=X=X=X=X=X=X=X=X=X=X=X=X$XL.L.L.L.H.X.    uXuXuXuXuXuXuXuXuXuXuXuXuXuXuXuXuXuXuXuXuXuXuXuXuXuXuXuXuXuXuXuXuXuXuXuXuX",
"uXuXuXuXuXuXuXuXuXuXuXuXuXuXuXuXuXuXuXuXuXuXuXuXuXuXuXuXuXuXuXuXuXuX  t J.L.L.L.L.$X=X=X=X=X@XD.v.] @                           #     % Z D U T ' 6.7.7.7.7.7.7.6.5   1 K T T U T 4.7.7.7.7.7.7.7.7.7.7.7.7.7.7.7.7.7.7.7.7.7.7.7.7.6.5     S <.1.1.1.1.1.1.1.1.4.1.1.1.4.1.4.Z +   D Y T U T <.6.7.7.7.7.7.7.7.7.7.7.7.7.7.7.7.7.7.7.7.7.7.7.7.6.' @   e XX=X=X=X=X=X=X=X=X=X=X=X=X$XL.L.L.L.H...  uXuXuXuXuXuXuXuXuXuXuXuXuXuXuXuXuXuXuXuXuXuXuXuXuXuXuXuXuXuXuXuXuXuXuXuXuXuX",
"uXuXuXuXuXuXuXuXuXuXuXuXuXuXuXuXuXuXuXuXuXuXuXuXuXuXuXuXuXuXuXuXuXuX  @ M.L.L.L.L.OX-X=X@X~.f.^ 8 +     @ 2 6 Z w w w 3 3 1 3 1 #         % 5 S <.6.6.7.7.7.7.7.7.U + @ K T T T T 4.6.6.7.7.7.7.7.7.7.7.7.7.7.7.7.7.7.7.7.7.7.7.6.6.U +   + F T R T T R T T R R T T E R R T R D +   F T T U T <.6.6.7.7.7.7.7.7.7.7.7.7.7.7.7.7.7.7.7.7.7.7.7.7.7.Z     u.+X=X=X=X=X=X=X=X=X=X=X=X=X$XL.L.L.L.J./   uXuXuXuXuXuXuXuXuXuXuXuXuXuXuXuXuXuXuXuXuXuXuXuXuXuXuXuXuXuXuXuXuXuXuXuXuXuX",
"uXuXuXuXuXuXuXuXuXuXuXuXuXuXuXuXuXuXuXuXuXuXuXuXuXuXuXuXuXuXuXuXuXuX    c.L.L.L.L.OX$XoXd.r #     # 2 U <.4.1.1.1.1.6.7.6.<.Y F D S 5         2 ' 6.7.7.7.7.7.7.7.6.2   Z T U T ' 6.7.7.7.6.7.7.7.7.7.7.7.7.7.7.6.8.7.7.7.7.7.7.4.F @     2 U T T T Y T T T T U T T U T T T U U 1   Z U T T T 1.6.6.7.7.7.7.7.7.7.6.7.7.7.7.7.7.7.7.7.7.7.6.7.6.T .     B.XX+X%X-X=X=X=X=X=X=X=X=X=X#XL.L.L.L.G.e   uXuXuXuXuXuXuXuXuXuXuXuXuXuXuXuXuXuXuXuXuXuXuXuXuXuXuXuXuXuXuXuXuXuXuXuXuXuX",
"uXuXuXuXuXuXuXuXuXuXuXuXuXuXuXuXuXuXuXuXuXuXuXuXuXuXuXuXuXuXuXuXuXuXuX  ..L.L.L.L.H.d.4     + w Y 4.9.q.9.8.7.7.7.7.7.7.7.1.T Y T U T U Z @   @ U 6.7.7.7.7.7.7.7.7.' @   1 5 5 Z K K K F K K K K K U K K K Y U U U T T T T U D 5 @     @ D U T U U T T T U T U T U T T U T U T A + @ Z D F U <.<.<.1.<.1.1.1.4.1.4.4.4.4.6.4.6.4.6.6.6.6.6.4.D .     e u.a.s.f.N.C.S.~.XX%X=X=X=X=X#XL.L.L.L.G.X   uXuXuXuXuXuXuXuXuXuXuXuXuXuXuXuXuXuXuXuXuXuXuXuXuXuXuXuXuXuXuXuXuXuXuXuXuXuX",
"uXuXuXuXuXuXuXuXuXuXuXuXuXuXuXuXuXuXuXuXuXuXuXuXuXuXuXuXuXuXuXuXuXuXuX   .P.L.K.M.` X   # 3 U 1.q.w.9.8.7.7.7.7.7.7.7.7.7.6.R T T T T T T D     S 6.7.7.7.7.7.7.7.6.6.T @           .   # + # . . + @ . @ @ @ @ @ @ @ @ @ % @ .       @ A U T Y T T T U T T T T T T U T T T T T T 6 +   % % 1 5 w w w w w w w Z Z w Z S Z Z Z Z Z S Z A A 5 #                     # 3 P u.v.S.oX&X=XOXL.L.L.L.M.    uXuXuXuXuXuXuXuXuXuXuXuXuXuXuXuXuXuXuXuXuXuXuXuXuXuXuXuXuXuXuXuXuXuXuXuXuXuX",
"uXuXuXuXuXuXuXuXuXuXuXuXuXuXuXuXuXuXuXuXuXuXuXuXuXuXuXuXuXuXuXuXuXuXuX  8 P.K.c.t #   . F 7.w.w.9.8.7.7.7.7.7.7.7.7.7.7.7.7.' T Y Y Y Y T T     3 4.7.7.7.7.7.7.7.7.7.1.K 1                                                         2 S U T T T T U U T U U T T Y T U U U T T U T U w @                                                             @ % 1 3 3 3 % %       # 4 } N.D.P.L.L.L.L.M.    uXuXuXuXuXuXuXuXuXuXuXuXuXuXuXuXuXuXuXuXuXuXuXuXuXuXuXuXuXuXuXuXuXuXuXuXuXuX",
"uXuXuXuXuXuXuXuXuXuXuXuXuXuXuXuXuXuXuXuXuXuXuXuXuXuXuXuXuXuXuXuXuXuXuX  . M.c.q     6 7.w.w.w.9.8.7.7.7.7.7.7.7.7.7.7.7.7.6.<.T U T T T U T %   @ ' 7.7.7.7.7.7.7.7.6.1.T U F 6 1 % @ @ @ @ @ @ @ @ @ @ @ @ + @ + + + + + + @ @ 3 w F T Y T U T T T T Y T T T Y T T T T T Y T T T U T A 2 @ #     #         .                   #               % S U T ' <.4.1.' U A w 2 %     # t X.M.K.L.K.M.    uXuXuXuXuXuXuXuXuXuXuXuXuXuXuXuXuXuXuXuXuXuXuXuXuXuXuXuXuXuXuXuXuXuXuXuXuXuX",
"uXuXuXuXuXuXuXuXuXuXuXuXuXuXuXuXuXuXuXuXuXuXuXuXuXuXuXuXuXuXuXuXuXuXuX    ..$   # T 9.w.w.q.9.7.6.7.7.7.7.7.7.7.7.7.7.7.7.7.1.R T T T U T T 5     T 7.7.7.7.7.7.7.7.7.6.T T U U U U K U K K F F F F F D D D D D D D D S D S D D K U T U U T T Y Y T T Y T T U T T U U T T Y U T T T U T U D Z 6 5 5 5 5 2 3 3 3 2 2 2 2 3 2 3 6 w w         w <.6.7.7.7.6.7.7.8.9.w.q.9.6.T w 5 X   # t X.G.K.M.    uXuXuXuXuXuXuXuXuXuXuXuXuXuXuXuXuXuXuXuXuXuXuXuXuXuXuXuXuXuXuXuXuXuXuXuXuXuX",
"uXuXuXuXuXuXuXuXuXuXuXuXuXuXuXuXuXuXuXuXuXuXuXuXuXuXuXuXuXuXuXuXuXuXuXuX      % T 9.w.w.w.8.7.7.7.7.7.7.7.7.7.7.7.7.7.7.7.7.1.R T U Y T U T A @   D 7.7.7.7.7.7.7.7.7.7.' T T U T T U T Y Y T T T T Y T T T T T Y T Y T Y T T U T T T T T T U T T U T U T U Y T Y T T T U T T T U U T T T T U Y T T U T T T U T U T T U T T 3.w.w.w.@       Y 6.7.7.7.7.6.7.7.7.7.8.9.9.9.w.w.3.K 3 .   # ` F.c.    uXuXuXuXuXuXuXuXuXuXuXuXuXuXuXuXuXuXuXuXuXuXuXuXuXuXuXuXuXuXuXuXuXuXuXuXuXuX",
"uXuXuXuXuXuXuXuXuXuXuXuXuXuXuXuXuXuXuXuXuXuXuXuXuXuXuXuXuXuXuXuXuXuXuX      % T 9.w.w.w.8.7.7.7.7.7.7.7.7.7.7.7.7.7.7.7.7.7.3.' T T T T Y T F 3   w 4.7.7.7.7.7.7.7.7.7.4.R T Y Y Y Y T Y T T Y U T Y U T U T T U T T T U T Y Y T U T T T T U Y T U Y T U Y U T Y Y T Y T U T U T Y T U Y Y T T U T Y T Y T Y U T Y Y U T R 9.w.w.w.+       T 7.7.7.7.7.7.7.7.7.7.7.7.7.9.q.w.w.w.7.K 3   # 4 /   uXuXuXuXuXuXuXuXuXuXuXuXuXuXuXuXuXuXuXuXuXuXuXuXuXuXuXuXuXuXuXuXuXuXuXuXuXuXuX",
"uXuXuXuXuXuXuXuXuXuXuXuXuXuXuXuXuXuXuXuXuXuXuXuXuXuXuXuXuXuXuXuXuXuXuX    X U 9.w.w.w.9.7.7.7.7.7.7.7.7.7.7.7.7.7.7.7.7.7.7.6.' T U Y U Y T K 5   1 1.7.7.7.7.7.7.7.7.7.6.4.' T T T Y Y U Y Y Y U T T T T T Y Y T T Y Y U T T T Y Y U T U T T T T T Y Y T T Y T T T Y Y T T Y T T Y T T T Y Y Y U T Y Y Y Y T T Y T T T T 7.w.w.w.w..       R 7.7.7.7.7.7.7.7.7.7.7.7.7.7.7.9.w.w.w.q.3.Z +       uXuXuXuXuXuXuXuXuXuXuXuXuXuXuXuXuXuXuXuXuXuXuXuXuXuXuXuXuXuXuXuXuXuXuXuXuXuXuX",
"uXuXuXuXuXuXuXuXuXuXuXuXuXuXuXuXuXuXuXuXuXuXuXuXuXuXuXuXuXuXuXuXuXuX      S 6.w.w.w.9.7.7.7.7.7.7.7.7.7.7.7.7.7.7.7.7.7.7.7.7.' U T Y T T Y U Z   + <.7.7.7.7.7.7.7.7.7.7.7.6.6.1.1.1.<.1.1.<.1.<.<.<.<.<.<.<.<.' <.<.' <.<.' ' <.<.<.' <.' ' ' ' ' ' ' E <.' E ' R ' ' R R R E R R R R R R R R R R R R R T R T R T T ' 7.w.w.w.w.w.#       ' 6.7.7.7.7.7.7.7.7.7.7.7.7.7.7.7.8.9.w.w.w.8.U %       uXuXuXuXuXuXuXuXuXuXuXuXuXuXuXuXuXuXuXuXuXuXuXuXuXuXuXuXuXuXuXuXuXuXuXuXuXuX",
"uXuXuXuXuXuXuXuXuXuXuXuXuXuXuXuXuXuXuXuXuXuXuXuXuXuXuXuXuXuXuXuXuXuX    6 7.w.w.w.w.7.7.7.7.7.7.7.7.7.7.7.7.7.7.7.7.7.T 1.' 1.' T U Y K U F Y Z     3.7.7.7.7.7.7.7.7.7.7.7.7.7.6.6.6.6.6.6.6.6.6.6.6.6.6.6.6.4.4.6.6.6.6.4.6.4.4.4.4.4.5.4.4.4.4.4.4.4.1.4.4.4.4.4.3.4.4.4.4.4.4.4.4.4.3.4.4.4.4.4.3.3.4.1.4.4.3.3.6.7.q.w.w.w.w.w.#       <.7.7.7.7.7.7.7.7.7.7.7.7.7.7.7.7.7.7.q.w.w.w.q.' %       uXuXuXuXuXuXuXuXuXuXuXuXuXuXuXuXuXuXuXuXuXuXuXuXuXuXuXuXuXuXuXuXuXuXuXuXuX",
"uXuXuXuXuXuXuXuXuXuXuXuXuXuXuXuXuXuXuXuXuXuXuXuXuXuXuXuXuXuXuXuXuX    + 3.w.w.w.w.q.7.7.7.7.7.7.7.7.7.7.7.7.7.7.7.7.Z 6 + % @ 2 2 w 2 1 @ % 1 %     T 6.6.7.7.7.7.6.6.7.7.7.7.7.6.7.7.7.7.7.7.7.7.7.7.7.6.7.7.7.7.7.7.7.7.7.7.7.7.7.7.7.7.7.7.7.7.7.7.7.7.7.7.7.7.7.6.7.7.7.7.7.6.6.7.7.7.7.7.7.7.7.7.7.6.7.7.7.7.7.7.7.q.w.w.w.w.w.#       <.7.7.7.7.7.7.7.7.7.7.7.7.7.7.7.7.7.7.7.q.w.w.w.9.R 2     uXuXuXuXuXuXuXuXuXuXuXuXuXuXuXuXuXuXuXuXuXuXuXuXuXuXuXuXuXuXuXuXuXuXuXuXuX",
"uXuXuXuXuXuXuXuXuXuXuXuXuXuXuXuXuXuXuXuXuXuXuXuXuXuXuXuXuXuXuXuXuX    # w.w.w.w.w.7.7.7.7.7.7.7.7.7.7.7.7.7.7.7.w 2 .                                   + 2 w D Y ' <.6.7.7.7.7.7.7.7.7.7.7.7.7.7.7.7.7.6.7.7.7.7.7.7.7.7.7.7.7.7.7.7.7.7.7.7.7.7.7.7.7.7.7.7.7.7.7.7.7.7.7.7.7.7.7.7.7.7.7.7.7.7.7.7.7.7.7.7.7.7.7.7.7.q.w.w.w.w.w.        <.7.7.7.7.7.7.7.7.7.7.7.7.7.7.7.7.7.7.7.7.q.w.w.q.q.<.%     uXuXuXuXuXuXuXuXuXuXuXuXuXuXuXuXuXuXuXuXuXuXuXuXuXuXuXuXuXuXuXuXuXuXuXuX",
"uXuXuXuXuXuXuXuXuXuXuXuXuXuXuXuXuXuXuXuXuXuXuXuXuXuXuXuXuXuXuXuXuX      8.w.w.w.9.7.7.7.7.7.7.7.7.7.7.7.7.7.' S @                                                     . @ 1 5 Z S K U R ' <.3.6.7.7.7.7.7.6.7.7.7.7.6.6.7.7.6.6.7.6.6.7.7.7.7.7.7.7.7.7.7.7.7.7.7.7.7.7.7.7.7.7.7.6.7.7.7.6.7.6.7.7.6.7.7.6.7.7.6.4.4.4.8.8.8.8.4.'         1.7.6.6.7.7.7.7.7.7.7.7.7.7.7.7.7.7.7.7.7.8.w.w.w.w.q.Y       uXuXuXuXuXuXuXuXuXuXuXuXuXuXuXuXuXuXuXuXuXuXuXuXuXuXuXuXuXuXuXuXuXuXuX",
"uXuXuXuXuXuXuXuXuXuXuXuXuXuXuXuXuXuXuXuXuXuXuXuXuXuXuXuXuXuXuXuXuX      4.w.w.w.8.7.7.7.7.7.7.7.7.7.7.7.7.' 5           5 w 5 @         + w 5 % .                                   . . @ @ @ @ 1 3 6 Z S D F U Y T R ' <.<.1.3.4.4.4.7.6.7.7.7.7.7.7.7.7.7.7.7.7.7.7.7.7.7.7.6.6.6.6.4.4.4.3.3.1.1.1.<.<.' <.' T U D Z S 6 +               ' T T K Z 7.7.7.7.7.7.7.7.7.7.7.7.7.7.7.7.7.9.w.w.w.w.3.      uXuXuXuXuXuXuXuXuXuXuXuXuXuXuXuXuXuXuXuXuXuXuXuXuXuXuXuXuXuXuXuXuXuXuX",
"uXuXuXuXuXuXuXuXuXuXuXuXuXuXuXuXuXuXuXuXuXuXuXuXuXuXuXuXuXuXuXuXuXuX    ' w.w.w.8.7.7.7.7.7.7.7.7.7.7.6.Y 2         Z 1.T U T U Z 2       D 1.<.T K w 1                                               . # # + + @ @ 1 2 2 2 2 3 5 6 6 w Z A A S S F F D K K K K K U K U U U U U U K K K D D S Z Z w 5 2 % + #                               % .   . @ 2 Z D 6.7.7.7.7.7.7.7.7.7.7.7.7.7.7.w.w.w.w.3.      uXuXuXuXuXuXuXuXuXuXuXuXuXuXuXuXuXuXuXuXuXuXuXuXuXuXuXuXuXuXuXuXuXuXuX",
"uXuXuXuXuXuXuXuXuXuXuXuXuXuXuXuXuXuXuXuXuXuXuXuXuXuXuXuXuXuXuXuXuXuX    K 9.w.q.8.7.7.7.7.7.7.7.6.1.' U 2       1 ' 7.7.1.T T U T K @     % U 6.7.6.6.<.' K Z                                                                                       #     . .   #                                                                                         1 D 4.7.7.7.7.7.7.7.7.7.7.7.7.7.9.w.w.w.<.      uXuXuXuXuXuXuXuXuXuXuXuXuXuXuXuXuXuXuXuXuXuXuXuXuXuXuXuXuXuXuXuXuXuXuX",
"uXuXuXuXuXuXuXuXuXuXuXuXuXuXuXuXuXuXuXuXuXuXuXuXuXuXuXuXuXuXuXuXuXuX    w 6.w.q.7.7.7.7.7.7.6.4.' ' D %       % U 4.7.7.7.@.T T T T S       3 R 7.7.7.7.7.7.4.K 2       - p y > : - - = O o o                                                                                                                         o o                                     % K <.7.7.7.7.7.7.7.7.7.7.6.8.w.w.w.<.    uXuXuXuXuXuXuXuXuXuXuXuXuXuXuXuXuXuXuXuXuXuXuXuXuXuXuXuXuXuXuXuXuXuXuXuX",
"uXuXuXuXuXuXuXuXuXuXuXuXuXuXuXuXuXuXuXuXuXuXuXuXuXuXuXuXuXuXuXuXuXuXuX  % ' w.9.7.7.7.7.7.7.3.' Y D %       % Y 7.7.7.7.8.1.E T Y Y Y 3 .   . 5 7.7.7.7.7.7.7.6.'       O p x x x x d d d d d s s p y > > : - - - O O O O O o                                                           o   o o o o o o o o O O O - : : y                   1 6 U D Z @         + Z ' 7.7.7.6.4.7.7.7.7.7.7.9.w.q.E     uXuXuXuXuXuXuXuXuXuXuXuXuXuXuXuXuXuXuXuXuXuXuXuXuXuXuXuXuXuXuXuXuXuXuXuX",
"uXuXuXuXuXuXuXuXuXuXuXuXuXuXuXuXuXuXuXuXuXuXuXuXuXuXuXuXuXuXuXuXuXuXuX    Z w.9.7.7.7.6.6.4.R Y D %       5 ' 6.7.7.7.7.7.7.1.R T U U K 3       K 6.6.7.7.7.7.7.4.A       - l n x x x x x x x x x x l l l l l d d d d s s s p p p p y y y > > : : - : : - - - - - - - - - - - - - - - - - : > > > y p p s d l x x x x x x               + 5 K T T ' 7.6.Y 3 .       + Z E 4.7.6.<.' T R 7.6.9.w.9.Y     uXuXuXuXuXuXuXuXuXuXuXuXuXuXuXuXuXuXuXuXuXuXuXuXuXuXuXuXuXuXuXuXuXuXuXuX",
"uXuXuXuXuXuXuXuXuXuXuXuXuXuXuXuXuXuXuXuXuXuXuXuXuXuXuXuXuXuXuXuXuXuXuX      9.9.7.7.7.6.3.T U A @       % K 6.7.7.7.7.7.7.7.4.1.T T T T D 2     + <.6.7.7.7.7.7.6.<.#     = d x x x x x x x l n x x x x x n x x x x x x x x x x n x x x x x x x x x x l x l l l l x l x l x x x x x x n x x x x x x x x x x l x x l s s >               Z U Y T R 1.7.7.4.R 6         # 2 U 3.6.7.7.4.1.3.6.8.w.7.Z     uXuXuXuXuXuXuXuXuXuXuXuXuXuXuXuXuXuXuXuXuXuXuXuXuXuXuXuXuXuXuXuXuXuXuXuX",
"uXuXuXuXuXuXuXuXuXuXuXuXuXuXuXuXuXuXuXuXuXuXuXuXuXuXuXuXuXuXuXuXuXuXuXuX    U 7.7.7.6.4.R U D %       3 ' 7.7.7.7.6.7.7.7.7.7.4.' U U T Y K +     6 <.6.7.7.7.7.6.' 2       l x x x x x x x l d d d l x x x x x x x x x x x x x x x x x x x x x x x x x x x x n x x x x x x x x x x x x x x x x x x x x x x x x x x d d - o           @ U Y T U <.6.7.7.6.7.6.R 6 +       # 3 U 1.6.7.7.7.7.7.q.3.@     uXuXuXuXuXuXuXuXuXuXuXuXuXuXuXuXuXuXuXuXuXuXuXuXuXuXuXuXuXuXuXuXuXuXuXuX",
"uXuXuXuXuXuXuXuXuXuXuXuXuXuXuXuXuXuXuXuXuXuXuXuXuXuXuXuXuXuXuXuXuXuXuXuX    @ T 6.7.6.' T A +       5 T 6.7.7.6.<.1.6.6.7.7.7.7.6.T T Y T T w       S 1.8.6.7.6.6.U       o y p s s l x x x x x l d s l x x x x x x x x x x x x x x x x x x x x x x x x x x x x x x x x x x x x x x x x x x x x x x x x x x x x x x x x l p O         5 T T T T 3.7.7.7.7.7.6.6.' S #         % S 3.6.7.7.7.7.9.'     uXuXuXuXuXuXuXuXuXuXuXuXuXuXuXuXuXuXuXuXuXuXuXuXuXuXuXuXuXuXuXuXuXuXuXuXuX",
"uXuXuXuXuXuXuXuXuXuXuXuXuXuXuXuXuXuXuXuXuXuXuXuXuXuXuXuXuXuXuXuXuXuXuXuXuX    3 ' 6.1.Y Z @       2 R 7.7.7.4.R T T E 1.7.7.7.7.6.<.R T T U T @     % D 6.4.6.<.T A             # O : s x x x x x l d s s l l x x x x x x x x x x x x x x x x x x x x x x x x x x x x x x x x x x x x x x x x x x x x x x x x x x x x x x x p -       @ U T T ' 4.7.7.7.7.7.7.7.7.7.<.Z %         1 U 1.6.7.7.6.S     uXuXuXuXuXuXuXuXuXuXuXuXuXuXuXuXuXuXuXuXuXuXuXuXuXuXuXuXuXuXuXuXuXuXuXuXuX",
"uXuXuXuXuXuXuXuXuXuXuXuXuXuXuXuXuXuXuXuXuXuXuXuXuXuXuXuXuXuXuXuXuXuXuXuXuX      Z ' ' S @       w 1.7.7.7.6.<.T T T U T 1.7.7.7.6.6.' T Y T T A       % D R T T T 6                   o p x x x x x l l s s d l x x x x x x x x x x x x x x x x x x x x x x x x x x x x x x x x x x l x x x x x x x x x x x x x x x x x x x x l o       5 Y T 1.6.7.7.7.7.6.6.7.7.7.7.<.F @         @ A 3.6.6.R +     uXuXuXuXuXuXuXuXuXuXuXuXuXuXuXuXuXuXuXuXuXuXuXuXuXuXuXuXuXuXuXuXuXuXuXuXuX",
"uXuXuXuXuXuXuXuXuXuXuXuXuXuXuXuXuXuXuXuXuXuXuXuXuXuXuXuXuXuXuXuXuXuXuXuXuXuX    + Z Z         3 R 6.7.7.7.6.' U U T T Y R 1.7.7.7.7.4.' U T U T 6 +     1 U U U A +                     o - x x x x x l d s s s l x x x x x x x x x x x x x x x x x x x x x x x x x x x x x x x l x x x x x x x x x x x x x x x x x x x x x x x y O       D T 6.7.7.7.7.4.<.' ' 1.6.7.7.7.4.D 1         % K R w     uXuXuXuXuXuXuXuXuXuXuXuXuXuXuXuXuXuXuXuXuXuXuXuXuXuXuXuXuXuXuXuXuXuXuXuXuXuX",
"uXuXuXuXuXuXuXuXuXuXuXuXuXuXuXuXuXuXuXuXuXuXuXuXuXuXuXuXuXuXuXuXuXuXuXuXuXuXuX    . +       6 1.7.7.7.7.7.6.<.T T T U T T E 1.7.7.7.6.1.R T T Y U w       Z U F @       . . 5 6 3 +       O x x x x x x x s s s s d x x x x x x x x x x x x x x x x x x x x x x x x x x x x l s l x x x x x x x x x x x x x x x x x x x x x x n x -       2 T 6.7.7.7.6.' Y T T <.4.7.7.7.7.1.U 2         @ 3       uXuXuXuXuXuXuXuXuXuXuXuXuXuXuXuXuXuXuXuXuXuXuXuXuXuXuXuXuXuXuXuXuXuXuXuXuXuX",
"uXuXuXuXuXuXuXuXuXuXuXuXuXuXuXuXuXuXuXuXuXuXuXuXuXuXuXuXuXuXuXuXuXuXuXuXuXuXuXuX        . Z <.6.7.7.7.6.7.7.4.R U T T T U T R 4.7.7.7.6.<.T Y Y T K 2     # 1           Z <.' T Y F 5 +     o x x x x x x l s s s s d x x x x x x x x x x x x x x x x x x x x x x x x x l l s l x x x x x x x x x x x x x n x x x x x x x x x d - o         D 3.7.7.6.<.T T U T T 4.7.7.7.7.7.7.6.U 3               uXuXuXuXuXuXuXuXuXuXuXuXuXuXuXuXuXuXuXuXuXuXuXuXuXuXuXuXuXuXuXuXuXuXuXuXuXuX",
"uXuXuXuXuXuXuXuXuXuXuXuXuXuXuXuXuXuXuXuXuXuXuXuXuXuXuXuXuXuXuXuXuXuXuXuXuXuXuXuX        5 ' 7.7.6.6.7.6.7.7.6.<.T T T U T T U <.6.7.7.7.6.' T T Y U U #             . S 4.6.6.<.T T U 5     o = x x x x x x s s s s s d d l l d l d d l d l l l l l d l l l l l l l l l l s d x x x x x x x x x x x x x x x x x x x x x x l :       2.A     2 T 7.6.3.R T Y U T T 1.7.7.7.7.7.7.7.4.R 6             uXuXuXuXuXuXuXuXuXuXuXuXuXuXuXuXuXuXuXuXuXuXuXuXuXuXuXuXuXuXuXuXuXuXuXuXuXuX",
"uXuXuXuXuXuXuXuXuXuXuXuXuXuXuXuXuXuXuXuXuXuXuXuXuXuXuXuXuXuXuXuXuXuXuXuXuXuXuX        A 6.7.7.4.1.<.1.6.7.7.7.6.R U Y Y T T Y T <.4.7.7.7.4.T T Y T T 6             5 ' 7.7.7.7.R T T D 2     : x x x x x x l s s s s s s s s s s s d s s d s s s s s d s s s s s s s s s d x x x x x x x x x x x x x x x x x x x x x x >       g.<X<XU.      Z <.6.' T T T T T T 1.7.7.7.7.6.4.7.7.7.6.' 5 .         uXuXuXuXuXuXuXuXuXuXuXuXuXuXuXuXuXuXuXuXuXuXuXuXuXuXuXuXuXuXuXuXuXuXuXuXuX",
"uXuXuXuXuXuXuXuXuXuXuXuXuXuXuXuXuXuXuXuXuXuXuXuXuXuXuXuXuXuXuXuXuXuXuXuXuXuX      + A <.6.7.6.' R T T ' 4.7.7.7.4.T T T T U T T T <.7.7.7.7.<.R T U Y T +         @ <.7.7.7.7.7.1.T Y Y 5     - l x x x x x l s s s s s s s s s s s s s s s s s s s s s s s s s s s d s s d x x x x x x x x x x x x x x x x x x x x > o     0.<XwXrXeX<X2.    + S 3.T Y Y U T Y R 7.7.7.7.4.1.<.1.4.7.7.6.' Z .           uXuXuXuXuXuXuXuXuXuXuXuXuXuXuXuXuXuXuXuXuXuXuXuXuXuXuXuXuXuXuXuXuXuXuX",
"uXuXuXuXuXuXuXuXuXuXuXuXuXuXuXuXuXuXuXuXuXuXuXuXuXuXuXuXuXuXuXuXuXuXuXuXuX        Z 1.7.7.7.4.T T T T T E 4.6.7.7.<.T U T T U U U ' 1.8.7.7.4.<.T T T U S @       % ' 6.7.7.7.7.4.T T T Z     o l x x x x x x s s s s s s s s s s s s s s s s s s s s s s s s s s s d s s x x x x x x x x x x x x x x x x x x x s O o   2.'.rXeXeXeXeXwX`.      2 D T T T T U T <.7.7.7.6.<.T T U <.6.7.7.7.6.<.Z @       uXuXuXuXuXuXuXuXuXuXuXuXuXuXuXuXuXuXuXuXuXuXuXuXuXuXuXuXuXuXuXuXuXuXuX",
"uXuXuXuXuXuXuXuXuXuXuXuXuXuXuXuXuXuXuXuXuXuXuXuXuXuXuXuXuXuXuXuXuXuXuXuX      @ D 4.6.7.7.7.1.T T U T U T <.4.6.7.6.R T T U T T U U ' 1.7.7.7.1.' Y T U U Z @     . w F K T <.3.4.<.U U D #   O s x x x x x l s s s s s s s s s s s s s s s s s s s s s s s s s s s s s s x x x x x x x x x x x x n x x x x d : O   Q E.tXeXeXeXeXeXeXeXwXh.      1 U T U T T E 1.7.7.4.<.U T U U R 4.7.7.7.7.6.<.D #       uXuXuXuXuXuXuXuXuXuXuXuXuXuXuXuXuXuXuXuXuXuXuXuXuXuXuXuXuXuXuXuXuXuX",
"uXuXuXuXuXuXuXuXuXuXuXuXuXuXuXuXuXuXuXuXuXuXuXuXuXuXuXuXuXuXuXuXuXuXuXuX      Z <.7.7.7.7.7.4.T T T T U Y T <.6.6.6.1.R T T T U T T T @.1.7.7.7.1.T U T U U Z           . . % 5 F K U U A +     s x x x x x x d s s s s s s p s s s s s s s s s s s s s s s s s s s s s d x x x x x x x x x x x x x x x l p - o 5 k.4XwXeXeXeXeXeXeXeXeXeX9X5 o   + w T T T U <.4.7.7.1.R T T T T E 1.7.7.7.7.7.7.6.U +       uXuXuXuXuXuXuXuXuXuXuXuXuXuXuXuXuXuXuXuXuXuXuXuXuXuXuXuXuXuXuXuXuX",
"uXuXuXuXuXuXuXuXuXuXuXuXuXuXuXuXuXuXuXuXuXuXuXuXuXuXuXuXuXuXuXuXuXuXuX      6 4.7.7.7.7.7.7.6.<.U U T T T U T <.6.6.6.<.T U T T T U U T <.4.7.7.4.R T T T T U 2                   + 1 2 A       y x x x x x l s s s s s s : > s s s s s s s s s s s s s s s s s s s s s l x x x x x x x x x n x x x x d y O + 0.`.4XeXeXeXeXeXeXeXeXeXeXeXeXR.6       U T U T 1.7.7.6.E U T U T T T 4.7.7.7.6.6.7.6.4.S       uXuXuXuXuXuXuXuXuXuXuXuXuXuXuXuXuXuXuXuXuXuXuXuXuXuXuXuXuXuXuXuXuX",
"uXuXuXuXuXuXuXuXuXuXuXuXuXuXuXuXuXuXuXuXuXuXuXuXuXuXuXuXuXuXuXuXuXuXuX      U 6.7.7.6.7.7.7.7.6.R T T T T U T T 1.6.7.4.' U T T T T T U T <.4.7.6.E T T T T Y U         %               #       > x x x x x l s s s s s d - ; p s s s s s s s s s s s s s s s s s s s s l x x x x x x x x x x x n n l -   F j..XrXeXeXeXeXeXeXeXeXeXeXeXeXeXrXq.@     2 U U ' 4.7.7.1.T U T U T U E 7.7.7.7.7.6.6.6.6.' %     uXuXuXuXuXuXuXuXuXuXuXuXuXuXuXuXuXuXuXuXuXuXuXuXuXuXuXuXuXuXuXuXuX",
"uXuXuXuXuXuXuXuXuXuXuXuXuXuXuXuXuXuXuXuXuXuXuXuXuXuXuXuXuXuXuXuXuXuXuX    2 <.6.6.4.4.6.7.7.7.7.1.T U T T T Y Y ' 1.7.7.1.R U T U T T T T T 1.7.4.1.U T Y U U U 3   . Z ' R Z 1 +               : d x x x x d s s s s s s : o s s s s s s s s s s s s s s s s d s s s s l n x x x x x x x x x x x y   # F R.9XeXeXeXeXeXeXeXeXeXeXeXeXeX0X9XR.G G       A U 1.4.7.4.<.U T T T T R <.7.7.7.6.4.E ' <.6.6.5       uXuXuXuXuXuXuXuXuXuXuXuXuXuXuXuXuXuXuXuXuXuXuXuXuXuXuXuXuXuXuXuX",
"uXuXuXuXuXuXuXuXuXuXuXuXuXuXuXuXuXuXuXuXuXuXuXuXuXuXuXuXuXuXuXuXuXuX      6 7.6.<.R R ' 3.6.7.7.6.' T T U Y T T T R 1.7.6.<.T T T U T U U T R 6.7.<.T U T Y T U 6     S 4.6.6.1.<.K 5 1           > l x x l s s s s s s p -   p s s s s s s s s s s s s s s s s s s s s d x x x x x x x x x x d > o   0.<XeXeXeXeXeXeXeXeXeXeXeXeXeX9X,XU.S   # Y 2     1 F 4.6.4.1.T U T U T U ' 1.7.7.6.1.T Y U T ' 4.U       uXuXuXuXuXuXuXuXuXuXuXuXuXuXuXuXuXuXuXuXuXuXuXuXuXuXuXuXuXuXuXuX",
"uXuXuXuXuXuXuXuXuXuXuXuXuXuXuXuXuXuXuXuXuXuXuXuXuXuXuXuXuXuXuXuXuXuX      D 6.1.T T T Y T 4.6.7.7.4.R U T T U T T T ' 6.6.4.E U T T T T T T T 4.4.E T T U Y T T 6     5 7.6.7.7.7.6.4.1.R 2 #     o : x x s s s s s s s > O o > s s s s s s s s s s s s s s s s s s s s d x x x x x x x x x l > o A Y.0XeXeXeXeXeXeXeXeXeXeXeXeX4X'.k.F         k E       6 <.6.4.<.T T T T T U <.6.7.7.1.E T Y T T ' 4.U       uXuXuXuXuXuXuXuXuXuXuXuXuXuXuXuXuXuXuXuXuXuXuXuXuXuXuXuXuXuXuXuX",
"uXuXuXuXuXuXuXuXuXuXuXuXuXuXuXuXuXuXuXuXuXuXuXuXuXuXuXuXuXuXuXuXuXuX      Z 6.<.T T T Y U R 4.7.7.7.<.R T T T U T T T <.1.6.1.T T T T U T T E 4.4.R T T T T U T D     w 3.7.7.7.7.7.7.7.6.<.K       o s d s s s s s s s =   o > s s s s s s s s s s s s s s s s s s s s s l x x x x x x x d O + W R.4XeXeXeXeXeXeXeXeXeXeXeX9X'.k.Y         + 2.g.Y.E     @ K 6.<.T T T U T T T 1.8.6.6.<.U T T Y Y R 6.U +     uXuXuXuXuXuXuXuXuXuXuXuXuXuXuXuXuXuXuXuXuXuXuXuXuXuXuXuXuXuXuXuX",
"uXuXuXuXuXuXuXuXuXuXuXuXuXuXuXuXuXuXuXuXuXuXuXuXuXuXuXuXuXuXuXuXuXuX      Z 3.<.T T U Y T T ' 1.7.7.4.<.T U T T T U T T 1.6.6.' T U T T U T <.6.1.T U T U T U T 6     6 6.7.7.7.7.7.7.7.7.7.6.3       - d s s s s s s s       : > > > > > > > > > y y > > y p s s s s s s d x x x x x x s O o 6 (.eXeXeXeXeXeXeXeXeXeXeX0X,XY.E           5.Y.'.wX9XE.      5 R R U T Y Y T Y ' 4.6.6.3.R T U T Y T ' 7.U       uXuXuXuXuXuXuXuXuXuXuXuXuXuXuXuXuXuXuXuXuXuXuXuXuXuXuXuXuXuXuXuX",
"uXuXuXuXuXuXuXuXuXuXuXuXuXuXuXuXuXuXuXuXuXuXuXuXuXuXuXuXuXuXuXuXuXuX      2 3.6.T U T T T T T E 6.7.7.1.E U U T U T U T ' <.8.6.' T T T T <.7.1.R U T T T T T U 3     Z 6.7.7.7.7.7.7.7.7.7.6.' #     o y s s s s s s >       o o o o O o O O O O O o O O O O p s s s s s d d x x x x d =   0.4XeXeXeXeXeXeXeXeXeXeXrX5X(.5.          5.E.,X0XeXeXeX4Xe.    . 6 T T T Y Y T T 1.6.6.6.' T U Y T T T <.3.S       uXuXuXuXuXuXuXuXuXuXuXuXuXuXuXuXuXuXuXuXuXuXuXuXuXuXuXuXuXuXuXuX",
"uXuXuXuXuXuXuXuXuXuXuXuXuXuXuXuXuXuXuXuXuXuXuXuXuXuXuXuXuXuXuXuXuXuXuX      T 6.<.T U T T U Y T <.6.7.6.1.T T T T T T T U T 1.6.1.<.<.<.6.6.6.<.T T T U U U T U %   + F 6.7.7.7.7.7.7.7.7.7.7.7.3     o : s s s s s y O                                     o : s s s s s s d d x x y o ; w.'.rXeXeXeXeXeXeXeXeXeXtX<Xg.#         2.E.<X0XeXeXeXeXeXrX5X      + Z T U Y T U T 4.6.6.4.T T T U T U ' 3.R 2       uXuXuXuXuXuXuXuXuXuXuXuXuXuXuXuXuXuXuXuXuXuXuXuXuXuXuXuXuXuXuXuX",
"uXuXuXuXuXuXuXuXuXuXuXuXuXuXuXuXuXuXuXuXuXuXuXuXuXuXuXuXuXuXuXuXuXuXuX      2 4.6.E U T T T Y T U 1.4.7.6.<.U U U T U T U T ' 6.7.7.7.7.7.6.' T T T T U T T U S     @ ' 4.6.6.6.7.7.7.7.7.7.6.1.A       > s s s s s -                                         : p s s s s s s s d s -   5.6XeXeXeXeXeXeXeXeXeXeXrXU.3         Y R.<X0XeXeXeXeXeXeXeXeXeXU.%     @ U T T Y Y ' 6.6.4.' Y Y T T U T ' 7.D #     uXuXuXuXuXuXuXuXuXuXuXuXuXuXuXuXuXuXuXuXuXuXuXuXuXuXuXuXuXuXuXuXuX",
"uXuXuXuXuXuXuXuXuXuXuXuXuXuXuXuXuXuXuXuXuXuXuXuXuXuXuXuXuXuXuXuXuXuXuXuX      D 1.1.T T U T T U T R 1.7.6.4.R T T T U T T T U 1.7.7.7.7.6.' R U Y U T T T Y S +     5 T R ' <.4.4.6.6.6.7.7.4.' %       - s s s s s                                           O p s s s s s s s s : 2 h.9XeXeXeXeXeXeXeXeXeXeX).Y         A k.,X9XeXeXeXeXeXeXeXeXeXrXeX`.2       5 U T T T 3.7.6.1.R T T U Y T T 1.<.3       uXuXuXuXuXuXuXuXuXuXuXuXuXuXuXuXuXuXuXuXuXuXuXuXuXuXuXuXuXuXuXuXuX",
"uXuXuXuXuXuXuXuXuXuXuXuXuXuXuXuXuXuXuXuXuXuXuXuXuXuXuXuXuXuXuXuXuXuXuXuX      @ T 6.<.Y U T T T T U T 4.7.6.1.U U T T T T U T <.7.7.7.6.' T T T T U U T T U 2       S T T U T T R ' 1.1.3.<.T F +       > s s s s :                                             - s s s s s s s s s 5.`.eXeXeXeXeXeXeXeXeX3Xj.S #     2 e.).4XeXeXeXeXeXeXeXeXeX9X4X).5.5 +         D Y U R 7.7.6.R Y U T U T T ' 3.K .       uXuXuXuXuXuXuXuXuXuXuXuXuXuXuXuXuXuXuXuXuXuXuXuXuXuXuXuXuXuXuXuXuX",
"uXuXuXuXuXuXuXuXuXuXuXuXuXuXuXuXuXuXuXuXuXuXuXuXuXuXuXuXuXuXuXuXuXuXuXuXuX      5 R 1.E T Y Y U T T U E 4.7.7.' T T T U T T T 1.6.7.1.' T U U T T T T T S 1       3 U U T T Y T T T T R T T T w       o y s s s y O         uXuXuXuXuXuXuXuXuXuX                o - s s s s s s d x.5X>XrXeXeXeXeXeXeX0X`.g.6     # E U.<XeXeXeXeXeXeXeXeXeX9X'.Y.2.    o : O o     2 D T <.6.6.3.T Y T Y T T U 1.6.3       uXuXuXuXuXuXuXuXuXuXuXuXuXuXuXuXuXuXuXuXuXuXuXuXuXuXuXuXuXuXuXuXuXuX",
"uXuXuXuXuXuXuXuXuXuXuXuXuXuXuXuXuXuXuXuXuXuXuXuXuXuXuXuXuXuXuXuXuXuXuXuXuX        w 3.<.R T T T T U T U <.4.4.4.R T T U T T <.6.6.6.<.T T Y U T U T U F @         + Z S K U T Y T U T T Y U S @       O p s s s =       uXuXuXuXuXuXuXuXuXuXuXuXuXuXuXuXuXuXuX      : s s s a g >.`.yX3XqXwXeXeXeXeXwX`.2.      7 3.(.wXeXeXeXeXeXeXeXeX0X).k.E   O O : l l s -       w R 3.7.4.' Y U T Y T T R 3.'         uXuXuXuXuXuXuXuXuXuXuXuXuXuXuXuXuXuXuXuXuXuXuXuXuXuXuXuXuXuXuXuXuXuX",
"uXuXuXuXuXuXuXuXuXuXuXuXuXuXuXuXuXuXuXuXuXuXuXuXuXuXuXuXuXuXuXuXuXuXuXuXuXuX      + S 6.' T T U T T T T T <.4.6.<.R T T R <.1.8.4.E U T U T T T T T U 2               + @ 3 Z D U U T U U D %       o > s s s s         uXuXuXuXuXuXuXuXuXuXuXuXuXuXuXuXuXuXuX      o : s s j >.>X9X9X9XyX<X0XeXeXrXk.        @ l.4XeXeXeXeXeXeXeXeXwX].k.E   O - > l x n x x > O     @ S 6.6.<.T T T Y Y Y Y ' <.S       uXuXuXuXuXuXuXuXuXuXuXuXuXuXuXuXuXuXuXuXuXuXuXuXuXuXuXuXuXuXuXuXuXuXuX",
"uXuXuXuXuXuXuXuXuXuXuXuXuXuXuXuXuXuXuXuXuXuXuXuXuXuXuXuXuXuXuXuXuXuXuXuXuXuXuX      . ' 3.E T Y U U T U T T <.6.4.4.<.1.1.4.7.1.' T T U T T T U U Z       . + +               @ 1 5 6 6 2           - p s s s >       uXuXuXuXuXuXuXuXuXuXuXuXuXuXuXuXuXuXuXuXuX      o - p ,.(.9X9X9X9X9X5X5XeX,X0.2       <.'.eXeXeXeXeXeXeXeXeX<XR.2.O O - p d x x x x x x d >       6 6.6.T U T T T Y T Y 3.R 1       uXuXuXuXuXuXuXuXuXuXuXuXuXuXuXuXuXuXuXuXuXuXuXuXuXuXuXuXuXuXuXuXuXuXuX",
"uXuXuXuXuXuXuXuXuXuXuXuXuXuXuXuXuXuXuXuXuXuXuXuXuXuXuXuXuXuXuXuXuXuXuXuXuXuXuX        2 1.3.T Y T T T T U Y U 4.7.7.7.7.7.7.4.@.T U T T U Y Y Y U 1       5 ' K 5 @ +                           o - p s s s y O       uXuXuXuXuXuXuXuXuXuXuXuXuXuXuXuXuXuXuXuXuXuX        ; I.9X9X9X9X9X9X9X4X).0.2     6 h.<XrXeXeXeXeXeXeXeX0X'.g.2 o - y l x n x x x x x x n d O     . Z <.T T T U T T U R 6.S       uXuXuXuXuXuXuXuXuXuXuXuXuXuXuXuXuXuXuXuXuXuXuXuXuXuXuXuXuXuXuXuXuXuXuXuX",
"uXuXuXuXuXuXuXuXuXuXuXuXuXuXuXuXuXuXuXuXuXuXuXuXuXuXuXuXuXuXuXuXuXuXuXuXuXuXuXuX        S <.<.T U T U T T U T E 4.7.7.7.7.1.R T T T T U U T T D @     + A 1.' T U K Z +                       O - y s s s s -       uXuXuXuXuXuXuXuXuXuXuXuXuXuXuXuXuXuXuXuXuXuXuXuX      i 0.3X9X9X9X9X9X9X).Y     o A j.<XeXeXeXeXeXeXeXeXrXR.S   = > d x x x x x x x x x x x l s       1 R T U Y Y T T T <.' 2       uXuXuXuXuXuXuXuXuXuXuXuXuXuXuXuXuXuXuXuXuXuXuXuXuXuXuXuXuXuXuXuXuXuXuXuX",
"uXuXuXuXuXuXuXuXuXuXuXuXuXuXuXuXuXuXuXuXuXuXuXuXuXuXuXuXuXuXuXuXuXuXuXuXuXuXuXuXuX      + U 4.R T T T T T T T T 4.7.7.6.4.E T T T U T T T U Z       . 6 T ' T T Y T 6       O - O O o o O - - > s s s s s s         uXuXuXuXuXuXuXuXuXuXuXuXuXuXuXuXuXuXuXuXuXuXuXuXuX        z.'.9X9X9X5XY.S       @ R.eXeXeXeXeXeXeXeXeX<X5.  o = s n x x x x x x x x x x x x x l -     # @ Y T T T U U R 3.D +     uXuXuXuXuXuXuXuXuXuXuXuXuXuXuXuXuXuXuXuXuXuXuXuXuXuXuXuXuXuXuXuXuXuXuXuXuX",
"uXuXuXuXuXuXuXuXuXuXuXuXuXuXuXuXuXuXuXuXuXuXuXuXuXuXuXuXuXuXuXuXuXuXuXuXuXuXuXuXuXuX      3 T 1.T T U T T T U E 4.6.7.1.E U T U T U U T T K %       + U T T T T F 6 +     O s l d s d s l s s s s s s s p >       uXuXuXuXuXuXuXuXuXuXuXuXuXuXuXuXuXuXuXuXuXuXuXuXuXuX        3 0.6X9X4X(.Y       2.R.0XeXeXeXeXeXeXeX9X(.E @ o > x x x x x x x x x x x x x x x x x l o     + 1 U T T U Y ' 6.%       uXuXuXuXuXuXuXuXuXuXuXuXuXuXuXuXuXuXuXuXuXuXuXuXuXuXuXuXuXuXuXuXuXuXuXuXuX",
"uXuXuXuXuXuXuXuXuXuXuXuXuXuXuXuXuXuXuXuXuXuXuXuXuXuXuXuXuXuXuXuXuXuXuXuXuXuXuXuXuXuX        5 1.E T T T U T U E 6.7.1.R T T T U T T Y T w           # 2 w S D 6 3 +       : x x x x x x x d s s s s s s > O       uXuXuXuXuXuXuXuXuXuXuXuXuXuXuXuXuXuXuXuXuXuXuXuXuXuXuXuX        e.'.U.+     @ E /.3X7X7XeXeXeXeXeXwX`.E   - d x x x x x x x x x x x x x x x x x x x y       1 T Y T T T <.R         uXuXuXuXuXuXuXuXuXuXuXuXuXuXuXuXuXuXuXuXuXuXuXuXuXuXuXuXuXuXuXuXuXuXuXuXuX",
"uXuXuXuXuXuXuXuXuXuXuXuXuXuXuXuXuXuXuXuXuXuXuXuXuXuXuXuXuXuXuXuXuXuXuXuXuXuXuXuXuXuXuX      . S 3.R T T U T E 4.6.4.E U U T T T Y T U S .                 .   #         = s x x x x x x d s s s s s s s =       uXuXuXuXuXuXuXuXuXuXuXuXuXuXuXuXuXuXuXuXuXuXuXuXuXuXuXuXuXuX        0.G X     2.`.9X9X9X<XyXeXeXeXeXR.% o : s x x x x x x x x x x x x x x x x x x x x x O     @ 6 T T T ' <.Z       uXuXuXuXuXuXuXuXuXuXuXuXuXuXuXuXuXuXuXuXuXuXuXuXuXuXuXuXuXuXuXuXuXuXuXuXuXuX",
"uXuXuXuXuXuXuXuXuXuXuXuXuXuXuXuXuXuXuXuXuXuXuXuXuXuXuXuXuXuXuXuXuXuXuXuXuXuXuXuXuXuXuXuX        ' <.<.R ' <.4.7.1.T U T T T U T U T A @     # 2 #                     - l x x x x x x x d s s s s s s s         uXuXuXuXuXuXuXuXuXuXuXuXuXuXuXuXuXuXuXuXuXuXuXuXuXuXuXuXuXuXuX      O @ Q ; e.,X9X9X9X9XyX5X0XrXqXY.A   - d x x x x x x x x x x x x x x x x x x x x x x p       Z T U T 1.U @       uXuXuXuXuXuXuXuXuXuXuXuXuXuXuXuXuXuXuXuXuXuXuXuXuXuXuXuXuXuXuXuXuXuXuXuXuXuX",
"uXuXuXuXuXuXuXuXuXuXuXuXuXuXuXuXuXuXuXuXuXuXuXuXuXuXuXuXuXuXuXuXuXuXuXuXuXuXuXuXuXuXuXuXuX      3 <.6.7.6.6.6.1.R T T T U T T T U 6       + 5 D Z @               O y l x x x x x x x l s s s s s s s :       uXuXuXuXuXuXuXuXuXuXuXuXuXuXuXuXuXuXuXuXuXuXuXuXuXuXuXuXuXuXuXuXuX        W 5.).9X9X9X9X9X9X9X4X3XE.A o > x x x x x x x x x x x x x x x x x x x x x x x x x O     6 ' ' 1.4.S       uXuXuXuXuXuXuXuXuXuXuXuXuXuXuXuXuXuXuXuXuXuXuXuXuXuXuXuXuXuXuXuXuXuXuXuXuXuXuX",
"uXuXuXuXuXuXuXuXuXuXuXuXuXuXuXuXuXuXuXuXuXuXuXuXuXuXuXuXuXuXuXuXuXuXuXuXuXuXuXuXuXuXuXuXuX        S <.7.6.7.3.R T T T U T T U T S +       6 U T T 2       O = = y d l n x x x x x x x d s s s s s s y O       uXuXuXuXuXuXuXuXuXuXuXuXuXuXuXuXuXuXuXuXuXuXuXuXuXuXuXuXuXuXuXuXuXuX      @ 6 >X4X9X9X9X9X9X9X4XI.7 O : l x x x x x x x x x x x x x x x x x x x x x x x x l :     3 1.6.7.R 1       uXuXuXuXuXuXuXuXuXuXuXuXuXuXuXuXuXuXuXuXuXuXuXuXuXuXuXuXuXuXuXuXuXuXuXuXuXuXuX",
"uXuXuXuXuXuXuXuXuXuXuXuXuXuXuXuXuXuXuXuXuXuXuXuXuXuXuXuXuXuXuXuXuXuXuXuXuXuXuXuXuXuXuXuXuXuX      @ D 7.6.<.T T U T T U T T T 6       @ S U T Y F @     O d d x x x x x x x x x x x d s s s s s s s =       uXuXuXuXuXuXuXuXuXuXuXuXuXuXuXuXuXuXuXuXuXuXuXuXuXuXuXuXuXuXuXuXuXuXuXuX        5./.9X9X9X9X9X9X].,.y > x x x x x x x x x x x x x x x x x x x x x x x x x x x > o   6 4.6.6.A .     uXuXuXuXuXuXuXuXuXuXuXuXuXuXuXuXuXuXuXuXuXuXuXuXuXuXuXuXuXuXuXuXuXuXuXuXuXuXuXuX",
"uXuXuXuXuXuXuXuXuXuXuXuXuXuXuXuXuXuXuXuXuXuXuXuXuXuXuXuXuXuXuXuXuXuXuXuXuXuXuXuXuXuXuXuXuXuXuX      2 U ' T T Y U T T T U U 6       + Z U T U U 2       > x x x x x x x x x x x x x d s s s s s s s o       uXuXuXuXuXuXuXuXuXuXuXuXuXuXuXuXuXuXuXuXuXuXuXuXuXuXuXuXuXuXuXuXuXuXuXuXuX      o A ).4X9X9X9X`.%.d s s l x x x x x x x x x x x x x x x x x x x x x x x x x x s o   @ <.6.6.@       uXuXuXuXuXuXuXuXuXuXuXuXuXuXuXuXuXuXuXuXuXuXuXuXuXuXuXuXuXuXuXuXuXuXuXuXuXuXuXuX",
"uXuXuXuXuXuXuXuXuXuXuXuXuXuXuXuXuXuXuXuXuXuXuXuXuXuXuXuXuXuXuXuXuXuXuXuXuXuXuXuXuXuXuXuXuXuXuX        2 U T T Y T T U U T Z +     + Z T T U K w #     o d x x x x x x x x x x x x l s s s s s s s :       uXuXuXuXuXuXuXuXuXuXuXuXuXuXuXuXuXuXuXuXuXuXuXuXuXuXuXuXuXuXuXuXuXuXuXuXuXuXuX        @.W.9X9XyXx.z s s s d l x x x x x x x x x x x x x x x x x x x x x x x x x d o   3 T ' K         uXuXuXuXuXuXuXuXuXuXuXuXuXuXuXuXuXuXuXuXuXuXuXuXuXuXuXuXuXuXuXuXuXuXuXuXuXuXuXuX",
"uXuXuXuXuXuXuXuXuXuXuXuXuXuXuXuXuXuXuXuXuXuXuXuXuXuXuXuXuXuXuXuXuXuXuXuXuXuXuXuXuXuXuXuXuXuXuXuX      # 5 K Y T T Y T F 1         2 Z U S A 3       o p x x x x x x x x x x x x x d s s s s s s > O       uXuXuXuXuXuXuXuXuXuXuXuXuXuXuXuXuXuXuXuXuXuXuXuXuXuXuXuXuXuXuXuXuXuXuXuXuXuXuXuX        W R.>Xz.z s s s s s s l x x x x x x x x x x x x x x x x x x x x x x x x d O   5 Y T 3       uXuXuXuXuXuXuXuXuXuXuXuXuXuXuXuXuXuXuXuXuXuXuXuXuXuXuXuXuXuXuXuXuXuXuXuXuXuXuXuXuX",
"uXuXuXuXuXuXuXuXuXuXuXuXuXuXuXuXuXuXuXuXuXuXuXuXuXuXuXuXuXuXuXuXuXuXuXuXuXuXuXuXuXuXuXuXuXuXuXuXuX        @ Z D D K 3               . . + #         - d x x x x x x x x x x x x l s s s s s s s -       uXuXuXuXuXuXuXuXuXuXuXuXuXuXuXuXuXuXuXuXuXuXuXuXuXuXuXuXuXuXuXuXuXuXuXuXuXuXuXuXuXuX        6 I.$.f s s s s s s s l x x x x x x x x x d d s p s l x x x x x x x x l O   A T D #     uXuXuXuXuXuXuXuXuXuXuXuXuXuXuXuXuXuXuXuXuXuXuXuXuXuXuXuXuXuXuXuXuXuXuXuXuXuXuXuXuXuX",
"uXuXuXuXuXuXuXuXuXuXuXuXuXuXuXuXuXuXuXuXuXuXuXuXuXuXuXuXuXuXuXuXuXuXuXuXuXuXuXuXuXuXuXuXuXuXuXuXuXuX            .                               o : x x x x x x x x x x x x x l d s s s s s s s o       uXuXuXuXuXuXuXuXuXuXuXuXuXuXuXuXuXuXuXuXuXuXuXuXuXuXuXuXuXuXuXuXuXuXuXuXuXuXuXuXuXuXuX        o ; p s s s s s s l x x x x x x x x x x d s p > > : > s l x x x x x s O + S Z         uXuXuXuXuXuXuXuXuXuXuXuXuXuXuXuXuXuXuXuXuXuXuXuXuXuXuXuXuXuXuXuXuXuXuXuXuXuXuXuXuXuX",
"uXuXuXuXuXuXuXuXuXuXuXuXuXuXuXuXuXuXuXuXuXuXuXuXuXuXuXuXuXuXuXuXuXuXuXuXuXuXuXuXuXuXuXuXuXuXuXuXuXuXuX                                        O - y p s l x x x x x x x x x x l s s s s s s s >       uXuXuXuXuXuXuXuXuXuXuXuXuXuXuXuXuXuXuXuXuXuXuXuXuXuXuXuXuXuXuXuXuXuXuXuXuXuXuXuXuXuXuXuXuX          y p s s s s l l x x x x x x x x x x x x x x s > - - : s x x x x l o + @ #         uXuXuXuXuXuXuXuXuXuXuXuXuXuXuXuXuXuXuXuXuXuXuXuXuXuXuXuXuXuXuXuXuXuXuXuXuXuXuXuXuXuX",
"uXuXuXuXuXuXuXuXuXuXuXuXuXuXuXuXuXuXuXuXuXuXuXuXuXuXuXuXuXuXuXuXuXuXuXuXuXuXuXuXuXuXuXuXuXuXuXuXuXuXuXuX                      o - O o O o O - O y s d l x x x x x x x x x x x l d s s s s s > O       uXuXuXuXuXuXuXuXuXuXuXuXuXuXuXuXuXuXuXuXuXuXuXuXuXuXuXuXuXuXuXuXuXuXuXuXuXuXuXuXuXuXuXuXuXuX        O : s s d l x x x x x x x x x x x x x x x x x x d : O O : d x x > o           uXuXuXuXuXuXuXuXuXuXuXuXuXuXuXuXuXuXuXuXuXuXuXuXuXuXuXuXuXuXuXuXuXuXuXuXuXuXuXuXuXuXuXuX",
"uXuXuXuXuXuXuXuXuXuXuXuXuXuXuXuXuXuXuXuXuXuXuXuXuXuXuXuXuXuXuXuXuXuXuXuXuXuXuXuXuXuXuXuXuXuXuXuXuXuXuXuXuXuXuXuX  uXuXuXuX    O p d l > - O > s l x x x x x x x x x x x x x x x x d s s s s O       uXuXuXuXuXuXuXuXuXuXuXuXuXuXuXuXuXuXuXuXuXuXuXuXuXuXuXuXuXuXuXuXuXuXuXuXuXuXuXuXuXuXuXuXuXuXuXuX          : s l x x x x x x x x x x x x x x x x x x x x x s - o - p l -           uXuXuXuXuXuXuXuXuXuXuXuXuXuXuXuXuXuXuXuXuXuXuXuXuXuXuXuXuXuXuXuXuXuXuXuXuXuXuXuXuXuXuXuXuX",
"uXuXuXuXuXuXuXuXuXuXuXuXuXuXuXuXuXuXuXuXuXuXuXuXuXuXuXuXuXuXuXuXuXuXuXuXuXuXuXuXuXuXuXuXuXuXuXuXuXuXuXuXuXuXuXuXuXuXuXuXuX    o s l : O - s d x x x x x x x x x x x x x x x x x x l d s s s o       uXuXuXuXuXuXuXuXuXuXuXuXuXuXuXuXuXuXuXuXuXuXuXuXuXuXuXuXuXuXuXuXuXuXuXuXuXuXuXuXuXuXuXuXuXuXuXuXuX        O d x x x x x x x x x x x x x x x x x x x x x x x l > o o : O         uXuXuXuXuXuXuXuXuXuXuXuXuXuXuXuXuXuXuXuXuXuXuXuXuXuXuXuXuXuXuXuXuXuXuXuXuXuXuXuXuXuXuXuXuXuX",
"uXuXuXuXuXuXuXuXuXuXuXuXuXuXuXuXuXuXuXuXuXuXuXuXuXuXuXuXuXuXuXuXuXuXuXuXuXuXuXuXuXuXuXuXuXuXuXuXuXuXuXuXuXuXuXuXuXuXuXuXuX      : - o : s x x x x x x x x x x x x x x x x x x x x x x d s :       uXuXuXuXuXuXuXuXuXuXuXuXuXuXuXuXuXuXuXuXuXuXuXuXuXuXuXuXuXuXuXuXuXuXuXuXuXuXuXuXuXuXuXuXuXuXuXuXuXuXuX      : x x x x x x x x x x x x x x x x x x x x x x x x x l y O o   uXuXuXuXuXuXuXuXuXuXuXuXuXuXuXuXuXuXuXuXuXuXuXuXuXuXuXuXuXuXuXuXuXuXuXuXuXuXuXuXuXuXuXuXuXuXuXuXuXuX",
"uXuXuXuXuXuXuXuXuXuXuXuXuXuXuXuXuXuXuXuXuXuXuXuXuXuXuXuXuXuXuXuXuXuXuXuXuXuXuXuXuXuXuXuXuXuXuXuXuXuXuXuXuXuXuXuXuXuXuXuXuXuX    o o > d x x x x x x x x x x x x x x x x x x x x x x x l p O       uXuXuXuXuXuXuXuXuXuXuXuXuXuXuXuXuXuXuXuXuXuXuXuXuXuXuXuXuXuXuXuXuXuXuXuXuXuXuXuXuXuXuXuXuXuXuXuXuXuXuXuX  O l x x x x x x x x x x x x x x x x x x x x x x x x x x x y o   uXuXuXuXuXuXuXuXuXuXuXuXuXuXuXuXuXuXuXuXuXuXuXuXuXuXuXuXuXuXuXuXuXuXuXuXuXuXuXuXuXuXuXuXuXuXuXuXuXuX",
"uXuXuXuXuXuXuXuXuXuXuXuXuXuXuXuXuXuXuXuXuXuXuXuXuXuXuXuXuXuXuXuXuXuXuXuXuXuXuXuXuXuXuXuXuXuXuXuXuXuXuXuXuXuXuXuXuXuXuXuXuXuX    o p x x x x x x x x x x x x x x x x x x x x x x x x x x d o     uXuXuXuXuXuXuXuXuXuXuXuXuXuXuXuXuXuXuXuXuXuXuXuXuXuXuXuXuXuXuXuXuXuXuXuXuXuXuXuXuXuXuXuXuXuXuXuXuXuXuXuXuXuXd x x x x x x n x x x x x x x x x x x x x x x x x x x x x l >     uXuXuXuXuXuXuXuXuXuXuXuXuXuXuXuXuXuXuXuXuXuXuXuXuXuXuXuXuXuXuXuXuXuXuXuXuXuXuXuXuXuXuXuXuXuXuXuXuX",
"uXuXuXuXuXuXuXuXuXuXuXuXuXuXuXuXuXuXuXuXuXuXuXuXuXuXuXuXuXuXuXuXuXuXuXuXuXuXuXuXuXuXuXuXuXuXuXuXuXuXuXuXuXuXuXuXuXuXuXuXuXuX    > x x x x x x x x x x x x x x x x x x x x x x x x x x x x p     uXuXuXuXuXuXuXuXuXuXuXuXuXuXuXuXuXuXuXuXuXuXuXuXuXuXuXuXuXuXuXuXuXuXuXuXuXuXuXuXuXuXuXuXuXuXuXuXuXuXuXuXuXd x x x x x x x x x x x x x x x x x x x x x x x x x x x x x x l -     uXuXuXuXuXuXuXuXuXuXuXuXuXuXuXuXuXuXuXuXuXuXuXuXuXuXuXuXuXuXuXuXuXuXuXuXuXuXuXuXuXuXuXuXuXuXuXuX",
"uXuXuXuXuXuXuXuXuXuXuXuXuXuXuXuXuXuXuXuXuXuXuXuXuXuXuXuXuXuXuXuXuXuXuXuXuXuXuXuXuXuXuXuXuXuXuXuXuXuXuXuXuXuXuXuXuXuXuXuXuX    : x x x x x x x x x x x x x x x x x x x x x x x x x x x x x l : uXuXuXuXuXuXuXuXuXuXuXuXuXuXuXuXuXuXuXuXuXuXuXuXuXuXuXuXuXuXuXuXuXuXuXuXuXuXuXuXuXuXuXuXuXuXuXuXuXuXuXuXuXuXl x x x x x x x x x x x x x x x x x x x x x x x x x x x x x x x d o     uXuXuXuXuXuXuXuXuXuXuXuXuXuXuXuXuXuXuXuXuXuXuXuXuXuXuXuXuXuXuXuXuXuXuXuXuXuXuXuXuXuXuXuXuXuXuX",
"uXuXuXuXuXuXuXuXuXuXuXuXuXuXuXuXuXuXuXuXuXuXuXuXuXuXuXuXuXuXuXuXuXuXuXuXuXuXuXuXuXuXuXuXuXuXuXuXuXuXuXuXuXuXuXuXuXuXuXuX    O l x x x x x x x x x x x x x x x x x x x x x x x x x x x x x x d uXuXuXuXuXuXuXuXuXuXuXuXuXuXuXuXuXuXuXuXuXuXuXuXuXuXuXuXuXuXuXuXuXuXuXuXuXuXuXuXuXuXuXuXuXuXuXuXuXuXuXuXuXp x x x x x x x x x x x x x x x x x x x x x x x x x x x n x x x x x >     uXuXuXuXuXuXuXuXuXuXuXuXuXuXuXuXuXuXuXuXuXuXuXuXuXuXuXuXuXuXuXuXuXuXuXuXuXuXuXuXuXuXuXuXuXuXuX",
"uXuXuXuXuXuXuXuXuXuXuXuXuXuXuXuXuXuXuXuXuXuXuXuXuXuXuXuXuXuXuXuXuXuXuXuXuXuXuXuXuXuXuXuXuXuXuXuXuXuXuXuXuXuXuXuXuXuXuXuX  o p x x x x x x x x x x x x x x x x x x x x x x x x x x x x x x x x s uXuXuXuXuXuXuXuXuXuXuXuXuXuXuXuXuXuXuXuXuXuXuXuXuXuXuXuXuXuXuXuXuXuXuXuXuXuXuXuXuXuXuXuXuXuXuXuXuXuXuXO l x x x x x x x x x x x x x x x x x x x x x x x x x x x x x x x x x d       uXuXuXuXuXuXuXuXuXuXuXuXuXuXuXuXuXuXuXuXuXuXuXuXuXuXuXuXuXuXuXuXuXuXuXuXuXuXuXuXuXuXuXuXuXuX",
"uXuXuXuXuXuXuXuXuXuXuXuXuXuXuXuXuXuXuXuXuXuXuXuXuXuXuXuXuXuXuXuXuXuXuXuXuXuXuXuXuXuXuXuXuXuXuXuXuXuXuXuXuXuXuXuXuXuXuX    O x x x x x x x x x x x x x x x x x x x x x x x x x x x x x x x x x x - uXuXuXuXuXuXuXuXuXuXuXuXuXuXuXuXuXuXuXuXuXuXuXuXuXuXuXuXuXuXuXuXuXuXuXuXuXuXuXuXuXuXuXuXuXuXuXuXuXuXy n x x x x x x x x x x x x x x x x x x x x x x x x x x x x x x x x x x =     uXuXuXuXuXuXuXuXuXuXuXuXuXuXuXuXuXuXuXuXuXuXuXuXuXuXuXuXuXuXuXuXuXuXuXuXuXuXuXuXuXuXuXuXuXuX",
"uXuXuXuXuXuXuXuXuXuXuXuXuXuXuXuXuXuXuXuXuXuXuXuXuXuXuXuXuXuXuXuXuXuXuXuXuXuXuXuXuXuXuXuXuXuXuXuXuXuXuXuXuXuXuXuXuXuXuX    p x x x x x x x x x x x x x x x x x x x x x x x x x x x x x x x x x x s   uXuXuXuXuXuXuXuXuXuXuXuXuXuXuXuXuXuXuXuXuXuXuXuXuXuXuXuXuXuXuXuXuXuXuXuXuXuXuXuXuXuXuXuXuXuXuXuXo l x x x x x x x x x x x x x x x x x x x x x x x x x x x x x x x x x x x y       uXuXuXuXuXuXuXuXuXuXuXuXuXuXuXuXuXuXuXuXuXuXuXuXuXuXuXuXuXuXuXuXuXuXuXuXuXuXuXuXuXuXuXuXuX",
"uXuXuXuXuXuXuXuXuXuXuXuXuXuXuXuXuXuXuXuXuXuXuXuXuXuXuXuXuXuXuXuXuXuXuXuXuXuXuXuXuXuXuXuXuXuXuXuXuXuXuXuXuXuXuXuXuXuX    o l x x x x x x x x x x x x x x x x x x x x x x x x x x x x x x x x x x x - uXuXuXuXuXuXuXuXuXuXuXuXuXuXuXuXuXuXuXuXuXuXuXuXuXuXuXuXuXuXuXuXuXuXuXuXuXuXuXuXuXuXuXuXuXuXuXuX- x x x x x x x x x x x x x x x x x x x x x x x x x x x x x x x x x x x x s       uXuXuXuXuXuXuXuXuXuXuXuXuXuXuXuXuXuXuXuXuXuXuXuXuXuXuXuXuXuXuXuXuXuXuXuXuXuXuXuXuXuXuXuXuX",
"uXuXuXuXuXuXuXuXuXuXuXuXuXuXuXuXuXuXuXuXuXuXuXuXuXuXuXuXuXuXuXuXuXuXuXuXuXuXuXuXuXuXuXuXuXuXuXuXuXuXuXuXuXuXuXuXuXuX    - x x x x x x x x x x x x x x x x x x x x x x x x x x x x x x x x x x x x s   uXuXuXuXuXuXuXuXuXuXuXuXuXuXuXuXuXuXuXuXuXuXuXuXuXuXuXuXuXuXuXuXuXuXuXuXuXuXuXuXuXuXuXuXuXuX  s x x x x x x x x x x x x x x x x x x x x x x x x x x x x x x x x x x x x l       uXuXuXuXuXuXuXuXuXuXuXuXuXuXuXuXuXuXuXuXuXuXuXuXuXuXuXuXuXuXuXuXuXuXuXuXuXuXuXuXuXuXuXuXuX",
"uXuXuXuXuXuXuXuXuXuXuXuXuXuXuXuXuXuXuXuXuXuXuXuXuXuXuXuXuXuXuXuXuXuXuXuXuXuXuXuXuXuXuXuXuXuXuXuXuXuXuXuXuXuXuXuXuX      > x x x x x x x x x x x x x x x x x x x x x x x x x x x x x x x x x x x x l O uXuXuXuXuXuXuXuXuXuXuXuXuXuXuXuXuXuXuXuXuXuXuXuXuXuXuXuXuXuXuXuXuXuXuXuXuXuXuXuXuXuXuXuXuXuXo l x x x x x x x x x x x x x x x x x x x x x x x x x x x x x x x x x x x x n         uXuXuXuXuXuXuXuXuXuXuXuXuXuXuXuXuXuXuXuXuXuXuXuXuXuXuXuXuXuXuXuXuXuXuXuXuXuXuXuXuXuXuXuX",
"uXuXuXuXuXuXuXuXuXuXuXuXuXuXuXuXuXuXuXuXuXuXuXuXuXuXuXuXuXuXuXuXuXuXuXuXuXuXuXuXuXuXuXuXuXuXuXuXuXuXuXuXuXuXuXuXuX      s x x x x x x x x x x x x x x x x x x n x x x x x x x x x x x x x x x x x x :   uXuXuXuXuXuXuXuXuXuXuXuXuXuXuXuXuXuXuXuXuXuXuXuXuXuXuXuXuXuXuXuXuXuXuXuXuXuXuXuXuXuXuXuXuX- x x x x x x x x x x x x x x x x x x x x x x x x x x x x x x x x x x x x x x o       uXuXuXuXuXuXuXuXuXuXuXuXuXuXuXuXuXuXuXuXuXuXuXuXuXuXuXuXuXuXuXuXuXuXuXuXuXuXuXuXuXuXuXuX",
"uXuXuXuXuXuXuXuXuXuXuXuXuXuXuXuXuXuXuXuXuXuXuXuXuXuXuXuXuXuXuXuXuXuXuXuXuXuXuXuXuXuXuXuXuXuXuXuXuXuXuXuXuXuXuXuXuX      d x x x x x x x x x x x x x x x x x x x x x x x x x x x x x x x x x x x x x s   uXuXuXuXuXuXuXuXuXuXuXuXuXuXuXuXuXuXuXuXuXuXuXuXuXuXuXuXuXuXuXuXuXuXuXuXuXuXuXuXuXuXuXuX  : x x x x x x x x x x x x x x x x x x x x x x x x x x x x x x x x x x x x x x         uXuXuXuXuXuXuXuXuXuXuXuXuXuXuXuXuXuXuXuXuXuXuXuXuXuXuXuXuXuXuXuXuXuXuXuXuXuXuXuXuXuXuXuX",
"uXuXuXuXuXuXuXuXuXuXuXuXuXuXuXuXuXuXuXuXuXuXuXuXuXuXuXuXuXuXuXuXuXuXuXuXuXuXuXuXuXuXuXuXuXuXuXuXuXuXuXuXuXuXuXuXuX      d x x x x x x x x x x x x x x x x x x x x x x x x x x x x x x x x x x x x x l   uXuXuXuXuXuXuXuXuXuXuXuXuXuXuXuXuXuXuXuXuXuXuXuXuXuXuXuXuXuXuXuXuXuXuXuXuXuXuXuXuXuXuXuX  p x x x x x x x x x x x x x x x x x x x x x x x x x x x x x x x x x x x x x x             uXuXuXuXuXuXuXuXuXuXuXuXuXuXuXuXuXuXuXuXuXuXuXuXuXuXuXuXuXuXuXuXuXuXuXuXuXuXuXuXuXuX",
"uXuXuXuXuXuXuXuXuXuXuXuXuXuXuXuXuXuXuXuXuXuXuXuXuXuXuXuXuXuXuXuXuXuXuXuXuXuXuXuXuXuXuXuXuXuXuXuXuXuXuXuXuXuXuXuXuX      s x x x x x x x x x x x x x x x x x x x x x x x x x x x x x x x x x x x x x x o uXuXuXuXuXuXuXuXuXuXuXuXuXuXuXuXuXuXuXuXuXuXuXuXuXuXuXuXuXuXuXuXuXuXuXuXuXuXuXuXuXuXuXuX  p x x x x x x x x x x x x x x x x x x x x x x x x x x x x x x x x x x x x d p               uXuXuXuXuXuXuXuXuXuXuXuXuXuXuXuXuXuXuXuXuXuXuXuXuXuXuXuXuXuXuXuXuXuXuXuXuXuXuXuXuX",
"uXuXuXuXuXuXuXuXuXuXuXuXuXuXuXuXuXuXuXuXuXuXuXuXuXuXuXuXuXuXuXuXuXuXuXuXuXuXuXuXuXuXuXuXuXuXuXuXuXuXuXuXuXuXuXuXuX      s x x x x x x x x x x x x x x x x x x x x x x x x x x x x x x x x x x x x x x o   uXuXuXuXuXuXuXuXuXuXuXuXuXuXuXuXuXuXuXuXuXuXuXuXuXuXuXuXuXuXuXuXuXuXuXuXuXuXuXuXuXuXuX  y x x x x x x x x x x x x x x x x x x x x x x x x x x x x x x x l s p y : - O               uXuXuXuXuXuXuXuXuXuXuXuXuXuXuXuXuXuXuXuXuXuXuXuXuXuXuXuXuXuXuXuXuXuXuXuXuXuXuXuXuX",
"uXuXuXuXuXuXuXuXuXuXuXuXuXuXuXuXuXuXuXuXuXuXuXuXuXuXuXuXuXuXuXuXuXuXuXuXuXuXuXuXuXuXuXuXuXuXuXuXuXuXuXuXuXuXuXuXuX      y x x x x x x x x x x x x x x x x x x x x x x x x x x x x x x x x x x x x x x     uX    uXuXuXuXuXuXuXuXuXuXuXuXuXuXuXuXuXuXuXuXuXuXuXuXuXuXuXuXuXuXuXuXuXuXuXuXuXuXuXuX  : l l x x x x x x x x x x x x x x x x x x x x x x x l d s s y > - = O o           % 5       uXuXuXuXuXuXuXuXuXuXuXuXuXuXuXuXuXuXuXuXuXuXuXuXuXuXuXuXuXuXuXuXuXuXuXuXuXuXuXuXuX",
"uXuXuXuXuXuXuXuXuXuXuXuXuXuXuXuXuXuXuXuXuXuXuXuXuXuXuXuXuXuXuXuXuXuXuXuXuXuXuXuXuXuXuXuXuXuXuXuXuXuXuXuXuXuX            - d x x x x x x x x x x x x x x x x x x x x x x x x x x x x x x x x x d p : =           uXuXuXuXuXuXuXuXuXuXuXuXuXuXuXuXuXuXuXuXuXuXuXuXuXuXuXuXuXuXuXuXuXuXuXuXuX        o : y p s d s d d d d d d d d l d d s s s s p y y > : - O O o             @ w F U ' <..     uXuXuXuXuXuXuXuXuXuXuXuXuXuXuXuXuXuXuXuXuXuXuXuXuXuXuXuXuXuXuXuXuXuXuXuXuXuXuXuXuX",
"uXuXuXuXuXuXuXuXuXuXuXuXuXuXuXuXuXuXuXuXuXuXuXuXuXuXuXuXuXuXuXuXuXuXuXuXuXuXuXuXuXuXuXuXuXuXuXuXuXuXuXuXuXuX            o - - : > p s s d l x x x x x x x x x x x n x x x x x l d s p > - - O O o o             uXuXuXuXuXuXuXuXuXuXuXuXuXuXuXuXuXuXuXuXuXuXuXuXuXuXuXuXuXuXuXuXuXuXuXuXuX                    o O O O = - = - - - - = = O O O o                   + 2 Z D K R 4.9.w.w.9.+     uXuXuXuXuXuXuXuXuXuXuXuXuXuXuXuXuXuXuXuXuXuXuXuXuXuXuXuXuXuXuXuXuXuXuXuXuXuXuXuXuX",
"uXuXuXuXuXuXuXuXuXuXuXuXuXuXuXuXuXuXuXuXuXuXuXuXuXuXuXuXuXuXuXuXuXuXuXuXuXuXuXuXuXuXuXuXuXuXuXuXuXuXuXuXuXuX                    o o O O O - = - - : : : > : > > > : : - - - O O O o o o                 3       uXuXuXuXuXuXuXuXuXuXuXuXuXuXuXuXuXuXuXuXuXuXuXuXuXuXuXuXuXuXuXuXuXuXuXuXuX      + @ + +                                               @ 3 5 Z S D T <.6.9.w.w.w.w.9.9.6.+     uXuXuXuXuXuXuXuXuXuXuXuXuXuXuXuXuXuXuXuXuXuXuXuXuXuXuXuXuXuXuXuXuXuXuXuXuXuXuXuXuX",
"uXuXuXuXuXuXuXuXuXuXuXuXuXuXuXuXuXuXuXuXuXuXuXuXuXuXuXuXuXuXuXuXuXuXuXuXuXuXuXuXuXuXuXuXuXuXuXuXuXuXuXuXuXuX    # K K S 5 @                       o o   o   o o   o                           2 D T <.4.8.@     uXuXuXuXuXuXuXuXuXuXuXuXuXuXuXuXuXuXuXuXuXuXuXuXuXuXuXuXuXuXuXuXuXuXuXuXuX    A 4.4.E U Z 3 2 2 2 2 2 2 1 2 2 3 2 2 3 3 6 6 6 Z A A U T <.4.8.q.w.w.w.w.w.9.9.8.8.8.7.4.+     uXuXuXuXuXuXuXuXuXuXuXuXuXuXuXuXuXuXuXuXuXuXuXuXuXuXuXuXuXuXuXuXuXuXuXuXuXuXuXuXuX",
"uXuXuXuXuXuXuXuXuXuXuXuXuXuXuXuXuXuXuXuXuXuXuXuXuXuXuXuXuXuXuXuXuXuXuXuXuXuXuXuXuXuXuXuXuXuXuXuXuXuXuXuXuXuX    + 9.q.7.3.' R T K F A 6 1 +                                   . 2 6 D U E <.3.7.8.q.w.w.w.1     uXuXuXuXuXuXuXuXuXuXuXuXuXuXuXuXuXuXuXuXuXuXuXuXuXuXuXuXuXuXuXuXuXuXuXuXuX    A 8.w.w.w.w.w.w.q.8.7.7.4.3.3.3.2.3.3.4.4.7.8.8.q.q.w.w.w.w.w.q.q.9.9.9.9.8.8.7.7.6.6.7.6.@     uXuXuXuXuXuXuXuXuXuXuXuXuXuXuXuXuXuXuXuXuXuXuXuXuXuXuXuXuXuXuXuXuXuXuXuXuXuXuXuXuX",
"uXuXuXuXuXuXuXuXuXuXuXuXuXuXuXuXuXuXuXuXuXuXuXuXuXuXuXuXuXuXuXuXuXuXuXuXuXuXuXuXuXuXuXuXuXuXuXuXuXuXuXuXuXuX    + 8.q.w.w.w.w.w.q.8.7.4.3.<.' R R R T T T T T T R R ' ' <.<.1.1.4.7.8.9.w.w.w.w.w.8.5.<.' @     uXuXuXuXuXuXuXuXuXuXuXuXuXuXuXuXuXuXuXuXuXuXuXuXuXuXuXuXuXuXuXuXuXuXuXuXuX    2 <.4.7.8.9.9.q.w.w.w.w.w.w.w.w.w.w.w.w.w.w.w.w.w.q.q.q.q.8.q.8.8.8.7.7.7.7.7.7.7.7.7.7.7.%     uXuXuXuXuXuXuXuXuXuXuXuXuXuXuXuXuXuXuXuXuXuXuXuXuXuXuXuXuXuXuXuXuXuXuXuXuXuXuXuXuX",
"uXuXuXuXuXuXuXuXuXuXuXuXuXuXuXuXuXuXuXuXuXuXuXuXuXuXuXuXuXuXuXuXuXuXuXuXuXuXuXuXuXuXuXuXuXuXuXuXuXuXuXuXuXuX      4.8.8.9.9.9.9.q.q.w.w.w.w.w.w.w.w.q.w.q.q.q.q.w.q.w.q.w.w.w.w.w.w.w.w.9.9.8.3.' R R T Y @     uXuXuXuXuXuXuXuXuXuXuXuXuXuXuXuXuXuXuXuXuXuXuXuXuXuXuXuXuXuXuXuXuXuXuXuXuX    @ U Y Y Y T ' 7.8.8.8.8.q.9.9.8.9.9.9.9.8.8.8.8.8.8.8.8.7.7.7.7.7.7.7.7.7.7.7.7.7.7.7.7.7.2     uXuXuXuXuXuXuXuXuXuXuXuXuXuXuXuXuXuXuXuXuXuXuXuXuXuXuXuXuXuXuXuXuXuXuXuXuXuXuXuXuX",
"uXuXuXuXuXuXuXuXuXuXuXuXuXuXuXuXuXuXuXuXuXuXuXuXuXuXuXuXuXuXuXuXuXuXuXuXuXuXuXuXuXuXuXuXuXuXuXuXuXuXuXuXuXuX    # 4.7.7.7.7.8.7.8.8.8.8.8.9.9.9.9.9.q.q.q.w.q.q.q.q.9.9.9.9.9.9.8.8.8.7.7.8.7.' T U T T T @     uXuXuXuXuXuXuXuXuXuXuXuXuXuXuXuXuXuXuXuXuXuXuXuXuXuXuXuXuXuXuXuXuXuXuXuXuX    # F T Y Y T R 5.7.7.7.7.7.7.7.7.7.7.7.7.7.7.7.7.7.7.7.7.7.7.7.7.7.7.7.7.7.7.7.7.7.7.7.7.7.5     uXuXuXuXuXuXuXuXuXuXuXuXuXuXuXuXuXuXuXuXuXuXuXuXuXuXuXuXuXuXuXuXuXuXuXuXuXuXuXuXuX",
"uXuXuXuXuXuXuXuXuXuXuXuXuXuXuXuXuXuXuXuXuXuXuXuXuXuXuXuXuXuXuXuXuXuXuXuXuXuXuXuXuXuXuXuXuXuXuXuXuXuXuXuXuXuX      4.7.7.7.7.7.7.7.7.7.7.7.7.8.7.8.8.8.8.8.8.8.7.7.8.7.7.7.8.7.7.7.7.7.7.7.7.6.' T U T T U %     uXuXuXuXuXuXuXuXuXuXuXuXuXuXuXuXuXuXuXuXuXuXuXuXuXuXuXuXuXuXuXuXuXuXuXuXuX      F Y T U T T 4.6.7.7.7.7.7.7.6.7.7.7.7.7.7.7.7.7.7.7.7.7.7.7.7.7.7.7.7.7.7.7.7.7.7.7.7.7.6 #   uXuXuXuXuXuXuXuXuXuXuXuXuXuXuXuXuXuXuXuXuXuXuXuXuXuXuXuXuXuXuXuXuXuXuXuXuXuXuXuXuX",
"uXuXuXuXuXuXuXuXuXuXuXuXuXuXuXuXuXuXuXuXuXuXuXuXuXuXuXuXuXuXuXuXuXuXuXuXuXuXuXuXuXuXuXuXuXuXuXuXuXuXuXuXuXuX      4.7.7.7.7.7.7.7.7.7.7.7.7.6.7.6.6.7.7.6.6.7.6.7.7.7.7.7.7.7.7.7.7.7.7.7.6.6.' T T U T T %     uXuXuXuXuXuXuXuXuXuXuXuXuXuXuXuXuXuXuXuXuXuXuXuXuXuXuXuXuXuXuXuXuXuXuXuXuX      F T T U T T 4.6.7.7.7.7.7.7.7.7.7.7.7.6.7.7.7.7.7.7.7.7.7.7.7.7.7.7.7.7.7.7.7.7.7.7.7.7.Z     uXuXuXuXuXuXuXuXuXuXuXuXuXuXuXuXuXuXuXuXuXuXuXuXuXuXuXuXuXuXuXuXuXuXuXuXuXuXuXuXuX",
"uXuXuXuXuXuXuXuXuXuXuXuXuXuXuXuXuXuXuXuXuXuXuXuXuXuXuXuXuXuXuXuXuXuXuXuXuXuXuXuXuXuXuXuXuXuXuXuXuXuXuXuXuXuX      3.7.7.7.7.7.7.7.7.7.7.7.7.7.7.6.7.7.7.7.7.7.7.7.7.7.7.7.7.7.7.7.7.7.7.7.7.6.' T T T T T %     uXuXuXuXuXuXuXuXuXuXuXuXuXuXuXuXuXuXuXuXuXuXuXuXuXuXuXuXuXuXuXuXuXuXuXuXuX      D T T T T T 4.7.7.7.7.7.7.7.7.7.7.7.7.7.7.7.7.7.7.7.7.7.7.7.7.7.7.7.7.7.7.7.7.7.7.7.7.7.S +   uXuXuXuXuXuXuXuXuXuXuXuXuXuXuXuXuXuXuXuXuXuXuXuXuXuXuXuXuXuXuXuXuXuXuXuXuXuXuXuXuX",
"uXuXuXuXuXuXuXuXuXuXuXuXuXuXuXuXuXuXuXuXuXuXuXuXuXuXuXuXuXuXuXuXuXuXuXuXuXuXuXuXuXuXuXuXuXuXuXuXuXuXuXuXuXuX      3.7.7.7.7.7.7.7.7.7.7.7.7.7.7.7.7.7.7.7.7.7.7.7.7.7.7.7.7.7.7.7.7.7.7.7.7.6.' T U T U Y 1     uXuXuXuXuXuXuXuXuXuXuXuXuXuXuXuXuXuXuXuXuXuXuXuXuXuXuXuXuXuXuXuXuXuXuXuXuX      F T U T U U 4.7.7.7.7.7.7.7.7.7.7.7.7.7.7.7.7.7.7.7.7.7.7.7.7.7.7.7.7.7.7.7.7.7.7.7.7.7.D +   uXuXuXuXuXuXuXuXuXuXuXuXuXuXuXuXuXuXuXuXuXuXuXuXuXuXuXuXuXuXuXuXuXuXuXuXuXuXuXuXuX",
"uXuXuXuXuXuXuXuXuXuXuXuXuXuXuXuXuXuXuXuXuXuXuXuXuXuXuXuXuXuXuXuXuXuXuXuXuXuXuXuXuXuXuXuXuXuXuXuXuXuXuXuXuXuX      1.7.7.7.7.7.7.7.7.7.7.7.7.7.7.7.7.7.7.7.7.7.7.7.7.7.7.7.6.7.7.7.7.7.7.7.7.7.' T Y Y Y T 1     uXuXuXuXuXuXuXuXuXuXuXuXuXuXuXuXuXuXuXuXuXuXuXuXuXuXuXuXuXuXuXuXuXuXuXuXuX      F T T T T U 4.6.7.7.7.7.7.7.7.7.7.7.7.7.7.7.7.7.7.7.7.7.7.7.7.7.7.7.7.7.7.7.7.7.7.7.7.7.K +     uXuXuXuXuXuXuXuXuXuXuXuXuXuXuXuXuXuXuXuXuXuXuXuXuXuXuXuXuXuXuXuXuXuXuXuXuXuXuXuX",
"uXuXuXuXuXuXuXuXuXuXuXuXuXuXuXuXuXuXuXuXuXuXuXuXuXuXuXuXuXuXuXuXuXuXuXuXuXuXuXuXuXuXuXuXuXuXuXuXuXuXuXuXuXuX      1.7.7.7.7.7.7.7.7.7.7.7.7.7.7.7.7.7.7.7.7.7.7.7.7.7.7.7.7.7.7.7.7.7.7.7.7.7.' T T Y T Y 1     uXuXuXuXuXuXuXuXuXuXuXuXuXuXuXuXuXuXuXuXuXuXuXuXuXuXuXuXuXuXuXuXuXuXuXuXuXuX    D U Y U T Y 1.6.7.7.7.7.7.7.7.7.7.7.7.7.7.7.7.7.7.7.7.7.7.7.7.7.7.7.7.7.7.7.7.7.7.7.7.7.T +     uXuXuXuXuXuXuXuXuXuXuXuXuXuXuXuXuXuXuXuXuXuXuXuXuXuXuXuXuXuXuXuXuXuXuXuXuXuXuXuX",
"uXuXuXuXuXuXuXuXuXuXuXuXuXuXuXuXuXuXuXuXuXuXuXuXuXuXuXuXuXuXuXuXuXuXuXuXuXuXuXuXuXuXuXuXuXuXuXuXuXuXuXuXuXuX      1.7.7.7.7.7.7.7.7.7.7.7.7.7.7.7.7.7.7.7.7.7.7.7.7.7.7.7.7.7.7.7.7.7.7.7.7.6.' T Y Y Y T 2     uXuXuXuXuXuXuXuXuXuXuXuXuXuXuXuXuXuXuXuXuXuXuXuXuXuXuXuXuXuXuXuXuXuXuXuXuXuX    S U Y T T Y 1.4.7.7.7.7.7.7.7.7.7.7.7.7.7.7.7.7.7.7.7.7.7.7.7.7.7.7.7.7.7.7.7.7.7.7.7.7.T @     uXuXuXuXuXuXuXuXuXuXuXuXuXuXuXuXuXuXuXuXuXuXuXuXuXuXuXuXuXuXuXuXuXuXuXuXuXuXuXuX",
"uXuXuXuXuXuXuXuXuXuXuXuXuXuXuXuXuXuXuXuXuXuXuXuXuXuXuXuXuXuXuXuXuXuXuXuXuXuXuXuXuXuXuXuXuXuXuXuXuXuXuXuXuXuX      <.7.7.7.7.7.7.7.7.7.7.7.7.7.7.7.7.7.7.7.7.7.7.7.7.7.7.7.7.7.7.7.7.7.7.7.7.6.' T Y Y T Y 3     uXuXuXuXuXuXuXuXuXuXuXuXuXuXuXuXuXuXuXuXuXuXuXuXuXuXuXuXuXuXuXuXuXuXuXuXuXuX    A T T T U Y <.6.7.7.7.7.7.7.7.7.7.7.7.7.7.7.7.7.7.7.7.7.7.7.7.7.7.7.7.7.7.7.7.7.7.7.7.7.' @     uXuXuXuXuXuXuXuXuXuXuXuXuXuXuXuXuXuXuXuXuXuXuXuXuXuXuXuXuXuXuXuXuXuXuXuXuXuXuXuX",
"uXuXuXuXuXuXuXuXuXuXuXuXuXuXuXuXuXuXuXuXuXuXuXuXuXuXuXuXuXuXuXuXuXuXuXuXuXuXuXuXuXuXuXuXuXuXuXuXuXuXuXuXuXuX      <.7.7.7.7.7.7.7.7.7.7.7.7.7.7.7.7.7.7.7.7.7.7.7.7.7.7.7.7.7.7.7.7.7.7.7.7.7.<.U T U T Y 2     uXuXuXuXuXuXuXuXuXuXuXuXuXuXuXuXuXuXuXuXuXuXuXuXuXuXuXuXuXuXuXuXuXuXuXuXuXuX    Z U U U T T <.4.6.7.7.7.7.7.7.7.7.7.7.7.7.7.7.7.7.7.7.7.7.7.7.7.7.7.7.7.7.7.7.7.7.7.7.7.<.1     uXuXuXuXuXuXuXuXuXuXuXuXuXuXuXuXuXuXuXuXuXuXuXuXuXuXuXuXuXuXuXuXuXuXuXuXuXuXuXuX",
"uXuXuXuXuXuXuXuXuXuXuXuXuXuXuXuXuXuXuXuXuXuXuXuXuXuXuXuXuXuXuXuXuXuXuXuXuXuXuXuXuXuXuXuXuXuXuXuXuXuXuXuXuXuX      <.7.7.7.7.7.7.7.7.7.7.7.7.7.7.7.7.7.7.7.7.7.7.7.7.7.7.7.7.7.7.7.7.7.7.7.7.4.<.T Y U T T 2     uXuXuXuXuXuXuXuXuXuXuXuXuXuXuXuXuXuXuXuXuXuXuXuXuXuXuXuXuXuXuXuXuXuXuXuXuXuX    Z U T T U T <.6.6.6.7.7.7.7.7.7.7.7.7.7.7.7.7.7.7.7.7.7.7.7.7.7.7.7.7.7.7.7.7.7.7.7.7.6.<.1     uXuXuXuXuXuXuXuXuXuXuXuXuXuXuXuXuXuXuXuXuXuXuXuXuXuXuXuXuXuXuXuXuXuXuXuXuXuXuXuX",
"uXuXuXuXuXuXuXuXuXuXuXuXuXuXuXuXuXuXuXuXuXuXuXuXuXuXuXuXuXuXuXuXuXuXuXuXuXuXuXuXuXuXuXuXuXuXuXuXuXuXuXuXuXuX      <.6.7.7.7.7.7.7.7.7.7.7.7.7.7.7.7.7.7.7.7.7.7.7.7.7.7.7.7.7.7.7.7.6.8.7.7.7.' T T T T T 5     uXuXuXuXuXuXuXuXuXuXuXuXuXuXuXuXuXuXuXuXuXuXuXuXuXuXuXuXuXuXuXuXuXuXuXuXuXuX    5 U T T T T <.4.7.7.7.7.7.7.7.7.7.7.7.7.7.7.7.7.7.7.7.7.7.7.7.7.7.7.7.7.7.7.7.7.7.7.7.6.1.1     uXuXuXuXuXuXuXuXuXuXuXuXuXuXuXuXuXuXuXuXuXuXuXuXuXuXuXuXuXuXuXuXuXuXuXuXuXuXuXuX",
"uXuXuXuXuXuXuXuXuXuXuXuXuXuXuXuXuXuXuXuXuXuXuXuXuXuXuXuXuXuXuXuXuXuXuXuXuXuXuXuXuXuXuXuXuXuXuXuXuXuXuXuXuXuX      ' 7.7.7.7.7.7.7.7.7.7.7.7.7.7.7.7.7.7.7.7.7.7.7.7.7.7.7.7.7.7.7.7.6.6.7.7.7.<.T T U T U 5 #   uXuXuXuXuXuXuXuXuXuXuXuXuXuXuXuXuXuXuXuXuXuXuXuXuXuXuXuXuXuXuXuXuXuXuXuXuXuX    3 K T U T U E 1.6.6.7.7.7.7.7.7.7.7.7.7.7.7.7.7.7.7.7.7.7.7.7.7.7.7.7.7.7.7.7.6.4.3.1.<.R %     uXuXuXuXuXuXuXuXuXuXuXuXuXuXuXuXuXuXuXuXuXuXuXuXuXuXuXuXuXuXuXuXuXuXuXuXuXuXuXuX",
"uXuXuXuXuXuXuXuXuXuXuXuXuXuXuXuXuXuXuXuXuXuXuXuXuXuXuXuXuXuXuXuXuXuXuXuXuXuXuXuXuXuXuXuXuXuXuXuXuXuXuXuXuXuX      ' 6.6.7.7.7.7.7.7.7.7.7.7.7.7.7.7.7.7.7.7.7.7.7.7.7.7.7.7.7.7.7.7.7.6.7.4.1.E Y Y T T U 6     uXuXuXuXuXuXuXuXuXuXuXuXuXuXuXuXuXuXuXuXuXuXuXuXuXuXuXuXuXuXuXuXuXuXuXuXuXuX    1 K T T T T T E <.1.4.4.4.4.4.7.7.7.7.7.7.7.7.7.7.7.7.6.7.7.7.7.7.7.6.4.1.1.<.<.' R U 6 2 #     uXuXuXuXuXuXuXuXuXuXuXuXuXuXuXuXuXuXuXuXuXuXuXuXuXuXuXuXuXuXuXuXuXuXuXuXuXuXuXuX",
"uXuXuXuXuXuXuXuXuXuXuXuXuXuXuXuXuXuXuXuXuXuXuXuXuXuXuXuXuXuXuXuXuXuXuXuXuXuXuXuXuXuXuXuXuXuXuXuXuXuXuXuXuXuX      <.6.6.7.7.7.7.7.7.7.7.7.7.7.7.7.7.7.6.7.7.7.7.7.7.7.7.7.7.7.7.7.4.4.<.<.T T T U T U T U 6     uXuXuXuXuXuXuXuXuXuXuXuXuXuXuXuXuXuXuXuXuXuXuXuXuXuXuXuXuXuXuXuXuXuXuXuXuXuX    % F U T U U T T U T T E <.<.1.1.1.4.1.4.4.4.4.4.4.3.4.4.3.3.3.3.<.<.<.' ' ' T D 6 3 %           uXuXuXuXuXuXuXuXuXuXuXuXuXuXuXuXuXuXuXuXuXuXuXuXuXuXuXuXuXuXuXuXuXuXuXuXuXuXuXuX",
"uXuXuXuXuXuXuXuXuXuXuXuXuXuXuXuXuXuXuXuXuXuXuXuXuXuXuXuXuXuXuXuXuXuXuXuXuXuXuXuXuXuXuXuXuXuXuXuXuXuXuXuXuXuX      T 1.4.4.6.7.7.7.7.7.6.7.7.6.6.7.7.7.6.7.7.7.7.7.7.6.7.6.4.3.<.<.R R T U T T T T U T T T 3 +   uXuXuXuXuXuXuXuXuXuXuXuXuXuXuXuXuXuXuXuXuXuXuXuXuXuXuXuXuXuXuXuXuXuXuXuXuXuX    @ S U T T T T Y T T T T U T T T T R R R E E E ' ' ' ' ' ' R R T T T Y U Z w 3 % #           uXuXuXuXuXuXuXuXuXuXuXuXuXuXuXuXuXuXuXuXuXuXuXuXuXuXuXuXuXuXuXuXuXuXuXuXuXuXuXuXuXuX",
"uXuXuXuXuXuXuXuXuXuXuXuXuXuXuXuXuXuXuXuXuXuXuXuXuXuXuXuXuXuXuXuXuXuXuXuXuXuXuXuXuXuXuXuXuXuXuXuXuXuXuXuXuXuX      5 F T E E <.<.<.3.3.4.3.6.6.4.6.6.6.6.6.3.3.3.1.<.' ' ' R R T T U T T T U U T T T U 6 @       uXuXuXuXuXuXuXuXuXuXuXuXuXuXuXuXuXuXuXuXuXuXuXuXuXuXuXuXuXuXuXuXuXuXuXuXuXuX      1 Z D D F U U U T T U U T U T T T T U T T T U T Y U T T Y U D Z w 5 1 @               uXuXuXuXuXuXuXuXuXuXuXuXuXuXuXuXuXuXuXuXuXuXuXuXuXuXuXuXuXuXuXuXuXuXuXuXuXuXuXuXuXuXuXuX",
"uXuXuXuXuXuXuXuXuXuXuXuXuXuXuXuXuXuXuXuXuXuXuXuXuXuXuXuXuXuXuXuXuXuXuXuXuXuXuXuXuXuXuXuXuXuXuXuXuXuXuXuXuXuX        @ 2 3 w D T R R R ' R E R ' ' ' @.R R R R R R T T T U T T U T T Y Y Y T U A 2 @ @           uXuXuXuXuXuXuXuXuXuXuXuXuXuXuXuXuXuXuXuXuXuXuXuXuXuXuXuXuXuXuXuXuXuXuXuXuXuX              + 5 Z S D D S D K K K U U K U U K K F S A Z w w 6 3 1 +                   uXuXuXuXuXuXuXuXuXuXuXuXuXuXuXuXuXuXuXuXuXuXuXuXuXuXuXuXuXuXuXuXuXuXuXuXuXuXuXuXuXuXuXuXuXuX",
"uXuXuXuXuXuXuXuXuXuXuXuXuXuXuXuXuXuXuXuXuXuXuXuXuXuXuXuXuXuXuXuXuXuXuXuXuXuXuXuXuXuXuXuXuXuXuXuXuXuXuXuXuXuXuX            # @ 2 2 3 Z D K T T T U T T T T T Y T T Y T T T T T T U U S 6 % @ + +               uXuXuXuXuXuXuXuXuXuXuXuXuXuXuXuXuXuXuXuXuXuXuXuXuXuXuXuXuXuXuXuXuXuXuXuXuXuXuXuX                          + 1 1 3 3 6 6 5 5 3 3 1 @ +                 @ 1 w Z %       uXuXuXuXuXuXuXuXuXuXuXuXuXuXuXuXuXuXuXuXuXuXuXuXuXuXuXuXuXuXuXuXuXuXuXuXuXuXuXuXuXuXuXuXuXuX",
"uXuXuXuXuXuXuXuXuXuXuXuXuXuXuXuXuXuXuXuXuXuXuXuXuXuXuXuXuXuXuXuXuXuXuXuXuXuXuXuXuXuXuXuXuXuXuXuXuXuXuXuXuXuXuXuXuX                  + @ 1 1 2 2 1 5 w Z Z S S D S S w 6 3 % % @ % @ +                   uXuXuXuXuXuXuXuXuXuXuXuXuXuXuXuXuXuXuXuXuXuXuXuXuXuXuXuXuXuXuXuXuXuXuXuXuXuXuXuXuXuXuXuXuXuXuX            #                                     . @ 1 5 Z S U R 1.@.3       uXuXuXuXuXuXuXuXuXuXuXuXuXuXuXuXuXuXuXuXuXuXuXuXuXuXuXuXuXuXuXuXuXuXuXuXuXuXuXuXuXuXuXuXuXuX",
"uXuXuXuXuXuXuXuXuXuXuXuXuXuXuXuXuXuXuXuXuXuXuXuXuXuXuXuXuXuXuXuXuXuXuXuXuXuXuXuXuXuXuXuXuXuXuXuXuXuXuXuXuXuXuXuXuXuXuXuXuX                        . + + + + + @ + @ +                     # % 3 #     uXuXuXuXuXuXuXuXuXuXuXuXuXuXuXuXuXuXuXuXuXuXuXuXuXuXuXuXuXuXuXuXuXuXuXuXuXuXuXuXuXuXuXuXuXuXuXuXuX      2 6 2 1 % % @ % % 1 1 1 1 1 1 2 3 5 6 Z S F U R ' 4.6.7.7.7.1.2       uXuXuXuXuXuXuXuXuXuXuXuXuXuXuXuXuXuXuXuXuXuXuXuXuXuXuXuXuXuXuXuXuXuXuXuXuXuXuXuXuXuXuXuXuXuX",
"uXuXuXuXuXuXuXuXuXuXuXuXuXuXuXuXuXuXuXuXuXuXuXuXuXuXuXuXuXuXuXuXuXuXuXuXuXuXuXuXuXuXuXuXuXuXuXuXuXuXuXuXuXuXuXuXuXuXuXuXuX      ; S S w 3 % @                               # + 1 2 5 Z S D U A #     uXuXuXuXuXuXuXuXuXuXuXuXuXuXuXuXuXuXuXuXuXuXuXuXuXuXuXuXuXuXuXuXuXuXuXuXuXuXuXuXuXuXuXuXuXuXuXuXuX      A T U T U U K ' ' R R R R R R ' <.1.4.6.7.7.7.7.7.6.7.7.7.5.@.2       uXuXuXuXuXuXuXuXuXuXuXuXuXuXuXuXuXuXuXuXuXuXuXuXuXuXuXuXuXuXuXuXuXuXuXuXuXuXuXuXuXuXuXuXuXuX",
"uXuXuXuXuXuXuXuXuXuXuXuXuXuXuXuXuXuXuXuXuXuXuXuXuXuXuXuXuXuXuXuXuXuXuXuXuXuXuXuXuXuXuXuXuXuXuXuXuXuXuXuXuXuXuXuXuXuXuXuXuX      2 <.1.<.' ' R T Y K F D S D S S S S K K U T ' ' ' U U U Y Y Y i       uXuXuXuXuXuXuXuXuXuXuXuXuXuXuXuXuXuXuXuXuXuXuXuXuXuXuXuXuXuXuXuXuXuXuXuXuXuXuXuXuXuXuXuXuXuXuXuXuX      Z T T T T T U <.6.7.6.7.7.7.7.7.7.7.7.7.7.7.7.7.7.6.7.7.7.8.W 1       uXuXuXuXuXuXuXuXuXuXuXuXuXuXuXuXuXuXuXuXuXuXuXuXuXuXuXuXuXuXuXuXuXuXuXuXuXuXuXuXuXuXuXuXuXuX",
"uXuXuXuXuXuXuXuXuXuXuXuXuXuXuXuXuXuXuXuXuXuXuXuXuXuXuXuXuXuXuXuXuXuXuXuXuXuXuXuXuXuXuXuXuXuXuXuXuXuXuXuXuXuXuXuXuXuXuX          + <.7.7.7.7.7.7.6.6.4.3.3.3.3.3.3.4.4.6.6.6.7.7.1.T T T T T U 2       uXuXuXuXuXuXuXuXuXuXuXuXuXuXuXuXuXuXuXuXuXuXuXuXuXuXuXuXuXuXuXuXuXuXuXuXuXuXuXuXuXuXuXuXuXuXuXuXuX      3 U T T U T T 1.1.7.7.7.7.7.7.7.7.7.7.7.7.7.7.7.7.7.7.7.7.7.Y @         uXuXuXuXuXuXuXuXuXuXuXuXuXuXuXuXuXuXuXuXuXuXuXuXuXuXuXuXuXuXuXuXuXuXuXuXuXuXuXuXuXuXuXuXuX",
"uXuXuXuXuXuXuXuXuXuXuXuXuXuXuXuXuXuXuXuXuXuXuXuXuXuXuXuXuXuXuXuXuXuXuXuXuXuXuXuXuXuXuXuXuXuXuXuXuXuXuXuXuXuXuXuXuX                R 7.7.7.7.7.7.7.7.7.7.7.7.7.7.7.7.6.7.7.7.7.7.<.T U T Y Y T @     uXuXuXuXuXuXuXuXuXuXuXuXuXuXuXuXuXuXuXuXuXuXuXuXuXuXuXuXuXuXuXuXuXuXuXuXuXuXuXuXuXuXuXuXuXuXuXuXuXuXuX    O S U T T U T ' 1.7.7.7.7.7.7.7.7.7.7.7.7.7.7.7.7.7.7.7.7.7.D O             uXuXuXuXuXuXuXuXuXuXuXuXuXuXuXuXuXuXuXuXuXuXuXuXuXuXuXuXuXuXuXuXuXuXuXuXuXuXuXuXuXuXuX",
"uXuXuXuXuXuXuXuXuXuXuXuXuXuXuXuXuXuXuXuXuXuXuXuXuXuXuXuXuXuXuXuXuXuXuXuXuXuXuXuXuXuXuXuXuXuXuXuXuXuXuXuXuXuX                      Y 6.7.7.7.7.7.7.7.7.7.7.7.7.7.q.1.9.1.9.1.1.8.@.T Y Y T Y T %     uXuXuXuXuXuXuXuXuXuXuXuXuXuXuXuXuXuXuXuXuXuXuXuXuXuXuXuXuXuXuXuXuXuXuXuXuXuXuXuXuXuXuXuXuXuXuXuXuXuXuX      i W T T U T T 1.6.7.7.7.7.7.7.7.7.7.7.7.7.7.7.7.7.7.7.7.7.Z o   + +             uXuXuXuXuXuXuXuXuXuXuXuXuXuXuXuXuXuXuXuXuXuXuXuXuXuXuXuXuXuXuXuXuXuXuXuXuXuXuXuX",
"uXuXuXuXuXuXuXuXuXuXuXuXuXuXuXuXuXuXuXuXuXuXuXuXuXuXuXuXuXuXuXuXuXuXuXuXuXuXuXuXuXuXuX      uXuXuXuXuXuX              @ U R %     F 3.7.7.7.7.7.7.7.7.7.7.7.7.7.1.9.1.9.1.8.9.8.' Y Y T Y Y F +     uXuXuXuXuXuXuXuXuXuXuXuXuXuXuXuXuXuXuXuXuXuXuXuXuXuXuXuXuXuXuXuXuXuXuXuXuXuXuXuXuXuXuXuXuXuXuXuXuXuX        3 U T T Y T T @.4.7.7.7.7.7.7.7.7.7.7.7.7.7.7.7.7.7.7.7.@.3   % U F 6 1         # . uXuX                      uXuXuXuXuXuXuXuXuXuXuXuXuXuXuXuXuXuXuXuXuXuXuXuXuX",
"uXuXuXuXuXuXuXuXuXuXuXuXuXuXuXuXuXuXuXuXuXuXuXuXuXuXuXuXuXuXuXuXuXuXuXuXuX                  . #                   A 3.9.q.9.5     3 1.9.7.7.7.7.7.7.7.7.7.7.7.7.q.9.1.9.q.1.1.1.T U Y Y Y T 3 o       uXuXuXuXuXuXuXuXuXuXuXuXuXuXuXuXuXuXuXuXuXuXuXuXuXuXuXuXuXuXuXuXuXuXuXuXuXuXuXuXuXuXuXuXuXuXuXuX          + Z T T T T Y T 1.6.7.7.7.7.7.7.7.7.7.7.7.7.7.7.7.7.7.6.Q O + K 8.w.w.4.S 2 + % 5 w Z S Z A A Z A w w 5 @             uXuXuXuXuXuXuXuXuXuXuXuXuXuXuXuXuXuXuXuXuX",
"uXuXuXuXuXuXuXuXuXuXuXuXuXuXuXuXuXuXuXuXuXuXuXuXuXuXuXuXuXuXuXuXuXuX            . w U ' 1.6.8.q.7.7.7.3.<.U 6 S 4.q.w.w.w.w.U @   + <.1.7.7.7.7.7.7.7.7.7.7.7.7.9.1.9.1.9.9.1.' T T T Y Y Y %           uXuXuXuXuXuXuXuXuXuXuXuXuXuXuXuXuXuXuXuXuXuXuXuXuXuXuXuXuXuXuXuXuXuXuXuXuXuXuXuXuXuXuXuXuXuX        + 2   2 K T U T Y Y <.1.6.7.7.7.7.7.7.7.7.7.7.7.7.7.7.7.6.<.3 @ F 7.w.w.w.9.9.3.K R 1.9.q.w.w.w.w.w.w.9.8.<.T D Z 2             uXuXuXuXuXuXuXuXuXuXuXuXuXuXuXuXuXuX",
"uXuXuXuXuXuXuXuXuXuXuXuXuXuXuXuXuXuXuXuXuXuXuXuXuXuXuXuXuXuXuX            % D ' 6.7.q.q.w.w.w.w.w.w.w.w.w.9.9.9.4.4.q.w.w.w.8.Z + o D 1.9.1.1.8.7.7.7.7.7.7.7.7.1.1.9.8.1.9.1.' T T U T T i o 1 2       uXuXuXuXuXuXuXuXuXuXuXuXuXuXuXuXuXuXuXuXuXuXuXuXuXuXuXuXuXuXuXuXuXuXuXuXuXuXuXuXuXuXuXuXuX        D 7.<.w @ 6 U T Y Y Y T @.1.8.7.7.7.7.7.7.7.7.7.7.7.7.7.7.1.S i Q 6.w.w.w.w.8.6.9.q.w.w.w.w.w.w.w.w.w.w.w.w.w.w.w.9.' K 6 .           uXuXuXuXuXuXuXuXuXuXuXuXuXuXuXuX",
"uXuXuXuXuXuXuXuXuXuXuXuXuXuXuXuXuXuXuXuXuXuXuXuXuXuXuXuXuX            6 ' 6.8.w.w.w.w.w.w.w.w.w.w.w.e.w.w.w.9.9.q.w.q.q.w.w.q.<.5 + = @.1.8.9.9.7.7.7.7.7.7.7.7.9.8.9.1.8.1.<.T U T T T D @ 6 1.3.5       uXuXuXuXuXuXuXuXuXuXuXuXuXuXuXuXuXuXuXuXuXuXuXuXuXuXuXuXuXuXuXuXuXuXuXuXuXuXuXuXuXuXuX        D 8.w.w.7.Z 3 Z U Y T Y Y T <.1.4.6.7.7.7.7.7.7.7.7.7.7.6.1.Y U R 4.9.9.q.q.9.q.q.8.9.q.w.w.w.w.w.w.w.w.w.w.w.w.w.w.w.w.w.4.Y w +           uXuXuXuXuXuXuXuXuXuXuXuXuXuX",
"uXuXuXuXuXuXuXuXuXuXuXuXuXuXuXuXuXuXuXuXuXuXuXuXuXuXuXuX          6 E 6.w.w.w.w.w.w.w.w.w.w.w.w.w.w.w.w.w.w.9.8.7.8.9.q.q.8.7.7.<.Z = 5 1.9.8.1.7.7.7.7.7.7.7.7.9.1.8.1.1.<.T Y Y T T D 6 D 1.9.q.R %       uXuXuXuXuXuXuXuXuXuXuXuXuXuXuXuXuXuXuXuXuXuXuXuXuXuXuXuXuXuXuXuXuXuXuXuXuXuXuXuXuXuX      6 3.w.q.9.8.6.@.S F U U Y T U U ' <.1.1.6.6.6.7.7.7.7.6.4.2.@.<.1.6.6.7.8.9.q.9.8.7.8.q.w.w.w.w.w.w.w.w.w.w.w.w.w.w.w.w.w.w.w.w.6.U 5 #         uXuXuXuXuXuXuXuXuXuXuXuXuX",
"uXuXuXuXuXuXuXuXuXuXuXuXuXuXuXuXuXuXuXuXuXuXuXuXuXuX          2 T 6.w.w.w.w.w.w.w.w.e.w.w.w.w.w.w.w.w.w.w.w.w.w.8.7.7.7.8.q.q.8.1.1.U w Z <.9.1.7.7.7.7.7.7.7.7.8.8.8.1.@.T Y Y Y T K U <.4.7.7.9.3.A .     uXuXuXuXuXuXuXuXuXuXuXuXuXuXuXuXuXuXuXuXuXuXuXuXuXuXuXuXuXuXuXuXuXuXuXuXuXuXuXuXuX      @ K 7.8.7.7.7.7.7.7.1.R R ' R T T U T T <.<.@.1.1.3.2.3.6.2.1.4.7.7.6.8.9.9.8.7.7.7.7.q.w.w.w.w.w.g.w.w.w.w.w.w.w.w.w.w.w.w.w.w.w.w.w.3.K @         uXuXuXuXuXuXuXuXuXuXuXuX",
"uXuXuXuXuXuXuXuXuXuXuXuXuXuXuXuXuXuXuXuXuXuXuXuXuX          S 3.9.w.w.w.w.e.w.w.w.w.w.w.w.w.w.w.w.w.w.w.w.w.w.w.q.7.7.7.7.7.8.9.8.8.1.<.T U <.1.9.1.9.1.9.1.1.1.1.1.<.U U ' U U T <.<.4.7.7.7.7.7.3.R 2       uXuXuXuXuXuXuXuXuXuXuXuXuXuXuXuXuXuXuXuXuXuXuXuXuXuXuXuXuXuXuXuXuXuXuXuXuXuXuXuX      A ' 6.6.6.7.7.7.7.7.7.7.7.6.<.@.T T T @.T T T R T R W @.4.7.7.7.6.8.7.9.8.8.7.7.7.7.9.w.w.w.g.w.w.w.w.w.w.w.w.w.w.w.w.w.w.w.w.w.w.w.e.w.q.' w         uXuXuXuXuXuXuXuXuXuXuX",
"uXuXuXuXuXuXuXuXuXuXuXuXuXuXuXuXuXuXuXuXuXuXuXuX        @ U 8.w.w.w.w.w.w.w.w.w.g.w.w.w.w.w.w.w.w.w.w.w.w.w.w.w.w.8.7.7.7.7.7.7.9.q.8.8.1.1.1.1.1.1.1.1.1.1.1.<.' <.T <.@.<.1.1.4.6.7.7.7.7.7.7.7.6.E D @     uXuXuXuXuXuXuXuXuXuXuXuXuXuXuXuXuXuXuXuXuXuXuXuXuXuXuXuXuXuXuXuXuXuXuXuXuXuXuX      1 K <.6.7.7.7.7.7.7.7.7.7.7.7.8.1.9.8.7.7.9.1.7.7.8.6.7.8.7.7.7.7.7.8.9.8.6.7.7.7.7.7.q.w.w.w.w.w.w.w.w.w.w.w.w.w.w.w.w.w.w.w.w.w.w.w.w.w.w.w.4.Z .       uXuXuXuXuXuXuXuXuXuX",
"uXuXuXuXuXuXuXuXuXuXuXuXuXuXuXuXuXuXuXuXuXuXuX        2 ' 9.w.w.w.w.w.w.w.w.w.w.w.w.w.w.w.w.w.w.w.g.w.w.w.w.w.w.e.9.7.7.7.7.7.7.1.9.8.8.8.9.8.8.1.9.7.7.8.1.7.7.1.1.9.9.1.q.1.q.7.7.7.7.7.7.7.7.7.7.<.T 2       uXuXuXuXuXuXuXuXuXuXuXuXuXuXuXuXuXuXuXuXuXuXuXuXuXuXuXuXuXuXuXuXuXuXuXuXuXuX      A T 3.7.7.7.7.7.7.7.7.7.7.7.7.8.8.8.1.1.9.8.1.7.7.7.7.7.7.7.7.7.8.8.7.6.6.7.7.7.7.7.7.w.w.w.w.w.w.w.w.w.w.w.w.w.w.w.w.w.w.w.w.w.w.w.w.w.w.w.w.w.7.K .       uXuXuXuXuXuXuXuXuX",
"uXuXuXuXuXuXuXuXuXuXuXuXuXuXuXuXuXuXuXuXuXuX        6 <.w.w.w.w.w.w.w.w.w.w.w.w.w.w.w.w.w.w.w.w.w.w.w.w.w.w.w.w.w.9.8.7.7.7.7.7.8.9.1.9.8.1.1.9.9.1.7.7.8.8.7.7.1.9.8.1.q.1.q.1.7.7.7.7.7.7.7.7.7.6.3.R D +     uXuXuXuXuXuXuXuXuXuXuXuXuXuXuXuXuXuXuXuXuXuXuXuXuXuXuXuXuXuXuXuXuXuXuXuXuX      1 K ' 4.7.7.7.7.7.7.7.7.7.7.7.7.1.8.1.9.9.1.8.9.7.7.7.7.7.7.7.7.6.8.8.7.7.7.7.7.7.7.7.8.w.w.w.w.w.w.w.w.w.w.w.w.w.w.g.w.w.w.w.w.w.w.w.w.w.w.w.w.w.w.8.Y @       uXuXuXuXuXuXuXuX",
"uXuXuXuXuXuXuXuXuXuXuXuXuXuXuXuXuXuXuXuXuX        6 1.q.w.w.w.w.w.w.w.w.w.w.w.w.w.w.w.w.w.w.w.w.w.w.w.w.w.w.w.w.w.9.7.7.7.7.7.7.8.1.9.9.w.1.1.9.1.9.1.w.1.8.8.7.9.1.1.8.8.1.q.8.7.7.7.7.7.7.7.7.7.7.6.R T 2       uXuXuXuXuXuXuXuXuXuXuXuXuXuXuXuXuXuXuXuXuXuXuXuXuXuXuXuXuXuXuXuXuXuXuXuX      A U <.6.6.6.7.7.7.7.7.7.7.7.7.7.9.1.9.q.8.8.1.9.7.7.7.7.7.7.6.6.8.8.6.6.7.7.7.7.7.7.7.7.q.w.w.w.w.w.w.w.w.w.w.w.w.w.w.w.g.w.w.w.w.w.w.w.w.w.w.w.w.w.w.8.K @       uXuXuXuXuXuXuX",
"uXuXuXuXuXuXuXuXuXuXuXuXuXuXuXuXuXuXuXuX        6 1.w.w.w.w.w.w.w.g.w.w.w.w.w.w.w.w.w.w.w.w.w.g.w.w.w.w.w.w.w.w.w.8.7.7.7.7.7.7.9.1.8.1.1.8.9.9.w.1.9.1.8.8.7.7.8.8.9.9.1.q.8.1.7.7.7.7.7.7.7.7.7.7.6.<.T Z +     uXuXuXuXuXuXuXuXuXuXuXuXuXuXuXuXuXuXuXuXuXuXuXuXuXuXuXuXuXuXuXuXuXuXuXuX    + D T 4.7.7.7.7.7.7.7.7.7.7.7.7.7.1.9.1.1.1.9.9.1.7.7.7.7.7.7.7.8.6.6.7.7.7.7.7.7.7.7.7.7.9.w.w.w.w.w.w.w.w.w.w.w.w.w.w.w.w.w.w.w.w.w.w.w.w.w.w.w.w.w.w.w.8.K @ #     uXuXuXuXuXuX",
"uXuXuXuXuXuXuXuXuXuXuXuXuXuXuXuXuXuXuXuX      2 <.w.w.q.w.w.w.w.w.w.w.w.w.w.w.w.w.w.w.w.w.w.w.w.w.w.w.w.w.w.w.w.q.8.7.7.7.7.7.7.9.8.1.q.9.1.9.1.1.w.1.w.1.8.1.8.1.9.8.1.9.1.8.8.7.7.7.7.7.7.7.7.7.7.7.3.R U 1     uXuXuXuXuXuXuXuXuXuXuXuXuXuXuXuXuXuXuXuXuXuXuXuXuXuXuXuXuXuXuXuXuXuXuX      6 U R 4.7.7.7.7.7.7.7.7.7.7.7.7.7.q.8.1.q.1.9.9.1.7.7.7.7.7.7.7.7.7.7.7.7.7.7.7.7.7.7.7.7.8.w.w.w.w.w.w.w.w.w.w.w.w.w.w.w.w.w.w.w.w.w.w.w.w.w.w.w.w.w.q.w.w.7.S .       uXuXuXuXuX",
"uXuXuXuXuXuXuXuXuXuXuXuXuXuXuXuXuXuXuX      + R 9.w.9.w.w.w.w.w.w.w.w.w.w.w.w.w.w.w.w.w.w.w.w.w.w.w.w.w.w.w.w.w.9.7.7.7.7.7.7.7.1.8.q.1.8.q.1.9.9.1.9.1.8.8.9.9.1.8.9.1.8.8.9.1.7.7.7.7.7.7.7.7.7.7.7.4.E T 3       uXuXuXuXuXuXuXuXuXuXuXuXuXuXuXuXuXuXuXuXuXuXuXuXuXuXuXuXuXuXuXuXuXuX      A T ' 4.7.7.7.7.7.7.7.7.7.7.7.7.7.q.1.9.1.9.9.1.9.7.7.7.7.7.7.7.7.7.7.7.7.7.7.7.7.7.7.7.7.6.9.w.w.w.w.w.w.w.w.g.w.w.w.w.w.w.w.w.w.w.w.w.w.w.w.w.w.w.w.9.q.w.w.1.3       uXuXuXuXuX",
"uXuXuXuXuXuXuXuXuXuXuXuXuXuXuXuXuXuX        K 9.w.q.9.w.w.w.w.w.w.w.w.w.w.g.w.w.w.w.w.w.w.w.w.w.w.w.w.w.w.w.w.q.7.7.7.7.7.7.7.7.7.7.7.7.7.7.7.7.7.7.7.7.7.7.7.7.7.7.7.7.7.7.7.7.7.7.7.7.7.7.7.7.7.7.7.6.' T D @     uXuXuXuXuXuXuXuXuXuXuXuXuXuXuXuXuXuXuXuXuXuXuXuXuXuXuXuXuXuXuXuXuXuX    @ D T <.6.7.7.7.7.7.7.7.7.7.7.7.7.7.1.q.8.8.1.1.9.8.7.7.7.7.7.7.7.7.7.7.7.7.7.7.7.7.7.7.7.7.7.8.q.w.w.w.w.w.w.w.w.w.w.w.w.w.w.w.w.w.w.w.w.w.w.w.w.w.w.w.q.8.q.w.w.<.%       uXuXuXuX",
"uXuXuXuXuXuXuXuXuXuXuXuXuXuXuXuXuXuX      w 6.w.w.8.8.q.w.w.w.w.w.w.w.w.w.w.w.w.w.w.w.w.w.w.w.w.w.w.w.w.w.w.w.7.7.7.7.7.7.7.7.7.7.7.7.7.7.7.7.7.7.7.7.7.7.7.7.7.7.7.7.7.7.7.7.7.7.7.7.7.7.7.7.7.7.7.7.7.<.T U 1     uXuXuXuXuXuXuXuXuXuXuXuXuXuXuXuXuXuXuXuXuXuXuXuXuXuXuXuXuXuXuXuXuX      6 U T 3.6.7.7.7.7.7.7.7.7.7.7.7.7.7.1.8.8.1.9.8.9.1.7.7.7.7.7.7.7.7.7.7.7.7.7.7.7.7.7.7.7.7.7.7.8.q.w.w.w.w.w.w.w.w.w.w.w.w.w.w.w.w.w.w.w.w.w.w.w.w.w.w.q.8.7.q.w.q.D #     uXuXuXuX",
"uXuXuXuXuXuXuXuXuXuXuXuXuXuXuXuXuX      + ' q.w.9.7.9.q.w.w.w.w.w.w.w.w.w.w.w.w.w.w.w.w.w.w.w.w.w.w.w.w.w.w.9.7.7.7.7.7.7.7.7.7.7.7.7.7.7.7.7.7.7.7.7.7.7.7.7.7.7.7.7.7.7.7.7.7.7.7.7.7.7.7.7.7.7.7.7.7.<.T T 2       uXuXuXuXuXuXuXuXuXuXuXuXuXuXuXuXuXuXuXuXuXuXuXuXuXuXuXuXuXuXuXuX      Z T R 4.7.7.7.7.7.7.7.7.7.7.7.7.7.7.9.9.8.8.8.9.8.1.7.7.7.7.7.7.7.7.7.7.7.7.7.7.7.7.7.7.7.7.7.7.7.8.w.w.w.w.w.w.w.w.w.w.w.w.w.w.w.w.w.w.w.w.w.w.w.w.w.w.q.8.7.9.q.w.4.3       uXuXuX",
"uXuXuXuXuXuXuXuXuXuXuXuXuXuXuXuXuX      D 8.w.q.7.7.9.w.w.w.w.w.w.w.w.w.w.w.w.w.w.w.w.w.w.w.w.w.w.w.w.g.w.9.7.7.7.7.7.7.7.7.7.7.7.7.7.7.7.7.7.7.7.7.7.7.7.7.7.7.7.7.7.7.7.7.7.7.7.7.7.7.7.7.7.7.7.7.7.7.1.E Y Z +     uXuXuXuXuXuXuXuXuXuXuXuXuXuXuXuXuXuXuXuXuXuXuXuXuXuXuXuXuXuXuXuX    # S Y R 4.7.7.7.7.7.7.7.7.7.7.7.7.7.7.8.1.1.9.1.1.8.9.7.7.7.7.7.7.7.7.7.7.7.7.7.7.7.7.7.7.7.7.7.7.7.7.8.9.w.w.w.w.w.w.w.w.w.w.w.w.w.w.g.w.w.w.w.w.w.w.w.w.q.7.7.7.q.w.w.U +     uXuXuX",
"uXuXuXuXuXuXuXuXuXuXuXuXuXuXuXuX      % ' w.q.9.7.7.7.w.w.w.w.w.w.w.w.w.w.w.w.w.w.w.w.w.w.w.w.w.w.w.w.w.7.7.7.7.7.7.7.7.7.7.7.7.7.7.6.7.7.7.7.7.7.7.7.7.7.7.7.7.7.7.7.7.7.7.7.7.7.7.7.7.7.7.7.7.7.7.7.7.4.R T K 1     uXuXuXuXuXuXuXuXuXuXuXuXuXuXuXuXuXuXuXuXuXuXuXuXuXuXuXuXuXuXuXuX    2 K Y ' 4.7.7.7.7.7.7.7.7.7.7.7.7.7.7.7.7.7.7.9.9.8.1.7.7.7.7.7.7.7.7.7.7.7.7.7.7.7.7.7.7.7.7.7.7.7.7.7.8.9.w.w.w.w.w.w.w.w.w.w.w.w.w.w.w.w.w.w.w.w.w.w.w.8.7.7.7.8.q.w.7.5       uXuX",
"uXuXuXuXuXuXuXuXuXuXuXuXuXuXuXuX      D 9.w.9.7.7.7.6.9.w.w.w.w.w.w.w.w.w.w.w.w.w.w.w.w.w.w.w.w.w.w.q.7.7.7.7.7.7.7.7.7.7.7.7.7.7.7.7.7.7.7.7.7.7.7.7.7.7.7.7.7.7.7.7.7.7.7.7.7.7.7.7.7.7.7.7.7.7.7.7.7.4.' Y T 2     uXuXuXuXuXuXuXuXuXuXuXuXuXuXuXuXuXuXuXuXuXuXuXuXuXuXuXuXuXuXuX      w U T ' 4.7.7.7.7.7.7.7.7.7.7.7.7.7.7.7.7.7.7.8.1.8.9.7.7.7.7.7.7.7.7.7.7.7.7.7.7.7.7.7.7.7.7.7.7.7.7.7.7.8.8.9.w.w.w.w.w.w.w.w.w.w.w.w.w.w.w.g.w.w.w.w.q.7.7.7.7.7.9.w.w.K #     uXuX",
"uXuXuXuXuXuXuXuXuXuXuXuXuXuXuX      + ' w.w.8.7.7.7.7.7.q.w.w.w.w.w.w.w.w.w.w.w.w.w.w.w.w.w.w.w.w.9.7.7.7.7.7.7.7.7.7.7.7.7.7.7.7.7.7.7.7.7.7.7.7.7.7.7.7.7.7.7.7.7.7.7.7.7.7.7.7.7.7.7.7.7.7.7.7.7.7.7.6.' Y T 2       uXuXuXuXuXuXuXuXuXuXuXuXuXuXuXuXuXuXuXuXuXuXuXuXuXuXuXuXuXuX      Z U T <.6.7.7.7.7.7.7.7.7.7.7.7.7.7.7.7.7.8.7.8.8.1.9.7.7.7.7.7.7.7.7.7.7.7.7.7.7.7.7.7.7.7.7.7.7.7.7.7.7.7.7.8.8.9.w.w.w.w.w.w.w.w.w.w.w.w.w.w.w.w.w.q.7.7.7.7.7.9.8.9.w.4.2       uX",
"uXuXuXuXuXuXuXuXuXuXuXuXuXuXuX      Z 6.w.9.7.7.7.7.7.7.7.9.w.w.w.w.w.w.w.w.w.w.w.w.w.w.w.w.q.8.9.7.7.7.7.7.7.7.7.7.7.7.7.7.7.7.7.7.7.7.7.7.7.7.7.7.7.7.7.7.7.7.7.7.7.7.7.7.7.7.7.7.7.7.7.7.7.7.7.7.7.7.6.' T U Z #     uXuXuXuXuXuXuXuXuXuXuXuXuXuXuXuXuXuXuXuXuXuXuXuXuXuXuXuXuXuX      A T T 1.6.7.7.7.7.7.7.7.7.7.7.7.7.7.7.7.7.8.1.8.1.8.8.7.7.7.7.7.7.7.7.7.7.7.7.7.7.7.7.7.7.7.7.7.7.7.7.7.7.7.7.7.7.8.9.w.w.w.w.w.w.w.w.w.w.w.w.w.w.q.q.8.7.7.7.9.1.1.7.9.w.q.Z       uX",
"uXuXuXuXuXuXuXuXuXuXuXuXuXuXuX      U q.w.8.7.7.7.7.7.7.7.7.9.9.w.w.w.w.w.w.w.w.w.w.w.9.9.8.7.7.7.7.7.7.7.7.7.7.7.7.7.7.7.7.7.7.7.7.7.7.7.7.7.7.7.7.8.6.7.7.7.7.7.7.7.7.7.7.7.7.7.7.7.7.7.7.7.7.7.7.7.7.7.<.T U D @     uXuXuXuXuXuXuXuXuXuXuXuXuXuXuXuXuXuXuXuXuXuXuXuXuXuXuXuXuXuX    @ D T U 1.7.7.7.7.7.7.7.7.7.7.7.7.7.7.7.7.7.7.7.7.7.7.7.7.7.7.7.1.8.8.7.7.7.7.7.7.7.7.7.7.7.7.7.7.7.7.7.7.7.7.7.7.7.7.7.6.8.8.9.w.9.9.w.w.w.q.q.w.9.9.1.9.9.8.1.7.7.7.7.8.q.w.K +     uX",
"uXuXuXuXuXuXuXuXuXuXuXuXuXuXuX    . R w.9.8.7.7.7.7.7.7.7.7.7.7.q.q.q.q.q.9.9.9.9.8.8.7.7.7.7.7.7.7.7.7.7.7.7.7.7.7.7.7.7.7.7.7.7.7.7.7.7.7.7.7.7.6.6.6.7.7.7.6.7.7.7.7.7.7.7.7.7.7.7.7.7.7.7.7.7.7.7.7.7.<.T T U 2     uXuXuXuXuXuXuXuXuXuXuXuXuXuXuXuXuXuXuXuXuXuXuXuXuXuXuXuXuXuX    2 K Y T 3.7.7.7.7.7.7.7.7.7.7.7.7.7.7.7.7.7.7.7.7.8.7.7.7.7.7.7.8.9.7.7.7.7.7.7.7.7.7.7.7.7.7.7.7.7.7.7.7.7.7.7.8.6.7.7.7.7.7.7.6.7.8.8.8.8.8.8.1.9.1.9.8.1.8.9.7.7.7.7.8.9.w.<.3     uX",
"uXuXuXuXuXuXuXuXuXuXuXuXuXuX      5 3.w.8.7.7.7.7.7.7.7.7.7.7.7.q.1.8.8.7.7.8.8.7.7.1.9.7.7.7.7.7.7.7.7.7.7.7.7.7.7.7.7.7.7.7.7.7.7.7.7.7.7.7.7.7.7.6.6.6.<.1.6.7.7.7.7.7.7.7.7.7.7.7.7.7.7.7.7.7.7.7.7.7.<.T T U 2     uXuXuXuXuXuXuXuXuXuXuXuXuXuXuXuXuXuXuXuXuXuXuXuXuXuXuXuXuXuX    6 U T T 1.7.7.7.7.7.7.7.7.7.7.7.7.7.7.7.7.7.7.7.1.8.1.<.1.1.1.8.8.1.9.1.7.7.7.7.7.7.8.7.7.7.7.7.7.7.7.7.7.7.7.7.6.7.7.7.7.7.7.7.6.7.7.7.7.7.1.8.9.1.1.9.7.7.7.7.7.7.7.7.6.9.w.8.6       ",
"uXuXuXuXuXuXuXuXuXuXuXuXuXuX      A 8.w.8.7.7.7.7.6.7.7.7.7.7.7.1.8.8.1.8.9.1.8.7.7.7.7.7.7.7.7.7.7.7.7.7.7.7.7.7.7.7.7.7.7.7.7.7.7.7.7.7.7.7.7.7.6.4.<.T T ' 4.7.7.7.7.7.7.7.7.7.7.7.7.7.7.7.7.7.7.7.7.7.<.T T T 2     uXuXuXuXuXuXuXuXuXuXuXuXuXuXuXuXuXuXuXuXuXuXuXuXuXuXuXuXuX      w U T T 3.6.7.7.7.7.7.7.7.7.7.7.7.7.7.7.7.7.7.7.8.8.1.<.T T 1.1.7.1.8.8.7.7.7.7.7.7.8.1.7.7.7.7.7.7.7.7.7.7.7.7.6.7.7.7.7.7.7.7.7.7.7.7.7.7.7.8.9.1.9.9.7.7.7.7.7.7.7.7.6.8.q.9.Z       ",
"uXuXuXuXuXuXuXuXuXuXuXuXuXuX      F 9.w.8.7.7.7.7.7.7.7.7.7.7.7.q.8.1.9.8.1.8.1.7.7.7.7.7.7.7.7.7.7.7.7.7.7.7.7.7.7.7.7.7.7.7.7.7.7.7.6.6.6.6.4.<.R T U T T T 1.7.7.7.7.7.7.7.7.7.7.7.7.7.7.7.7.7.7.7.7.7.<.T U T 2       uXuXuXuXuXuXuXuXuXuXuXuXuXuXuXuXuXuXuXuXuXuXuXuXuXuXuXuX      6 T T T 1.7.7.7.7.7.7.7.7.7.7.7.7.7.6.6.7.7.7.7.7.7.<.T T T T U <.<.1.1.1.1.8.8.8.8.1.8.7.7.7.8.7.7.7.7.7.7.7.7.7.7.7.7.7.7.7.7.7.7.7.7.7.7.8.1.q.1.9.1.7.7.7.7.7.7.7.7.6.8.q.q.S       ",
"uXuXuXuXuXuXuXuXuXuXuXuXuXuX      U q.9.8.7.7.7.7.7.7.7.7.7.7.7.9.1.8.9.8.9.8.8.7.7.7.7.7.7.7.7.7.7.7.7.7.7.7.7.7.7.7.7.7.7.7.7.6.6.6.6.1.' R T T T T T T U Y <.6.7.7.7.7.7.7.6.7.7.7.6.7.7.7.7.7.7.7.6.7.<.T T T 2       uXuXuXuXuXuXuXuXuXuXuXuXuXuXuXuXuXuXuXuXuXuXuXuXuXuXuXuX      Z T T T 1.7.7.6.7.7.7.7.6.6.7.7.7.7.7.6.7.7.7.8.8.1.<.U T T T U U U T T <.1.1.1.1.1.8.7.7.7.7.8.7.7.7.7.7.7.7.7.7.7.7.6.7.7.7.7.7.7.7.7.7.7.8.1.1.q.1.8.7.7.8.9.7.7.7.7.7.7.q.w.S       ",
"uXuXuXuXuXuXuXuXuXuXuXuXuXuX      U w.8.8.7.7.7.7.7.7.7.7.7.7.7.1.q.8.1.1.1.9.1.7.7.7.7.7.7.7.7.7.7.7.7.7.7.7.7.7.7.7.7.7.1.6.1.<.E T T T T Y Y T T U T T T U R <.6.4.4.4.1.6.4.4.1.6.4.4.1.1.1.4.1.4.4.4.' T U T 5       uXuXuXuXuXuXuXuXuXuXuXuXuXuXuXuXuXuXuXuXuXuXuXuXuXuXuXuX      w U T U <.4.6.6.6.4.4.4.4.6.4.6.6.6.6.6.1.1.1.1.1.<.T T T T T T U T U T T U R R R <.<.1.1.1.1.1.1.1.7.7.7.7.7.7.7.7.6.6.6.6.7.7.6.7.6.6.7.8.1.8.q.9.1.q.7.7.7.1.7.7.7.7.7.7.q.w.S       ",
"uXuXuXuXuXuXuXuXuXuXuXuXuXuX      U w.9.7.6.7.7.7.7.7.7.7.7.7.6.q.1.1.9.9.8.8.8.7.7.7.7.7.7.7.7.7.7.7.7.7.7.1.1.1.1.' ' ' ' U ' T Y T T T U T T U T U T U T T T T T T U T T T U T T T U T T T T U T T U U T T T Y 5 #     uXuXuXuXuXuXuXuXuXuXuXuXuXuXuXuXuXuXuXuXuXuXuXuXuXuXuXuX      6 T Y Y T R T T T T R T T T T T U T U T ' U <.T <.T T T U T U T T T T T T T T T T T T T T <.R <.1.<.<.1.1.3.3.3.3.4.4.4.4.4.4.6.4.6.6.4.1.8.8.8.8.1.q.1.7.7.7.7.7.7.7.7.7.7.8.w.D       ",
"uXuXuXuXuXuXuXuXuXuXuXuXuXuX      U q.9.7.7.6.7.7.7.7.7.6.7.7.6.6.6.6.6.6.4.4.4.4.4.3.1.1.1.<.<.1.' ' ' R T T T T T T T U U T T Y Y T Y U T T Y U T U T T U T Y T T T U Y Y Y Y T Y U T T U Y T T U T T Y T U U T 6 .     uXuXuXuXuXuXuXuXuXuXuXuXuXuXuXuXuXuXuXuXuXuXuXuXuXuXuXuX      6 T U T T T U U T T T Y T T Y T T T U Y Y T T Y R R T T T U T T T U Y T T T T U T T T T Y U T U T T T Y T T T T R R R E R E ' ' <.' ' <.' <.<.<.<.' <.<.<.1.1.1.1.1.3.4.4.4.8.w.D       ",
"uXuXuXuXuXuXuXuXuXuXuXuXuXuX      K q.8.4.4.3.3.1.<.<.<.' ' ' ' ' E R R R R R R T T R R T T T T ' U T K U T T T U T T T T T Y Y Y T Y Y T T T U T T T T T U T Y T T T T T Y T Y U T T Y T T Y T T T U T Y T T T T 6       uXuXuXuXuXuXuXuXuXuXuXuXuXuXuXuXuXuXuXuXuXuXuXuXuXuXuXuX      6 T U T U T T T T U T U U T T U U T T T T T U T T T U U T T Y U T T Y Y U T T T U T U T T T Y Y T U U T T U Y T Y T T Y T T T U T U Y T T T U T T T T T T T T T R R R R R R 5.8.A       ",
"uXuXuXuXuXuXuXuXuXuXuXuXuXuX      D 9.4.R R R T T T T T T T T T Y T T T Y U Y Y T U Y U T Y T U U K U T U T U T T T T U T U T U Y Y Y Y U T U T T T U T Y T T Y T T T T U T T Y T T T T U T T U T T T T T Y Y T T 5       uXuXuXuXuXuXuXuXuXuXuXuXuXuXuXuXuXuXuXuXuXuXuXuXuXuXuXuX      6 U T T T T U T T T T T T Y T U Y Y T Y U T T T T T Y T Y Y T T U T T T T T U T T T U T T Y U T Y U T T T Y T Y Y T U T T T T U T Y Y T U T U T U T Y T T T U T T U T U Y T 4.7.Z       ",
"uXuXuXuXuXuXuXuXuXuXuXuXuXuX      A 6.3.T T Y T T Y T T T Y Y T T U U T T T T T T T T T U T T T ' ' U T T T T T T U Y T T Y T T Y Y T T T T T T U U T T T T U Y T T R U T U Y Y U U U Y Y U T U U U U U U Y U U U 3       uXuXuXuXuXuXuXuXuXuXuXuXuXuXuXuXuXuXuXuXuXuXuXuXuXuXuXuX      6 T T Y U T T T T U U T U Y T T T T U T U T U R T U T U T U U T U U U U U U U U U U U U U U U U U U U U U K K U K U U K K K K U K K K K K K K K K K K F K F K K F K K F F K R T 1     uX",
"uXuXuXuXuXuXuXuXuXuXuXuXuXuXuX    1 U R K D K D F D D K D D F D D F D F D D D D D D D D D D D D S S D D D D D S S D D D D F S D D D S D S S D D S S S S S S S A Z K F Z A A S A A A Z Z Z A Z Z Z Z Z Z Z Z Z w w @       uXuXuXuXuXuXuXuXuXuXuXuXuXuXuXuXuXuXuXuXuXuXuXuXuXuXuXuX      1 D D D D D D K D D D D D D D S S D S S S S S D D S S A Z Z A Z Z Z Z Z w w Z Z Z w w w w 6 w 6 6 6 6 5 5 6 5 5 5 3 3 3 3 3 3 2 3 2 2 2 2 2 2 1 2 1 2 1 1 1 1 1 % % % @ % @ 1 @ #     uX",
"uXuXuXuXuXuXuXuXuXuXuXuXuXuXuX      % % @ @ @ @ @ @ + @ @ @ + + + + + + + . + + . # + + . .   + . . # . .   #     #                                                                                                     uXuXuXuXuXuXuXuXuXuXuXuXuXuXuXuXuXuXuXuXuXuXuXuXuXuXuXuXuXuX      @   . # .                                                               +                                                                                                           uX",
"uXuXuXuXuXuXuXuXuXuXuXuXuXuXuX                                                                  #                                                                                                                       uXuXuXuXuXuXuXuXuXuXuXuXuXuXuXuXuXuXuXuXuXuXuXuXuXuXuXuXuXuX                                                                                                                                                                                          uX"
};
